!!!!SEGMENT: pl-cz--iii-279_goetz-gieczynski-cyryl--aeterne-deus-in-b-a.krn
!!!cenid: 18xx:74
!!!COM: Goetz-Gieczyński, Cyryl
!!!COM-rism: pe30020327
!!!CDT: 1793-1866
!!!CNT:
!!!OTL: Aeterne deus in B - a
!!!PDT:
!!!AGN: Sacred
!!!SMS-siglum: PL-CZ
!!!SMS-shelfmark: III-279
!!!NIFC-rismID:
!!!URL-scan: http://repozytorium.nifc.pl/skany/pl-cz-nut--iii-279
!!!ONB-nifc:
**kern	**fba	**dynam	**kern	**dynam	**kern	**dynam	**kern	**dynam	**kern	**text	**dynam	**kern	**text	**dynam	**kern	**text	**dynam	**kern	**text	**dynam	**kern	**dynam	**kern	**dynam	**kern	**dynam	**kern	**dynam
*part12	*	*part12	*part11	*part11	*part10	*part10	*part9	*part9	*part8	*part8	*part8	*part7	*part7	*part7	*part6	*part6	*part6	*part5	*part5	*part5	*part4	*part4	*part3	*part3	*part2	*part2	*part1	*part1
*	*	*	*group4	*	*group4	*	*group4	*	*group3	*	*	*group3	*	*	*group3	*	*	*group3	*	*	*group2	*	*group2	*	*group1	*	*group1	*
*staff12	*	*	*staff11	*	*staff10	*	*staff9	*	*staff8	*staff8	*	*staff7	*staff7	*	*staff6	*staff6	*	*staff5	*staff5	*	*staff4	*	*staff3	*	*staff2	*	*staff1	*
*I"Organo.	*	*	*I"Alto. Viola	*	*I"Violino Secundo.	*	*I"Violino Primo.	*	*I"Baſso.	*	*	*I"Tenore.	*	*	*I"Alto.	*	*	*I"Canto.	*	*	*I"Cornu 2do in B.	*	*I"Cornu 1mo in B.	*	*I"Clarinetto 2do B. Mut.	*	*I"Clarinetto Primo. B. Mut.	*
*I'Org	*	*	*I'Vla	*	*I'Vn II	*	*I'Vn I	*	*I'B	*	*	*I'T	*	*	*I'A	*	*	*I'C	*	*	*I'Cor II	*	*I'Cor I	*	*I'Cl II	*	*I'Cl I	*
*clefF4	*	*	*clefC3	*	*clefG2	*	*clefG2	*	*clefF4	*	*	*clefC4	*	*	*clefC3	*	*	*clefC1	*	*	*clefG2	*	*clefG2	*	*clefG2	*	*clefG2	*
*	*	*	*	*	*	*	*	*	*	*	*	*	*	*	*	*	*	*	*	*	*ITrd1c2	*	*ITrd1c2	*	*ITrd1c2	*	*ITrd1c2	*
*k[b-e-]	*	*	*k[b-e-]	*	*k[b-e-]	*	*k[b-e-]	*	*k[b-e-]	*	*	*k[b-e-]	*	*	*k[b-e-]	*	*	*k[b-e-]	*	*	*k[b-e-]	*	*k[b-e-]	*	*k[b-e-]	*	*k[b-e-]	*
*B-:	*	*	*B-:	*	*B-:	*	*B-:	*	*B-:	*	*	*B-:	*	*	*B-:	*	*	*B-:	*	*	*	*	*	*	*	*	*	*
*M4/4	*	*	*M4/4	*	*M4/4	*	*M4/4	*	*M4/4	*	*	*M4/4	*	*	*M4/4	*	*	*M4/4	*	*	*M4/4	*	*M4/4	*	*M4/4	*	*M4/4	*
*met(c)	*	*	*met(c)	*	*met(c)	*	*met(c)	*	*met(c)	*	*	*met(c)	*	*	*met(c)	*	*	*met(c)	*	*	*met(c)	*	*met(c)	*	*met(c)	*	*met(c)	*
=1	=1	=1	=1	=1	=1	=1	=1	=1	=1	=1	=1	=1	=1	=1	=1	=1	=1	=1	=1	=1	=1	=1	=1	=1	=1	=1	=1	=1
*	*	*	*	*	*	*	*2\right	*	*	*	*	*	*	*	*	*	*	*	*	*	*	*	*	*	*	*	*	*
!LO:TX:a:t=Solo	!	!	!	!	!	!	!	!	!LO:TX:a:t=8.	!	!	!LO:TX:a:t=8.	!	!	!LO:TX:a:t=8.	!	!	!LO:TX:a:t=8.	!	!	!LO:TX:a:t=3.	!	!LO:TX:a:t=3.	!	!LO:TX:a:t=3.	!	!LO:TX:a:t=3.	!
!LO:TX:a:i:t=Moderato.	!	!	!LO:TX:a:i:t=Moderato.	!	!LO:TX:a:i:t=Moderato.	!	!LO:TX:a:i:t=Moderato.	!	!LO:TX:a:i:t=Moderato.	!	!	!LO:TX:a:i:t=Moderato.	!	!	!LO:TX:a:i:t=Moderato.	!	!	!LO:TX:a:i:t=Moderato.	!	!	!LO:TX:a:i:t=Moderato.	!	!LO:TX:a:i:t=Moderato.	!	!LO:TX:a:i:t=Moderato	!	!LO:TX:a:i:t=Moderato	!
!LO:TX:i:t=Offertorium	!	!	!LO:TX:i:t=Offertorium	!	!LO:TX:i:t=Offertorium	!	!LO:TX:i:t=Offertorium.	!	!LO:TX:i:t=Offertorium	!	!	!LO:TX:i:t=Offertor	!	!	!LO:TX:i:t=Offertor	!	!	!LO:TX:i:t=Offertor	!	!	!LO:TX:i:t=Offertorium	!	!LO:TX:i:t=Offertorium	!	!LO:TX:i:t=Offertorium	!	!LO:TX:i:t=Offertorium	!
!	!	!LO:DY:b:rj	!	!LO:DY:rj:t=p	!	!	!	!LO:DY:b:rj	!	!	!	!LO:TX:a:t=P:problem:kolejność znaków B-, E-	!	!	!	!	!	!	!	!	!	!	!	!	!	!	!	!
4BB-/	.	p	(8B-\L	p	(8d/L	p	2b-\	p	00r	.	.	00r	.	.	00r	.	.	00r	.	.	0r	.	0r	.	0r	.	0r	.
.	.	.	8d\)	.	8f/	.	.	.	.	.	.	.	.	.	.	.	.	.	.	.	.	.	.	.	.	.	.	.
4BB-/	.	.	(8B-\	.	8d/	.	.	.	.	.	.	.	.	.	.	.	.	.	.	.	.	.	.	.	.	.	.	.
.	.	.	8d\J)	.	8f/J)	.	.	.	.	.	.	.	.	.	.	.	.	.	.	.	.	.	.	.	.	.	.	.
4C/	.	.	(8c\L	.	(8e-/L	.	4a\	.	.	.	.	.	.	.	.	.	.	.	.	.	.	.	.	.	.	.	.	.
.	.	.	8d\)	.	8f/	.	.	.	.	.	.	.	.	.	.	.	.	.	.	.	.	.	.	.	.	.	.	.
4BB-/	.	.	(8B-\	.	8d/	.	4b-\	.	.	.	.	.	.	.	.	.	.	.	.	.	.	.	.	.	.	.	.	.
.	.	.	8d\J)	.	8f/J)	.	.	.	.	.	.	.	.	.	.	.	.	.	.	.	.	.	.	.	.	.	.	.
=2	=2	=2	=2	=2	=2	=2	=2	=2	=2	=2	=2	=2	=2	=2	=2	=2	=2	=2	=2	=2	=2	=2	=2	=2	=2	=2	=2	=2
*	*	*	*tremolo	*	*tremolo	*	*	*	*	*	*	*	*	*	*	*	*	*	*	*	*	*	*	*	*	*	*	*
*	*	*	*2\right	*	*	*	*	*	*	*	*	*	*	*	*	*	*	*	*	*	*	*	*	*	*	*	*	*
4E-\	.	.	(8B-\L	.	(8e-/L	.	8g\L	.	.	.	.	.	.	.	.	.	.	.	.	.	.	.	.	.	.	.	.	.
.	.	.	8e-\)	.	8g/	.	8bn\	.	.	.	.	.	.	.	.	.	.	.	.	.	.	.	.	.	.	.	.	.
4E-\	.	.	(8B-\	.	8e-/	.	8cc\	.	.	.	.	.	.	.	.	.	.	.	.	.	.	.	.	.	.	.	.	.
.	.	.	8e-\J)	.	8g/J)	.	8dd\J	.	.	.	.	.	.	.	.	.	.	.	.	.	.	.	.	.	.	.	.	.
4E-\	.	.	(8B-\L	.	8e-/L	.	8ee-\L	.	.	.	.	.	.	.	.	.	.	.	.	.	.	.	.	.	.	.	.	.
.	.	.	8e-\)	.	8g/	.	8ff\J	.	.	.	.	.	.	.	.	.	.	.	.	.	.	.	.	.	.	.	.	.
4En\	.	.	8c\	.	8en/	.	16gg\LL	.	.	.	.	.	.	.	.	.	.	.	.	.	.	.	.	.	.	.	.	.
.	.	.	.	.	.	.	16dd\	.	.	.	.	.	.	.	.	.	.	.	.	.	.	.	.	.	.	.	.	.
!	!	!	!	!	!	!	!LO:TX:a:t=P:problem:przebieg linii melodycznej wyklucza użycie dźwięku e2 w vln 1	!	!	!	!	!	!	!	!	!	!	!	!	!	!	!	!	!	!	!	!	!
.	.	.	8en\J	.	8g/J	.	16ee-\	.	.	.	.	.	.	.	.	.	.	.	.	.	.	.	.	.	.	.	.	.
.	.	.	.	.	.	.	16cc\JJ	.	.	.	.	.	.	.	.	.	.	.	.	.	.	.	.	.	.	.	.	.
=3	=3	=3	=3	=3	=3	=3	=3	=3	=3	=3	=3	=3	=3	=3	=3	=3	=3	=3	=3	=3	=3	=3	=3	=3	=3	=3	=3	=3
4F\	.	.	(8B-/L	.	(8d/L	.	4.b-T\	.	.	.	.	.	.	.	.	.	.	.	.	.	1r	.	1r	.	1r	.	1r	.
.	.	.	8d/)	.	8f/)	.	.	.	.	.	.	.	.	.	.	.	.	.	.	.	.	.	.	.	.	.	.	.
4F\	.	.	(8B-/	.	(8d/	.	.	.	.	.	.	.	.	.	.	.	.	.	.	.	.	.	.	.	.	.	.	.
.	.	.	8d/J)	.	8f/J)	.	16cc\LL	.	.	.	.	.	.	.	.	.	.	.	.	.	.	.	.	.	.	.	.	.
.	.	.	.	.	.	.	16b-\JJ	.	.	.	.	.	.	.	.	.	.	.	.	.	.	.	.	.	.	.	.	.
4F\	.	.	4A/	.	4c/	.	4a/	.	.	.	.	.	.	.	.	.	.	.	.	.	.	.	.	.	.	.	.	.
4r	.	.	4r	.	4r	.	4ff\	.	.	.	.	.	.	.	.	.	.	.	.	.	.	.	.	.	.	.	.	.
!LO:LB:g=original	!	!	!	!	!LO:LB:g=original	!	!LO:LB:g=original	!	!	!	!	!	!	!	!	!	!	!	!	!	!	!	!	!	!	!	!	!
=4	=4	=4	=4	=4	=4	=4	=4	=4	=4	=4	=4	=4	=4	=4	=4	=4	=4	=4	=4	=4	=4	=4	=4	=4	=4	=4	=4	=4
*2\right	*	*	*	*	*	*	*	*	*	*	*	*	*	*	*	*	*	*	*	*	*	*	*2\right	*	*2\right	*	*2\right	*
!	!	!LO:DY:rj	!	!LO:DY:rj:t=f	!	!LO:DY:b:rj	!	!LO:DY:b:rj	!	!	!	!	!	!	!	!	!	!	!	!	!	!LO:DY:a:rj	!	!LO:DY:a:rj	!	!LO:DY:a:rj	!	!LO:DY:a:rj
2D\	6	f	2d 2B-\	f	2d 2B-/	f	2ff 2b- 2d\	fp	.	.	.	.	.	.	.	.	.	.	.	.	2B-^>/	f	2b-^\	f	2dd\	f	2bb-\	f
2r	.	.	2r	.	2r	.	8ee-\L	.	.	.	.	.	.	.	.	.	.	.	.	.	2r	.	2r	.	2r	.	2r	.
.	.	.	.	.	.	.	8dd\	.	.	.	.	.	.	.	.	.	.	.	.	.	.	.	.	.	.	.	.	.
.	.	.	.	.	.	.	8cc\	.	.	.	.	.	.	.	.	.	.	.	.	.	.	.	.	.	.	.	.	.
.	.	.	.	.	.	.	8b-\J	.	.	.	.	.	.	.	.	.	.	.	.	.	.	.	.	.	.	.	.	.
!	!	!	!LO:LB:g=original	!	!	!	!	!	!	!	!	!	!	!	!	!	!	!	!	!	!	!	!	!	!	!	!	!
=5	=5	=5	=5	=5	=5	=5	=5	=5	=5	=5	=5	=5	=5	=5	=5	=5	=5	=5	=5	=5	=5	=5	=5	=5	=5	=5	=5	=5
!	!	!	!	!	!	!	!	!LO:DY:b:rj	!	!	!	!	!	!	!	!	!	!	!	!	!	!LO:DY:a:rj	!	!	!	!	!	!
4E-\	5	.	4e- 4B-\	.	4e- 4G/	.	4gg 4b- 4e-\	f	00r	.	.	00r	.	.	00r	.	.	00r	.	.	4B-/	f	4b-\	.	4ee-\	.	4gg\	.
4BB-/	5	.	4d 4B-\	.	4d 4B-/	.	4ff 4b- 4d\	.	.	.	.	.	.	.	.	.	.	.	.	.	4B-/	.	4b-\	.	4dd\	.	4ff\	.
2r	.	.	2r	.	2r	.	8r	.	.	.	.	.	.	.	.	.	.	.	.	.	2r	.	2r	.	2r	.	2r	.
!	!	!	!	!	!	!	!	!LO:DY:b	!	!	!	!	!	!	!	!	!	!	!	!	!	!	!	!	!	!	!	!
.	.	.	.	.	.	.	8ff\L	p	.	.	.	.	.	.	.	.	.	.	.	.	.	.	.	.	.	.	.	.
.	.	.	.	.	.	.	8ff\	.	.	.	.	.	.	.	.	.	.	.	.	.	.	.	.	.	.	.	.	.
!	!	!LO:DY:b	!	!	!	!	!	!	!	!	!	!	!	!	!	!	!	!	!	!	!	!	!	!	!	!	!	!
.	.	p	.	.	.	.	8ff\J	.	.	.	.	.	.	.	.	.	.	.	.	.	.	.	.	.	.	.	.	.
=6	=6	=6	=6	=6	=6	=6	=6	=6	=6	=6	=6	=6	=6	=6	=6	=6	=6	=6	=6	=6	=6	=6	=6	=6	=6	=6	=6	=6
!LO:TX:a:t=Solo	!	!	!	!LO:DY:rjt=p	!	!LO:DY:rj:t=p	!	!	!	!	!	!	!	!	!	!	!	!	!	!	!	!LO:DY:a:rj	!	!LO:DY:a:rj	!	!LO:DY:a:rj	!	!LO:DY:a:rj
2F\	.	.	2A/	p	2e- 2c/	p	8ee-\L	.	.	.	.	.	.	.	.	.	.	.	.	.	2f/	p	2cc\	p	2cc\	p	2ee-\	p
.	.	.	.	.	.	.	8aa\	.	.	.	.	.	.	.	.	.	.	.	.	.	.	.	.	.	.	.	.	.
.	.	.	.	.	.	.	8ccc\	.	.	.	.	.	.	.	.	.	.	.	.	.	.	.	.	.	.	.	.	.
.	.	.	.	.	.	.	8bb-\J	.	.	.	.	.	.	.	.	.	.	.	.	.	.	.	.	.	.	.	.	.
4FF/	.	.	4A/	.	4e- 4c/	.	8aa\L	.	.	.	.	.	.	.	.	.	.	.	.	.	4f/	.	4cc\	.	4cc\	.	4ee-\	.
.	.	.	.	.	.	.	8gg\	.	.	.	.	.	.	.	.	.	.	.	.	.	.	.	.	.	.	.	.	.
4F\	.	.	4A/	.	4e- 4c/	.	8ff\	.	.	.	.	.	.	.	.	.	.	.	.	.	4f/	.	4cc\	.	4cc\	.	4ee-\	.
.	.	.	.	.	.	.	8ee-\J	.	.	.	.	.	.	.	.	.	.	.	.	.	.	.	.	.	.	.	.	.
!	!	!	!	!	!	!	!	!	!	!	!	!	!	!	!	!	!	!	!	!	!	!	!LO:LB:g=original	!	!	!	!	!
=7	=7	=7	=7	=7	=7	=7	=7	=7	=7	=7	=7	=7	=7	=7	=7	=7	=7	=7	=7	=7	=7	=7	=7	=7	=7	=7	=7	=7
4BB-/	.	.	(8d\L	.	(8B-/L	.	2dd\	.	.	.	.	.	.	.	.	.	.	.	.	.	4d/	.	4b-\	.	4b-\	.	4dd\	.
.	.	.	8f\)	.	8d/)	.	.	.	.	.	.	.	.	.	.	.	.	.	.	.	.	.	.	.	.	.	.	.
4BB-/	.	.	(8d\	.	(8B-/	.	.	.	.	.	.	.	.	.	.	.	.	.	.	.	4r	.	4r	.	4r	.	4r	.
.	.	.	8f\J)	.	8d/J)	.	.	.	.	.	.	.	.	.	.	.	.	.	.	.	.	.	.	.	.	.	.	.
4E-\	6_	.	(8c\L	.	(8e-/L	.	16bn\LL	.	.	.	.	.	.	.	.	.	.	.	.	.	4r	.	4r	.	4r	.	4r	.
.	.	.	.	.	.	.	16cc\	.	.	.	.	.	.	.	.	.	.	.	.	.	.	.	.	.	.	.	.	.
.	.	.	8f\)	.	8g/)	.	16dd\	.	.	.	.	.	.	.	.	.	.	.	.	.	.	.	.	.	.	.	.	.
.	.	.	.	.	.	.	16ee-X\JJ	.	.	.	.	.	.	.	.	.	.	.	.	.	.	.	.	.	.	.	.	.
4E-\	.	.	(8c\	.	(8e-/	.	16een\LL	.	.	.	.	.	.	.	.	.	.	.	.	.	4cc\	.	4ee- 4cc\	.	4cc\	.	4ee-\	.
.	.	.	.	.	.	.	16ff\	.	.	.	.	.	.	.	.	.	.	.	.	.	.	.	.	.	.	.	.	.
.	.	.	8f\J)	.	8g/J)	.	16ff#X\	.	.	.	.	.	.	.	.	.	.	.	.	.	.	.	.	.	.	.	.	.
.	.	.	.	.	.	.	16gg\JJ	.	.	.	.	.	.	.	.	.	.	.	.	.	.	.	.	.	.	.	.	.
!	!	!	!	!	!	!	!	!	!	!	!	!	!	!	!	!	!	!	!	!	!LO:LB:g=original	!	!	!	!LO:LB:g=original	!	!LO:LB:g=original	!
=8	=8	=8	=8	=8	=8	=8	=8	=8	=8	=8	=8	=8	=8	=8	=8	=8	=8	=8	=8	=8	=8	=8	=8	=8	=8	=8	=8	=8
4F\	4_	.	(8B-\L	.	8f/L	.	2b-T\	.	.	.	.	.	.	.	.	.	.	.	.	.	4r	.	4r	.	2b-\	.	2dd\	.
.	.	.	8d\)	.	8b-/	.	.	.	.	.	.	.	.	.	.	.	.	.	.	.	.	.	.	.	.	.	.	.
!	!	!	!	!	!	!	!	!	!	!	!	!	!	!	!	!	!	!	!	!	!	!	!LO:TX:a:t=P:problem:dopisana ćwierćnuta	!	!	!	!	!
.	.	.	.	.	.	.	.	.	.	.	.	.	.	.	.	.	.	.	.	.	.	.	4qqb-\	.	.	.	.	.
4F\	.	.	(8B-\	.	8f/	.	.	.	.	.	.	.	.	.	.	.	.	.	.	.	4b-\	.	4dd\	.	.	.	.	.
.	.	.	8d\J)	.	8b-/J	.	.	.	.	.	.	.	.	.	.	.	.	.	.	.	.	.	.	.	.	.	.	.
!	!	!	!	!	!	!	!LO:LB:g=original	!	!	!	!	!	!	!	!	!	!	!	!	!	!	!	!	!	!	!	!	!
4F\	3	.	4c\	.	4f/	.	4a/	.	.	.	.	.	.	.	.	.	.	.	.	.	4f/	.	4cc\	.	4a\	.	4cc\	.
4r	.	.	4r	.	4e-X/	.	8f/L	.	.	.	.	.	.	.	.	.	.	.	.	.	4r	.	4r	.	4r	.	8f/L	.
.	.	.	.	.	.	.	16g/L	.	.	.	.	.	.	.	.	.	.	.	.	.	.	.	.	.	.	.	16g/L	.
!	!	!	!	!	!	!	!	!	!	!	!	!	!	!	!	!	!	!	!	!	!	!	!	!LO:DY:t=p	!	!LO:DY:t=p	!	!
.	.	.	.	.	.	.	16a/JJ	.	.	.	.	.	.	.	.	.	.	.	.	.	.	p	.	p	.	p	16a/JJ	.
=9	=9	=9	=9	=9	=9	=9	=9	=9	=9	=9	=9	=9	=9	=9	=9	=9	=9	=9	=9	=9	=9	=9	=9	=9	=9	=9	=9	=9
*	*	*	*	*	*	*	*	*	*	*	*	*	*	*	*2\right	*	*	*2\right	*	*	*	*	*	*	*	*	*	*
!	!	!	!	!LO:DY:rj:t=pp	!	!	!	!LO:DY:rj:t=pp.	!	!	!	!	!	!LO:DY:rj	!	!	!LO:DY:a:rj	!	!	!LO:DY:rj	!LO:TX:a:t=dolce	!	!LO:TX:a:t=dolce	!	!LO:TX:a:t=dolce	!	!LO:TX:a:t=dolce	!
4BB-/	.	pp	4f\	pp	4d/	pp	2b-\	pp	2BB-/	Ae-	p	2F/	Ae-	p	2d\	Ae-	p	2b-\	Ae-	p	2d/	.	2b-\	.	2d/	.	2b-\	.
4BB-/	.	.	4f\	.	4d/	.	.	.	.	.	.	.	.	.	.	.	.	.	.	.	.	.	.	.	.	.	.	.
4C/	.	.	4f\	.	4c/	.	4a\	.	4C/	-ter-	.	4F/	-ter-	.	4e-\	-ter-	.	4a\	-ter-	.	4f/	.	4cc\	.	4e-/	.	4a\	.
4BB-/	.	.	4f\	.	4d/	.	4b-\	.	4BB-/	-nus	.	4F/	-nus	.	4d\	-nus	.	4b-\	-nus	.	4d/	.	4b-\	.	4d/	.	4b-\	.
!LO:LB:g=original	!	!	!	!	!LO:LB:g=original	!	!	!	!	!	!	!	!	!	!	!	!	!	!	!	!	!	!	!	!	!	!	!
=10	=10	=10	=10	=10	=10	=10	=10	=10	=10	=10	=10	=10	=10	=10	=10	=10	=10	=10	=10	=10	=10	=10	=10	=10	=10	=10	=10	=10
4E-\	.	.	4e-\	.	4e-/	.	4g/	.	4E-\	De-	.	4G/	De-	.	4e-\	De-	.	(8g\L	De-	.	2r	.	2r	.	4e-/	.	8g\L	.
.	.	.	.	.	.	.	.	.	.	.	.	.	.	.	.	.	.	8bn\	.	.	.	.	.	.	.	.	8bX\	.
4E-\	.	.	4r	.	4r	.	4r	.	4E-\	-us	.	4G/	-us	.	4e-\	-us	.	8cc\	.	.	.	.	.	.	4e-/	.	8cc\	.
.	.	.	.	.	.	.	.	.	.	.	.	.	.	.	.	.	.	8dd\J)	.	.	.	.	.	.	.	.	8dd\J	.
4r	.	.	4r	.	4r	.	4r	.	2r	.	.	2r	.	.	4r	.	.	(8ee-\L	.	.	4r	.	4r	.	4r	.	8ee-\L	.
.	.	.	.	.	.	.	.	.	.	.	.	.	.	.	.	.	.	8ff\)	.	.	.	.	.	.	.	.	8ff\	.
4E-\	.	.	4g\	.	4e-/	.	4cc\	.	.	.	.	.	.	.	4r	.	.	8gg\	.	.	4cc\	.	4ee-\	.	4e-/	.	8gg\	.
.	.	.	.	.	.	.	.	.	.	.	.	.	.	.	.	.	.	8ee-\J	-us	.	.	.	.	.	.	.	8ee-\J	.
=11	=11	=11	=11	=11	=11	=11	=11	=11	=11	=11	=11	=11	=11	=11	=11	=11	=11	=11	=11	=11	=11	=11	=11	=11	=11	=11	=11	=11
*	*	*	*	*	*2\right	*	*	*	*	*	*	*	*	*	*	*	*	*	*	*	*	*	*	*	*	*	*	*
4F\	4_	.	4f\	.	2b-\	.	2dd\	.	(4BB-\	u-	.	2F/	u-	.	2b-\	u-	.	2dd\	u-	.	4r	.	4r	.	2b-\	.	2dd\	.
4FF/	.	.	4f\	.	.	.	.	.	4D\)	.	.	.	.	.	.	.	.	.	.	.	4b-\	.	4dd\	.	.	.	.	.
!	!	!	!LO:LB:g=original	!	!	!	!	!	!	!	!	!	!	!	!	!	!	!	!	!	!	!	!	!	!	!	!	!
4F\	3	.	4f\	.	4a\	.	4cc\	.	4F\	-nus,	.	4F/	-nuš	.	4a\	-nus	.	4cc\	-nus	.	4f/	.	4cc\	.	4a\	.	4cc\	.
4r	.	.	4f\	.	4b-\	.	8dd\L	.	4r	.	.	4r	.	.	4r	.	.	4r	.	.	4r	.	4r	.	4r	.	4r	.
.	.	.	.	.	.	.	8ff\J	.	.	.	.	.	.	.	.	.	.	.	.	.	.	.	.	.	.	.	.	.
!	!	!	!	!	!	!	!	!	!LO:LB:g=original	!	!	!LO:LB:g=original	!	!	!LO:LB:g=original	!	!	!LO:LB:g=original	!	!	!	!	!	!	!	!	!	!
=12	=12	=12	=12	=12	=12	=12	=12	=12	=12	=12	=12	=12	=12	=12	=12	=12	=12	=12	=12	=12	=12	=12	=12	=12	=12	=12	=12	=12
*	*	*	*	*	*	*	*	*	*2\right	*	*	*2\right	*	*	*	*	*	*	*	*	*	*	*	*	*	*	*	*
4FF/	7_	.	(8c\L	.	(8e-/L	.	8ee-\L	.	2F\	Ob-	.	2c\	Ob-	.	2a\	Ob-	.	2ee-\	Ob-	.	4f/	.	4cc\	.	4cc\	.	4ee-\	.
.	.	.	8e-\)	.	8a/)	.	8aa\	.	.	.	.	.	.	.	.	.	.	.	.	.	.	.	.	.	.	.	.	.
4F\	.	.	(8c\	.	(8e-/	.	8ccc\	.	.	.	.	.	.	.	.	.	.	.	.	.	4f/	.	4cc\	.	4cc\	.	4ee-\	.
.	.	.	8e-\J)	.	8a/J)	.	8bb-\J	.	.	.	.	.	.	.	.	.	.	.	.	.	.	.	.	.	.	.	.	.
4F\	.	.	(8c\L	.	(8e-/L	.	16aa\LL	.	4F\	-la-	.	4c\	-la-	.	4a\	-la-	.	4ee-\	-la-	.	4r	.	4r	.	4r	.	4r	.
.	.	.	.	.	.	.	16bb-\	.	.	.	.	.	.	.	.	.	.	.	.	.	.	.	.	.	.	.	.	.
.	.	.	8e-\)	.	8a/)	.	16aa\	.	.	.	.	.	.	.	.	.	.	.	.	.	.	.	.	.	.	.	.	.
.	.	.	.	.	.	.	16gg\JJ	.	.	.	.	.	.	.	.	.	.	.	.	.	.	.	.	.	.	.	.	.
4F\	X	.	(8c\	.	(8e-/	.	16ff\LL	.	4F\	-tum	.	4c\	-tum	.	4a\	-tum	.	4ee-\	-tum	.	4f/	.	4cc\	.	4cc\	.	4ee-\	.
.	.	.	.	.	.	.	16gg\	.	.	.	.	.	.	.	.	.	.	.	.	.	.	.	.	.	.	.	.	.
.	.	.	8e-\J)	.	8a/J)	.	16ff\	.	.	.	.	.	.	.	.	.	.	.	.	.	.	.	.	.	.	.	.	.
.	.	.	.	.	.	.	16ee-\JJ	.	.	.	.	.	.	.	.	.	.	.	.	.	.	.	.	.	.	.	.	.
*	*	*	*Xtremolo	*	*Xtremolo	*	*	*	*	*	*	*	*	*	*	*	*	*	*	*	*	*	*	*	*	*	*	*
!	!	!	!	!	!	!	!LO:LB:g=original	!	!	!	!	!	!	!	!	!	!	!	!	!	!	!	!	!	!	!	!	!
=13	=13	=13	=13	=13	=13	=13	=13	=13	=13	=13	=13	=13	=13	=13	=13	=13	=13	=13	=13	=13	=13	=13	=13	=13	=13	=13	=13	=13
!	!	!	!	!	!LO:TX:a:t=P:problem:mixed beam	!	!	!	!	!	!	!	!	!	!	!	!	!	!	!	!	!	!	!	!	!	!	!
4BB-/	3	.	4B-\	.	8b-\L	.	16dd\LL	.	4BB-/	sus-	.	4B-\	sus-	.	4f\	sus-	.	4dd\	sus-	.	4B-/	.	4b-\	.	4b-\	.	4dd\	.
.	.	.	.	.	.	.	16b-\	.	.	.	.	.	.	.	.	.	.	.	.	.	.	.	.	.	.	.	.	.
.	.	.	.	.	8B-/	.	16a\	.	.	.	.	.	.	.	.	.	.	.	.	.	.	.	.	.	.	.	.	.
.	.	.	.	.	.	.	16b-\JJ	.	.	.	.	.	.	.	.	.	.	.	.	.	.	.	.	.	.	.	.	.
4C/	3	.	4c\	.	8cc\	.	16ee-\LL	.	4F\	-ci-	.	4c\	-ci-	.	4a\	-ci-	.	4ee-\	-ci-	.	4r	.	4cc\	.	4cc\	.	4ee-\	.
.	.	.	.	.	.	.	16b-\	.	.	.	.	.	.	.	.	.	.	.	.	.	.	.	.	.	.	.	.	.
.	.	.	.	.	8c/J	.	16a\	.	.	.	.	.	.	.	.	.	.	.	.	.	.	.	.	.	.	.	.	.
.	.	.	.	.	.	.	16b-\JJ	.	.	.	.	.	.	.	.	.	.	.	.	.	.	.	.	.	.	.	.	.
!	!	!	!	!	!LO:TX:a:t=P:problem:mixed beam	!	!	!	!	!	!	!	!	!	!	!	!	!	!	!	!	!	!	!	!	!	!	!
4D\	3	.	4d\	.	8dd\L	.	16ff\LL	.	4F\	-pe	.	4d\	-pe	.	4b-\	-pe	.	4ff\	-pe	.	2r	.	4dd\	.	4dd\	.	4ff\	.
.	.	.	.	.	.	.	16b-\	.	.	.	.	.	.	.	.	.	.	.	.	.	.	.	.	.	.	.	.	.
.	.	.	.	.	8d/	.	16a\	.	.	.	.	.	.	.	.	.	.	.	.	.	.	.	.	.	.	.	.	.
.	.	.	.	.	.	.	16b-\JJ	.	.	.	.	.	.	.	.	.	.	.	.	.	.	.	.	.	.	.	.	.
4E-\	3	.	4e-\	.	8ee-\	.	8gg\L	.	4r	.	.	4r	.	.	4r	.	.	4r	.	.	.	.	4ee-\	.	4ee-\	.	4gg\	.
.	.	.	.	.	8cc\J	.	8ee-\J	.	.	.	.	.	.	.	.	.	.	.	.	.	.	.	.	.	.	.	.	.
!	!	!	!	!	!	!	!	!	!	!	!	!	!	!	!	!	!	!	!	!	!	!	!LO:LB:g=original	!	!	!	!LO:LB:g=original	!
=14	=14	=14	=14	=14	=14	=14	=14	=14	=14	=14	=14	=14	=14	=14	=14	=14	=14	=14	=14	=14	=14	=14	=14	=14	=14	=14	=14	=14
4BB-/	.	.	4B-/	.	4d/	.	16dd\LL	.	2r	.	.	2r	.	.	2r	.	.	2r	.	.	4b-\	.	4dd\	.	8b-\	.	16dd\LL	.
.	.	.	.	.	.	.	16b-\	.	.	.	.	.	.	.	.	.	.	.	.	.	.	.	.	.	.	.	16b-\	.
.	.	.	.	.	.	.	16cc\	.	.	.	.	.	.	.	.	.	.	.	.	.	.	.	.	.	8r	.	16cc\	.
.	.	.	.	.	.	.	16dd\JJ	.	.	.	.	.	.	.	.	.	.	.	.	.	.	.	.	.	.	.	16dd\JJ	.
4r	.	.	4r	.	4r	.	16ee-\LL	.	.	.	.	.	.	.	.	.	.	.	.	.	4r	.	4r	.	4r	.	16ee-\LL	.
.	.	.	.	.	.	.	16ff\	.	.	.	.	.	.	.	.	.	.	.	.	.	.	.	.	.	.	.	16ff\	.
.	.	.	.	.	.	.	16gg\	.	.	.	.	.	.	.	.	.	.	.	.	.	.	.	.	.	.	.	16gg\	.
.	.	.	.	.	.	.	16aa\JJ	.	.	.	.	.	.	.	.	.	.	.	.	.	.	.	.	.	.	.	16aa\JJ	.
!	!	!	!	!	!	!	!	!	!	!	!	!	!	!	!	!	!	!	!	!	!LO:LB:g=original	!	!	!	!	!	!	!
!	!	!	!	!	!	!	!	!	!	!	!	!	!	!	!	!	!	!	!	!	!LO:TX:a:t=P:problem:rkp zniszczony	!	!	!	!LO:LB:g=original	!	!	!
4BB-/	.	.	8r	.	8b-\L	.	8bb-\L	.	4r	.	.	4r	.	.	4r	.	.	4r	.	.	4ryy	.	4b-\	.	4dd\	.	4bb-\	.
.	.	.	8B-/L	.	8dd\	.	8ff\	.	.	.	.	.	.	.	.	.	.	.	.	.	.	.	.	.	.	.	.	.
4BB-/	.	.	8A/	.	8cc\	.	8ee-\	.	4B-\	Ob-	.	4B-\	Ob-	.	4f\	Ob-	.	4dd\	Ob-	.	4ryy	.	4b-\	.	4b-\	.	4dd\	.
.	.	.	8B-/J	.	8b-\J	.	8dd\J	.	.	.	.	.	.	.	.	.	.	.	.	.	.	.	.	.	.	.	.	.
!LO:LB:g=original	!	!	!	!	!	!	!	!	!	!	!	!	!	!	!	!	!	!	!	!	!	!	!	!	!	!	!	!
=15	=15	=15	=15	=15	=15	=15	=15	=15	=15	=15	=15	=15	=15	=15	=15	=15	=15	=15	=15	=15	=15	=15	=15	=15	=15	=15	=15	=15
4F\	.	.	4f\	.	4a/	.	4cc\	.	4F\	-la-	.	4A\	-la-	.	4f\	-la-	.	4cc\	-la-	.	4f/	.	4cc\	.	4a\	.	4cc\	.
4F\	.	.	4c\	.	4a 4f/	.	4ff 4a\	.	4F\	-tum	.	4c\	-tum	.	4a\	-tum	.	4ff\	-tum	.	4f/	.	4cc\	.	4a\	.	4ff\	.
4F\	.	.	4c\	.	4a 4f/	.	4ff 4a\	.	2r	.	.	2r	.	.	2r	.	.	2r	.	.	4f/	.	4cc\	.	4a\	.	4ff\	.
!	!	!	!	!	!	!	!	!	!	!	!	!	!	!	!	!	!	!	!	!	!	!	!	!	!	!	!LO:TX:a:t=Solo	!
4r	.	.	4r	.	4r	.	4ff\	.	.	.	.	.	.	.	.	.	.	.	.	.	4r	.	4r	.	4r	.	8a\L	.
.	.	.	.	.	.	.	.	.	.	.	.	.	.	.	.	.	.	.	.	.	.	.	.	pp	.	.	8cc\J	.
!	!	!	!	!	!LO:LB:g=original	!	!	!	!	!	!	!	!	!	!	!	!	!	!	!	!	!	!	!	!	!	!	!
=16	=16	=16	=16	=16	=16	=16	=16	=16	=16	=16	=16	=16	=16	=16	=16	=16	=16	=16	=16	=16	=16	=16	=16	=16	=16	=16	=16	=16
!LO:TX:a:t=Solo.	!	!	!	!	!	!	!	!LO:DY:t=p.	!LO:TX:a:t=9.	!	!	!LO:TX:a:t=9.	!	!	!LO:TX:a:t=9.	!	!	!LO:TX:a:t=9.	!	!	!	!LO:DY:a:rj:t=pp	!	!	!LO:TX:a:t=8.	!	!	!
4F\	.	.	8r	.	8r	.	8r	p	00r	.	.	00r	.	.	00r	.	.	00r	.	.	4f/	pp	4cc\	.	00r	.	2ff\	.
!	!	!	!	!LO:DY:t=p	!	!	!	!	!	!	!	!	!	!	!	!	!	!	!	!	!	!	!	!	!	!	!	!
.	.	.	.	p	.	.	.	.	.	.	.	.	.	.	.	.	.	.	.	.	.	.	.	.	.	.	.	.
.	.	.	8f\L	.	8a/L	pp	8cc\L	.	.	.	.	.	.	.	.	.	.	.	.	.	.	.	.	.	.	.	.	.
4r	.	.	8f\	.	8a/	.	8cc\	.	.	.	.	.	.	.	.	.	.	.	.	.	4r	.	4r	.	.	.	.	.
.	.	.	8f\J	.	8a/J	.	8cc\J	.	.	.	.	.	.	.	.	.	.	.	.	.	.	.	.	.	.	.	.	.
!	!	!	!	!	!	!	!LO:LB:g=original	!	!	!	!	!	!	!	!	!	!	!	!	!	!	!	!	!	!	!	!	!
4F`\	.	.	8r	.	8r	.	8r	.	.	.	.	.	.	.	.	.	.	.	.	.	4f/	.	4cc\	.	.	.	16ff\LL	.
.	.	.	.	.	.	.	.	.	.	.	.	.	.	.	.	.	.	.	.	.	.	.	.	.	.	.	16gg\	.
.	.	.	8f\L	.	8a/L	.	8cc\L	.	.	.	.	.	.	.	.	.	.	.	.	.	.	.	.	.	.	.	16aa\	.
.	.	.	.	.	.	.	.	.	.	.	.	.	.	.	.	.	.	.	.	.	.	.	.	.	.	.	16gg\JJ	.
4r	.	.	8f\	.	8a/	.	8cc\	.	.	.	.	.	.	.	.	.	.	.	.	.	4r	.	4r	.	.	.	16ff\LL	.
.	.	.	.	.	.	.	.	.	.	.	.	.	.	.	.	.	.	.	.	.	.	.	.	.	.	.	16eeX\	.
.	.	.	8f\J	.	8a/J	.	8cc\J	.	.	.	.	.	.	.	.	.	.	.	.	.	.	.	.	.	.	.	16dd\	.
.	.	.	.	.	.	.	.	.	.	.	.	.	.	.	.	.	.	.	.	.	.	.	.	.	.	.	16cc\JJ	.
!	!	!	!LO:LB:g=original	!	!	!	!	!	!	!	!	!	!	!	!	!	!	!	!	!	!	!	!	!	!	!	!	!
=17	=17	=17	=17	=17	=17	=17	=17	=17	=17	=17	=17	=17	=17	=17	=17	=17	=17	=17	=17	=17	=17	=17	=17	=17	=17	=17	=17	=17
4C`>/	.	.	8r	.	8r	.	8r	.	.	.	.	.	.	.	.	.	.	.	.	.	4r	.	4r	.	.	.	8cc\L	.
.	.	.	8en\L	.	8g/L	.	8b-\L	.	.	.	.	.	.	.	.	.	.	.	.	.	.	.	.	.	.	.	8b-\J	.
4r	.	.	8e\	.	8g/	.	8b-\	.	.	.	.	.	.	.	.	.	.	.	.	.	4g/	.	4cc\	.	.	.	4b-\	.
.	.	.	8e\J	.	8g/J	.	8b-\J	.	.	.	.	.	.	.	.	.	.	.	.	.	.	.	.	.	.	.	.	.
4C`>/	.	.	4e\	.	4g/	.	4b-\	.	.	.	.	.	.	.	.	.	.	.	.	.	4g/	.	4cc\	.	.	.	8r	.
.	.	.	.	.	.	.	.	.	.	.	.	.	.	.	.	.	.	.	.	.	.	.	.	.	.	.	8b-\L	.
4r	.	.	4r	.	4r	.	4r	.	.	.	.	.	.	.	.	.	.	.	.	.	4r	.	4r	.	.	.	8eeX\	.
.	.	.	.	.	.	.	.	.	.	.	.	.	.	.	.	.	.	.	.	.	.	.	.	.	.	.	8ff\J	.
!	!	!	!	!	!	!	!	!	!	!	!	!	!	!	!	!	!	!	!	!	!	!	!	!	!	!	!LO:LB:g=original	!
=18	=18	=18	=18	=18	=18	=18	=18	=18	=18	=18	=18	=18	=18	=18	=18	=18	=18	=18	=18	=18	=18	=18	=18	=18	=18	=18	=18	=18
4C/	.	.	8r	.	8r	.	8r	.	.	.	.	.	.	.	.	.	.	.	.	.	4g/	.	4cc\	.	.	.	4gg\	.
.	.	.	8c\L	.	8g/L	.	8b-\L	.	.	.	.	.	.	.	.	.	.	.	.	.	.	.	.	.	.	.	.	.
4r	.	.	8c\	.	8g/	.	8b-\	.	.	.	.	.	.	.	.	.	.	.	.	.	4r	.	4r	.	.	.	16gg\LL	.
.	.	.	.	.	.	.	.	.	.	.	.	.	.	.	.	.	.	.	.	.	.	.	.	.	.	.	16ff\	.
.	.	.	8c\J	.	8g/J	.	8b-\J	.	.	.	.	.	.	.	.	.	.	.	.	.	.	.	.	.	.	.	16eeX\	.
.	.	.	.	.	.	.	.	.	.	.	.	.	.	.	.	.	.	.	.	.	.	.	.	.	.	.	16ff\JJ	.
4C/	.	.	8r	.	8r	.	8r	.	.	.	.	.	.	.	.	.	.	.	.	.	4g/	.	4cc\	.	.	.	8gg\L	.
.	.	.	8en\L	.	8g/L	.	8b-\L	.	.	.	.	.	.	.	.	.	.	.	.	.	.	.	.	.	.	.	8ee\	.
4r	.	.	8e\	.	8g/	.	8b-\	.	.	.	.	.	.	.	.	.	.	.	.	.	4r	.	4r	.	.	.	8cc\	.
.	.	.	8e\J	.	8g/J	.	8b-\J	.	.	.	.	.	.	.	.	.	.	.	.	.	.	.	.	.	.	.	8b-\J	.
=19	=19	=19	=19	=19	=19	=19	=19	=19	=19	=19	=19	=19	=19	=19	=19	=19	=19	=19	=19	=19	=19	=19	=19	=19	=19	=19	=19	=19
4F\	.	.	8r	.	8r	.	8r	.	.	.	.	.	.	.	.	.	.	.	.	.	4f/	.	4cc\	.	.	.	4a\	.
.	.	.	8c\L	.	8f/L	.	8a/L	.	.	.	.	.	.	.	.	.	.	.	.	.	.	.	.	.	.	.	.	.
4r	.	.	8c\	.	8f/	.	8a/	.	.	.	.	.	.	.	.	.	.	.	.	.	4r	.	4r	.	.	.	4.ccc\	.
.	.	.	8c\J	.	8f/J	.	8a/J	.	.	.	.	.	.	.	.	.	.	.	.	.	.	.	.	.	.	.	.	.
4F\	.	.	4f\	.	4a/	.	4cc\	.	.	.	.	.	.	.	.	.	.	.	.	.	2r	.	2r	.	.	.	.	.
.	.	.	.	.	.	.	.	.	.	.	.	.	.	.	.	.	.	.	.	.	.	.	.	.	.	.	8aa\L	.
4r	.	.	4r	.	4r	.	4r	.	.	.	.	.	.	.	.	.	.	.	.	.	.	.	.	.	.	.	8ff\	.
.	.	.	.	.	.	.	.	.	.	.	.	.	.	.	.	.	.	.	.	.	.	.	.	.	.	.	8cc\J	.
!LO:LB:g=original	!	!	!	!	!	!	!	!	!	!	!	!	!	!	!	!	!	!	!	!	!	!	!	!	!	!	!	!
=20	=20	=20	=20	=20	=20	=20	=20	=20	=20	=20	=20	=20	=20	=20	=20	=20	=20	=20	=20	=20	=20	=20	=20	=20	=20	=20	=20	=20
4C/	.	.	8r	.	8r	.	8r	.	00r	.	.	00r	.	.	00r	.	.	00r	.	.	4g/	.	4cc\	.	00r	.	4b-\	.
.	.	.	8en\L	.	8g/L	.	8b-\L	.	.	.	.	.	.	.	.	.	.	.	.	.	.	.	.	.	.	.	.	.
4r	.	.	8e\	.	8g/	.	8b-\	.	.	.	.	.	.	.	.	.	.	.	.	.	4r	.	4r	.	.	.	4gg\	.
.	.	.	8e\J	.	8g/J	.	8b-\J	.	.	.	.	.	.	.	.	.	.	.	.	.	.	.	.	.	.	.	.	.
4C/	.	.	8r	.	8r	.	8r	.	.	.	.	.	.	.	.	.	.	.	.	.	2r	.	2r	.	.	.	8gg\L	.
.	.	.	8e\L	.	8g/L	.	8b-\L	.	.	.	.	.	.	.	.	.	.	.	.	.	.	.	.	.	.	.	8eeX\	.
4r	.	.	8e\	.	8g/	.	8b-\	.	.	.	.	.	.	.	.	.	.	.	.	.	.	.	.	.	.	.	8cc\	.
.	.	.	8e\J	.	8g/J	.	8b-\J	.	.	.	.	.	.	.	.	.	.	.	.	.	.	.	.	.	.	.	8b-\J	.
!	!	!	!	!	!LO:LB:g=original	!	!LO:LB:g=original	!	!	!	!	!	!	!	!	!	!	!	!	!	!LO:LB:g=original	!	!LO:LB:g=original	!	!	!	!	!
=21	=21	=21	=21	=21	=21	=21	=21	=21	=21	=21	=21	=21	=21	=21	=21	=21	=21	=21	=21	=21	=21	=21	=21	=21	=21	=21	=21	=21
!	!	!	!	!	!	!	!	!	!	!	!	!	!	!	!	!	!	!	!	!	!LO:TX:a:t=P:problem:rkp zniszczony	!	!	!	!	!	!	!
4F\	.	.	4c\	.	4f/	.	4a/	.	.	.	.	.	.	.	.	.	.	.	.	.	4ryy	.	4cc\	.	.	.	8a\L	.
.	.	.	.	.	.	.	.	.	.	.	.	.	.	.	.	.	.	.	.	.	.	.	.	.	.	.	8f\	.
4r	.	.	4r	.	4r	.	4r	.	.	.	.	.	.	.	.	.	.	.	.	.	4ryy	.	4r	.	.	.	8a\	.
.	.	.	.	.	.	.	.	.	.	.	.	.	.	.	.	.	.	.	.	.	.	.	.	.	.	.	8cc\J	.
!	!	!	!	!	!	!	!	!	!	!	!	!	!	!	!	!	!	!	!	!	!LO:TX:a:t=Solo	!LO:DY:t=p	!LO:TX:a:t=Solo	!LO:DY:t=p	!	!	!	!
4r	.	.	4r	.	4r	.	4r	.	.	.	.	.	.	.	.	.	.	.	.	.	4r	p	4r	p	.	.	2ffTT\	.
!	!	!LO:DY:b	!	!	!	!	!	!	!	!	!	!	!	!	!	!	!	!	!	!	!	!	!	!	!	!	!	!
.	.	pp	.	.	.	.	.	.	.	.	.	.	.	.	.	.	.	.	.	.	.	.	.	.	.	.	.	.
4F'\	.	.	4f\	.	4a\	.	4cc\	.	.	.	.	.	.	.	.	.	.	.	.	.	4f/	.	4cc\	.	.	.	.	.
!	!	!	!LO:LB:g=original	!	!	!	!	!	!	!	!	!	!	!	!	!	!	!	!	!	!	!	!	!	!	!	!	!
=22	=22	=22	=22	=22	=22	=22	=22	=22	=22	=22	=22	=22	=22	=22	=22	=22	=22	=22	=22	=22	=22	=22	=22	=22	=22	=22	=22	=22
4B-'\	.	.	4f\	.	4b-\	.	4dd\	.	.	.	.	.	.	.	.	.	.	.	.	.	4b-\	.	4dd\	.	.	.	[<2ffTT\	.
4F'\	.	.	4f\	.	4a\	.	4cc\	.	.	.	.	.	.	.	.	.	.	.	.	.	4f/	.	4cc\	.	.	.	.	.
4r	.	.	4r	.	4r	.	4r	.	.	.	.	.	.	.	.	.	.	.	.	.	4r	.	4r	.	.	.	2ff\TTT]	.
4F\	.	.	4f\	.	4a\	.	4cc\	.	.	.	.	.	.	.	.	.	.	.	.	.	4f/	.	4cc\	.	.	.	.	.
=23	=23	=23	=23	=23	=23	=23	=23	=23	=23	=23	=23	=23	=23	=23	=23	=23	=23	=23	=23	=23	=23	=23	=23	=23	=23	=23	=23	=23
4B-\	.	.	4f\	.	4b-\	.	4dd\	.	.	.	.	.	.	.	.	.	.	.	.	.	4b-\	.	4dd\	.	.	.	2.ffTTT\	.
4F\	.	.	4f\	.	4a\	.	4cc\	.	.	.	.	.	.	.	.	.	.	.	.	.	4f/	.	4cc\	.	.	.	.	.
4r	.	.	4r	.	4r	.	4r	.	.	.	.	.	.	.	.	.	.	.	.	.	4r	.	4r	.	.	.	.	.
4F\	.	.	4f\	.	4a/	.	4cc\	.	.	.	.	.	.	.	.	.	.	.	.	.	4f/	.	4cc\	.	.	.	4ff\	.
!	!	!	!	!	!	!	!	!	!	!	!	!	!	!	!	!	!	!	!	!	!	!	!	!	!	!	!LO:LB:g=original	!
=24	=24	=24	=24	=24	=24	=24	=24	=24	=24	=24	=24	=24	=24	=24	=24	=24	=24	=24	=24	=24	=24	=24	=24	=24	=24	=24	=24	=24
4c\	.	.	4en\	.	4g/	.	4cc\	.	1r	.	.	1r	.	.	1r	.	.	1r	.	.	4g/	.	4cc\	.	2r	.	8eeX\L	.
.	.	.	.	.	.	.	.	.	.	.	.	.	.	.	.	.	.	.	.	.	.	.	.	.	.	.	8cc\	.
4r	.	.	4r	.	4r	.	4r	.	.	.	.	.	.	.	.	.	.	.	.	.	4r	.	4r	.	.	.	8bX\	.
.	.	.	.	.	.	.	.	.	.	.	.	.	.	.	.	.	.	.	.	.	.	.	.	.	.	.	8cc\J	.
4r	.	.	4r	.	4r	.	4r	.	.	.	.	.	.	.	.	.	.	.	.	.	4r	.	4r	.	4r	.	8cc#X\L	.
.	.	.	.	.	.	.	.	.	.	.	.	.	.	.	.	.	.	.	.	.	.	.	.	.	.	.	8dd\	.
!	!	!	!	!	!	!	!	!	!	!	!	!	!	!	!	!	!	!	!	!	!	!	!	!	!	!	!LO:SIC:s=8ffn:v	!
4C/	.	.	4g\	.	4b-\	.	4cc\	.	.	.	.	.	.	.	.	.	.	.	.	.	4g/	.	4cc\	.	4g\	.	8ee\	.
.	.	.	.	.	.	.	.	.	.	.	.	.	.	.	.	.	.	.	.	.	.	.	.	.	.	.	8een\J	.
!	!	!	!	!	!	!	!	!	!	!	!	!LO:LB:g=original	!	!	!	!	!	!	!	!	!	!	!	!	!	!	!	!
=25	=25	=25	=25	=25	=25	=25	=25	=25	=25	=25	=25	=25	=25	=25	=25	=25	=25	=25	=25	=25	=25	=25	=25	=25	=25	=25	=25	=25
!	!	!	!	!	!	!	!	!	!	!	!	!	!	!	!LO:TX:a:t=P:problem:w tt. 25-29 dolny głos zamazany, wpisane ukryte nuty	!	!	!	!	!	!	!	!	!	!	!	!	!
4F\	.	.	8f\L	.	8a\L	.	4ff 4a\	.	4F\	Pa-	.	4c\	Pa-	.	4a 4d\yy	Pa-	.	4ff\	Pa-	.	4f/	.	4cc\	.	4a\	.	4ff\	.
.	.	.	8a\	.	8cc\	.	.	.	.	.	.	.	.	.	.	.	.	.	.	.	.	.	.	.	.	.	.	.
8E-\L	.	.	8c\	.	8e-\	.	4gg\	.	8E-\	-nis	.	8e-\	-nis	.	8cc 8f\yy	-nis	.	8gg\	-nis	.	4r	.	4r	.	4r	.	4r	.
!	!	!	!	!	!	!	!	!	!	!	!	!	!	!	!	!	!	!LO:LB:g=original	!	!	!	!	!	!	!	!	!	!
8C\J	.	.	8e-\J	.	8cc\J	.	.	.	8E-\	et	.	8e-\	et	.	8cc 8f\yy	et	.	8gg\	et	.	.	.	.	.	.	.	.	.
!LO:LB:g=original	!	!	!	!	!	!	!	!	!LO:LB:g=original	!	!	!	!	!	!LO:LB:g=original	!	!	!	!	!	!	!	!	!	!	!	!	!
4F\	.	.	4f\	.	8.cc\L	.	8.aa\L	.	4F\	vi-	.	4c\	vi-	.	4a 4d\yy	vi-	.	4ff\	vi-	.	2r	.	2r	.	2r	.	2r	.
.	.	.	.	.	16dd\K	.	16bb-\K	.	.	.	.	.	.	.	.	.	.	.	.	.	.	.	.	.	.	.	.	.
!	!	!	!	!	!	!	!	!	!	!	!	!	!	!	!	!	!	!LO:SIC:s=4een:v	!	!	!	!	!	!	!	!	!LO:TX:a:t=Tutti	!
4C/	7	.	4en\	.	8cc\	.	8aa\	.	4C/	-ni	.	4c\	-ni	.	4g 4c\yy	-ni	.	4ee-\	-ni	.	.	.	.	.	.	.	.	.
!	!	!	!	!	!	!	!	!	!LO:TX:a:t=Tutti:problem:na pięciolinii	!	!	!LO:TX:a:t=Tutti:problem:na pięciolinii	!	!	!LO:TX:a:t=Tutti:problem:na pięciolinii	!	!	!LO:TX:a:t=Tutti:problem:na pięciolinii	!	!	!	!	!	!	!	!	!	!
.	.	.	.	.	8b-\J	.	8gg\J	.	.	.	.	.	.	.	.	.	.	.	.	.	.	.	.	.	.	.	.	.
=26	=26	=26	=26	=26	=26	=26	=26	=26	=26	=26	=26	=26	=26	=26	=26	=26	=26	=26	=26	=26	=26	=26	=26	=26	=26	=26	=26	=26
*tremolo	*	*	*tremolo	*	*tremolo	*	*	*	*	*	*	*	*	*	*	*	*	*	*	*	*	*	*	*	*	*	*	*
!LO:TX:a:t=Tutti	!	!LO:DY:b:rj	!	!LO:DY:a:rj	!	!LO:DY:b:rj	!	!LO:DY:b:rj	!	!	!	!	!	!	!	!	!	!	!	!	!	!LO:DY:a	!	!LO:DY:a:rj	!	!LO:DY:a:rj	!	!
8F\L	x 5_	f	(16f\LL	f	(16a\LL	f	16ff\LL	f	4F\	mu-	.	4c\	mu-	.	4a 4d\yy	mu-	.	4ff\	mu-	.	4F/	f	4f/	f	4a\	f	4ff\	.
.	.	.	16a\	.	16cc\	.	16cc\	.	.	.	.	.	.	.	.	.	.	.	.	.	.	.	.	.	.	.	.	.
8A\	.	.	16f\	.	16a\	.	16dd\	.	.	.	.	.	.	.	.	.	.	.	.	.	.	.	.	.	.	.	.	.
!	!	!	!	!	!	!	!LO:SIC:s=16een:v	!	!	!	!	!	!	!	!	!	!	!	!	!	!	!	!	!	!	!	!	!
.	.	.	16a\	.	16cc\	.	16ee-\JJ	.	.	.	.	.	.	.	.	.	.	.	.	.	.	.	.	.	.	.	.	.
8F\	.	.	16f\	.	16a\	.	16ff\LL	.	8F\	-nus	.	8c\	-nus	.	8a 8d\yy	-nus	.	8ff\	-nus	.	4r	.	4r	.	4r	.	4r	.
.	.	.	16a\	.	16cc\	.	16gg\	.	.	.	.	.	.	.	.	.	.	.	.	.	.	.	.	.	.	.	.	.
8A\J	.	.	16f\	.	16a\	.	16aa\	.	8F\	pla-	.	8c\	pla-	.	8a 8f\yy	pla-	.	8ff\	pla-	.	.	.	.	.	.	.	.	.
.	.	.	16a\JJ)	.	16cc\JJ)	.	16bb-\JJ	.	.	.	.	.	.	.	.	.	.	.	.	.	.	.	.	.	.	.	.	.
!	!	!	!	!	!LO:LB:g=original	!	!LO:LB:g=original	!	!	!	!	!	!	!	!	!	!	!	!	!	!	!	!	!	!	!	!	!
8F\L	8_ 5_ 3_	.	(16f\LL	.	(16a\LL	.	8ccc\L	.	4F\	-ca-	.	4c\	-ca-	.	4a 4d\yy	-ča-	.	4ff\	-ča-	.	4F/	.	4f/	.	8f\L	.	8ff\L	.
.	.	.	16a\	.	16cc\	.	.	.	.	.	.	.	.	.	.	.	.	.	.	.	.	.	.	.	.	.	.	.
8A\	.	.	16f\	.	16a\	.	8aa\	.	.	.	.	.	.	.	.	.	.	.	.	.	.	.	.	.	8a\	.	8aa\	.
.	.	.	16a\	.	16cc\	.	.	.	.	.	.	.	.	.	.	.	.	.	.	.	.	.	.	.	.	.	.	.
8F\	.	.	16f\	.	16a\	.	8gg\	.	4F\	-tus	.	4c\	-tus	.	4a 4d\yy	-tus	.	4ff\	-tus	.	4F/	.	4f/	.	8cc\	.	8ccc\	.
.	.	.	16a\	.	16cc\	.	.	.	.	.	.	.	.	.	.	.	.	.	.	.	.	.	.	.	.	.	.	.
8A\J	.	.	16f\	.	16a\	.	8ff\J	.	.	.	.	.	.	.	.	.	.	.	.	.	.	.	.	.	8a\J	.	8aa\J	.
.	.	.	16a\JJ)	.	16cc\JJ)	.	.	.	.	.	.	.	.	.	.	.	.	.	.	.	.	.	.	.	.	.	.	.
=27	=27	=27	=27	=27	=27	=27	=27	=27	=27	=27	=27	=27	=27	=27	=27	=27	=27	=27	=27	=27	=27	=27	=27	=27	=27	=27	=27	=27
!LO:SIC:s=8En:v:zamiast 8E- w całym takcie	!	!	!	!	!	!	!LO:SIC:s=16een:v	!	!	!	!	!	!	!	!	!	!	!LO:SIC:s=4een:v	!	!	!	!	!	!	!	!	!	!
8C/L	5_ 3_	.	(16en\LL	.	16g\LL	.	16ee-\LL	.	4C/	res-	.	4c\	res-	.	4g 4c\yy	res-	.	4ee-\	res-	.	2r	.	4cc\	.	4eeX\	.	4gg\	.
.	.	.	16g\	.	16cc\	.	16cc\	.	.	.	.	.	.	.	.	.	.	.	.	.	.	.	.	.	.	.	.	.
8E-/	.	.	16e\	.	16g\	.	16g\	.	.	.	.	.	.	.	.	.	.	.	.	.	.	.	.	.	.	.	.	.
.	.	.	16g\	.	16cc\	.	16cc\JJ	.	.	.	.	.	.	.	.	.	.	.	.	.	.	.	.	.	.	.	.	.
!	!	!	!	!	!	!	!LO:SIC:s=16een:v	!	!	!	!	!	!	!	!	!	!	!LO:SIC:s=4een:v	!	!	!	!	!	!	!	!	!	!
8C/	.	.	16e\	.	16g\	.	16ee-\LL	.	4c\	-pi-	.	4c\	-pi-	.	4g 4c\yy	-pi-	.	4ee-\	-pi-	.	.	.	4r	.	4r	.	4r	.
.	.	.	16g\	.	16cc\	.	16cc\	.	.	.	.	.	.	.	.	.	.	.	.	.	.	.	.	.	.	.	.	.
!	!	!	!	!	!	!	!LO:SIC:s=16een:v	!	!	!	!	!	!	!	!	!	!	!	!	!	!	!	!	!	!	!	!	!
8E-/J	.	.	16e\	.	16g\	.	16ee-\	.	.	.	.	.	.	.	.	.	.	.	.	.	.	.	.	.	.	.	.	.
.	.	.	16g\JJ)	.	16cc\JJ	.	16ff\JJ	.	.	.	.	.	.	.	.	.	.	.	.	.	.	.	.	.	.	.	.	.
!	!	!	!	!	!	!	!	!	!	!	!	!	!	!	!	!	!	!LO:SIC:s=4een:v	!	!	!	!	!LO:LB:g=original	!	!	!	!	!
8C/L	.	.	(16e\LL	.	16g\LL	.	16gg\LL	.	4C/	-če;	.	4c\	-ce,	.	4g 4c\yy	-če	.	4ee-\	-če;	.	4cc\	.	4cc\	.	4ee\	.	4gg\	.
.	.	.	16g\	.	16cc\	.	16ff\	.	.	.	.	.	.	.	.	.	.	.	.	.	.	.	.	.	.	.	.	.
!	!	!	!	!	!	!	!LO:SIC:s=16een:v	!	!	!	!	!	!	!	!	!	!	!	!	!	!	!	!	!	!	!	!	!
8E-/	.	.	16e\	.	16g\	.	16ee-\	.	.	.	.	.	.	.	.	.	.	.	.	.	.	.	.	.	.	.	.	.
.	.	.	16g\	.	16cc\	.	16dd\JJ	.	.	.	.	.	.	.	.	.	.	.	.	.	.	.	.	.	.	.	.	.
8C/	.	.	16e\	.	16g\	.	16cc\LL	.	4r	.	.	4r	.	.	4r	.	.	4r	.	.	4cc\	.	4cc\	.	4ee\	.	4gg\	.
.	.	.	16g\	.	16cc\	.	16b-\	.	.	.	.	.	.	.	.	.	.	.	.	.	.	.	.	.	.	.	.	.
8E-/J	.	.	16e\	.	16g\	.	16a\	.	.	.	.	.	.	.	.	.	.	.	.	.	.	.	.	.	.	.	.	.
.	X X	.	16g\JJ)	.	16cc\JJ	.	16g\JJ	.	.	.	.	.	.	.	.	.	.	.	.	.	.	.	.	.	.	.	.	.
!	!	!	!LO:LB:g=original	!	!	!	!	!	!	!	!	!LO:LB:g=original	!	!	!	!	!	!	!	!	!LO:LB:g=original	!	!	!	!	!	!	!
=28	=28	=28	=28	=28	=28	=28	=28	=28	=28	=28	=28	=28	=28	=28	=28	=28	=28	=28	=28	=28	=28	=28	=28	=28	=28	=28	=28	=28
!	!	!	!	!	!	!	!	!	!	!	!	!	!	!	!	!	!	!	!	!	!LO:TX:a:t=P:problem:rkp zniszczony	!	!	!	!	!	!	!
8F\L	.	.	(16f\LL	.	16a\LL	.	16a\LL	.	4F\	mu-	.	4c\	mu-	.	4a 4d\yy	mu-	.	4ff\	mu-	.	4ryy	.	4f/	.	4a\	.	4ff\	.
.	.	.	16a\	.	16cc\	.	16cc\	.	.	.	.	.	.	.	.	.	.	.	.	.	.	.	.	.	.	.	.	.
8A\	.	.	16f\	.	16a\	.	16dd\	.	.	.	.	.	.	.	.	.	.	.	.	.	.	.	.	.	.	.	.	.
!	!	!	!	!	!	!	!LO:SIC:s=16een:v	!	!	!	!	!	!	!	!	!	!	!	!	!	!	!	!	!	!	!	!	!
.	.	.	16a\	.	16cc\	.	16ee-\JJ	.	.	.	.	.	.	.	.	.	.	.	.	.	.	.	.	.	.	.	.	.
8F\	.	.	16f\	.	16a\	.	16ff\LL	.	8F\	-nus	.	8c\	-nus	.	8a 8d\yy	-nus	.	8ff\	-nus	.	4ryy	.	4r	.	4r	.	4r	.
.	.	.	16a\	.	16cc\	.	16gg\	.	.	.	.	.	.	.	.	.	.	.	.	.	.	.	.	.	.	.	.	.
8A\J	.	.	16f\	.	16a\	.	16aa\	.	8F\	pla-	.	8c\	pla-	.	8a 8d\yy	pla-	.	8ff\	pla-	.	.	.	.	.	.	.	.	.
.	.	.	16a\JJ)	.	16cc\JJ	.	16bb-\JJ	.	.	.	.	.	.	.	.	.	.	.	.	.	.	.	.	.	.	.	.	.
!	!	!	!	!	!	!	!	!	!	!	!	!	!	!	!	!	!	!	!	!	!	!	!	!	!LO:LB:g=original	!	!	!
8F\L	.	.	(16f\LL	.	16a\LL	.	8ccc\L	.	4A\	-ča-	.	4c\	-ca-	.	4a 4d\yy	-ca-	.	4ff\	-ča-	.	4F/	.	4f/	.	8f\L	.	8ff\L	.
.	.	.	16a\	.	16cc\	.	.	.	.	.	.	.	.	.	.	.	.	.	.	.	.	.	.	.	.	.	.	.
8A\	.	.	16f\	.	16a\	.	8aa\	.	.	.	.	.	.	.	.	.	.	.	.	.	.	.	.	.	8a\	.	8aa\	.
.	.	.	16a\	.	16cc\	.	.	.	.	.	.	.	.	.	.	.	.	.	.	.	.	.	.	.	.	.	.	.
8F\	.	.	16f\	.	16a\	.	8gg\	.	4F\	-tus	.	4c\	-tus	.	4a 4d\yy	-tus	.	4ff\	-tus	.	4F/	.	4f/	.	8cc\	.	8ccc\	.
.	.	.	16a\	.	16cc\	.	.	.	.	.	.	.	.	.	.	.	.	.	.	.	.	.	.	.	.	.	.	.
8A\J	.	.	16f\	.	16a\	.	8ff\J	.	.	.	.	.	.	.	.	.	.	.	.	.	.	.	.	.	8a\J	.	8aa\J	.
.	.	.	16a\JJ)	.	16cc\JJ	.	.	.	.	.	.	.	.	.	.	.	.	.	.	.	.	.	.	.	.	.	.	.
!	!	!	!	!	!	!	!LO:LB:g=original	!	!LO:LB:g=original	!	!	!	!	!	!	!	!	!LO:LB:g=original	!	!	!	!	!	!	!	!	!LO:LB:g=original	!
=29	=29	=29	=29	=29	=29	=29	=29	=29	=29	=29	=29	=29	=29	=29	=29	=29	=29	=29	=29	=29	=29	=29	=29	=29	=29	=29	=29	=29
!LO:SIC:s=8En:v:zamiast 8E- w całym takcie	!	!	!	!	!	!	!LO:SIC:s=16een:v	!	!	!	!	!	!	!	!	!	!	!LO:SIC:s=4een:v	!	!	!	!	!	!	!	!	!	!
8C/L	.	.	(16en\LL	.	16g\LL	.	16ee-\LL	.	4C/	res-	.	4c\	res-	.	4g 4c\yy	res-	.	4ee-\	res-	.	2r	.	4cc\	.	4eeX\	.	4gg\	.
.	.	.	16g\	.	16cc\	.	16cc\	.	.	.	.	.	.	.	.	.	.	.	.	.	.	.	.	.	.	.	.	.
8E-/	.	.	16e\	.	16g\	.	16g\	.	.	.	.	.	.	.	.	.	.	.	.	.	.	.	.	.	.	.	.	.
.	.	.	16g\	.	16cc\	.	16cc\JJ	.	.	.	.	.	.	.	.	.	.	.	.	.	.	.	.	.	.	.	.	.
!	!	!	!	!	!	!	!LO:SIC:s=16een:v	!	!	!	!	!	!	!	!LO:LB:g=original	!	!	!LO:SIC:s=4een:v	!	!	!	!	!	!	!	!	!	!
8C/	.	.	16e\	.	16g\	.	16ee-\LL	.	4c\	-pi-	.	4c\	-pi-	.	4g 4c\yy	-pi-	.	4ee-\	-pi-	.	.	.	4r	.	4r	.	4r	.
.	.	.	16g\	.	16cc\	.	16cc\	.	.	.	.	.	.	.	.	.	.	.	.	.	.	.	.	.	.	.	.	.
!	!	!	!	!	!	!	!LO:SIC:s=16een:v	!	!	!	!	!	!	!	!	!	!	!	!	!	!	!	!	!	!	!	!	!
8E-/J	.	.	16e\	.	16g\	.	16ee-\	.	.	.	.	.	.	.	.	.	.	.	.	.	.	.	.	.	.	.	.	.
.	.	.	16g\JJ)	.	16cc\JJ	.	16ff\JJ	.	.	.	.	.	.	.	.	.	.	.	.	.	.	.	.	.	.	.	.	.
!	!	!	!	!	!	!	!	!	!	!	!	!	!	!	!	!	!	!LO:SIC:s=4een:v	!	!	!	!	!	!	!	!	!	!
8C/L	.	.	(16e\LL	.	16g\LL	.	16gg\LL	.	4C/	-ce	.	4c\	-ce	.	4g 4c\yy	-ce	.	4ee-\	-če	.	4cc\	.	4cc\	.	4ee\	.	4gg\	.
.	.	.	16g\	.	16cc\	.	16ff\	.	.	.	.	.	.	.	.	.	.	.	.	.	.	.	.	.	.	.	.	.
!	!	!	!	!	!	!	!LO:SIC:s=16een:v	!	!	!	!	!	!	!	!	!	!	!	!	!	!	!	!	!	!	!	!	!
8E-/	.	.	16e\	.	16g\	.	16ee-\	.	.	.	.	.	.	.	.	.	.	.	.	.	.	.	.	.	.	.	.	.
.	.	.	16g\	.	16cc\	.	16dd\JJ	.	.	.	.	.	.	.	.	.	.	.	.	.	.	.	.	.	.	.	.	.
8C/	.	.	16e\	.	16g\	.	16cc\LL	.	4r	.	.	4r	.	.	4r	.	.	4r	.	.	4cc\	.	4cc\	.	4ee\	.	4gg\	.
.	.	.	16g\	.	16cc\	.	16b-\	.	.	.	.	.	.	.	.	.	.	.	.	.	.	.	.	.	.	.	.	.
8E-/J	.	.	16e\	.	16g\	.	16a\	.	.	.	.	.	.	.	.	.	.	.	.	.	.	.	.	.	.	.	.	.
.	.	.	16g\JJ)	.	16cc\JJ	.	16g\JJ	.	.	.	.	.	.	.	.	.	.	.	.	.	.	.	.	.	.	.	.	.
=30	=30	=30	=30	=30	=30	=30	=30	=30	=30	=30	=30	=30	=30	=30	=30	=30	=30	=30	=30	=30	=30	=30	=30	=30	=30	=30	=30	=30
!	!	!LO:DY:a	!	!LO:DY:t=p	!	!LO:DY:t=p	!	!LO:DY:a	!LO:TX:a:t=1.	!	!	!LO:TX:a:t=1.	!	!	!LO:TX:a:t=1.	!	!	!LO:TX:a:t=1.	!	!	!	!LO:DY:a:rj	!	!LO:DY:a:rj:t=p	!	!	!	!
4F\	.	p	(8A/L	p	8f/L	p	8f\L	p	1r	.	.	1r	.	.	1r	.	.	1r	.	.	4f/	p	4cc\	p	4a\	.	4ff\	.
.	.	.	8c/	.	8a/	.	8a\	.	.	.	.	.	.	.	.	.	.	.	.	.	.	.	.	.	.	.	.	.
4F\	.	.	8A/	.	8f/	.	8cc\	.	.	.	.	.	.	.	.	.	.	.	.	.	4f/	.	4cc\	.	4a\	.	4ff\	.
.	.	.	8c/J)	.	8a/J	.	8dd\J	.	.	.	.	.	.	.	.	.	.	.	.	.	.	.	.	.	.	.	.	.
!LO:LB:g=original	!	!	!	!	!	!	!	!	!	!	!	!	!	!	!	!	!	!	!	!	!	!	!	!	!	!	!	!
4F\	7_	.	(8A/L	.	16f\LL	.	4ee-X\	.	.	.	.	.	.	.	.	.	.	.	.	.	2r	.	2r	.	2r	.	2r	.
.	.	.	.	.	16a\	.	.	.	.	.	.	.	.	.	.	.	.	.	.	.	.	.	.	.	.	.	.	.
.	.	.	8c/	.	16cc\	.	.	.	.	.	.	.	.	.	.	.	.	.	.	.	.	.	.	.	.	.	.	.
.	.	.	.	.	16ff\JJ	.	.	.	.	.	.	.	.	.	.	.	.	.	.	.	.	.	.	.	.	.	.	.
4F\	.	.	8A/	.	8a/L	.	4cc\	.	.	.	.	.	.	.	.	.	.	.	.	.	.	.	.	.	.	.	.	.
.	X	.	8c/J)	.	8f/J	.	.	.	.	.	.	.	.	.	.	.	.	.	.	.	.	.	.	.	.	.	.	.
=31	=31	=31	=31	=31	=31	=31	=31	=31	=31	=31	=31	=31	=31	=31	=31	=31	=31	=31	=31	=31	=31	=31	=31	=31	=31	=31	=31	=31
4BB-/	.	.	8B-/L	.	4d/	.	4b-\	.	4B-\	Nam	.	4d\	Nam	.	4b-\	Nam	.	4ff\	Nam	.	4r	.	4r	.	4r	.	4r	.
!	!	!LO:DY:b	!	!	!	!LO:DY:b	!	!LO:DY:b	!	!	!	!	!	!	!	!	!	!	!	!	!	!	!	!	!	!	!	!
.	.	f	8d/J	.	.	f	.	f	.	.	.	.	.	.	.	.	.	.	.	.	.	.	.	.	.	f	.	f
!	!	!	!	!LO:DY:b	!	!	!	!	!	!	!	!	!	!	!	!	!	!	!	!	!	!	!	!	!	!	!	!
.	.	.	.	f	.	.	.	.	.	.	.	.	.	.	.	.	.	.	.	.	.	.	.	.	.	.	.	.
4B- 4BB-\	8_ 5_ 3_	.	(16B-/LL	.	16B-/LL	.	4.bb- 4.b- 4.d\	.	4BB-/	pa-	.	4B-\	pa-	.	4f\	pa-	.	4dd\	pa-	.	4B-/	.	4b-\	.	4.dd\	.	4.bb-\	.
.	.	.	16d/	.	16d/	.	.	.	.	.	.	.	.	.	.	.	.	.	.	.	.	.	.	.	.	.	.	.
.	.	.	16B-/	.	16B-/	.	.	.	.	.	.	.	.	.	.	.	.	.	.	.	.	.	.	.	.	.	.	.
.	.	.	16d/	.	16d/	.	.	.	.	.	.	.	.	.	.	.	.	.	.	.	.	.	.	.	.	.	.	.
4B- 4BB-\	.	.	16B-/	.	16B-/	.	.	.	4B-\	-nis	.	4B-\	-nis	.	4f\	-nis	.	4dd\	-nis	.	4B-/	.	4b-\	.	.	.	.	.
.	X X X	.	16d/	.	16d/	.	.	.	.	.	.	.	.	.	.	.	.	.	.	.	.	.	.	.	.	.	.	.
.	.	.	16B-/	.	16B-/	.	8B-/L	.	.	.	.	.	.	.	.	.	.	.	.	.	.	.	.	.	8b-\L	.	8dd\L	.
.	.	.	16d/	.	16d/	.	.	.	.	.	.	.	.	.	.	.	.	.	.	.	.	.	.	.	.	.	.	.
4BB-/	.	.	16B-/	.	16B-/	.	8B-/	.	4r	.	.	4r	.	.	4r	.	.	4r	.	.	4r	.	4r	.	8dd\	.	8ff\	.
.	.	.	16d/	.	16d/	.	.	.	.	.	.	.	.	.	.	.	.	.	.	.	.	.	.	.	.	.	.	.
.	.	.	16B-/	.	16B-/	.	8B-/J	.	.	.	.	.	.	.	.	.	.	.	.	.	.	.	.	.	8b-\J	.	8dd\J	.
.	.	.	16d/JJ)	.	16d/JJ	.	.	.	.	.	.	.	.	.	.	.	.	.	.	.	.	.	.	.	.	.	.	.
!	!	!	!	!	!LO:LB:g=original	!	!	!	!	!	!	!LO:LB:g=original	!	!	!	!	!	!	!	!	!	!	!	!	!	!	!	!
=32	=32	=32	=32	=32	=32	=32	=32	=32	=32	=32	=32	=32	=32	=32	=32	=32	=32	=32	=32	=32	=32	=32	=32	=32	=32	=32	=32	=32
4GG/	x x n	.	(16Bn/LL	.	4g/	.	4Bn/	.	4G\	nam	.	4d\	nam	.	4bn\	nam	.	4gg\	Nam	.	4g/	.	4g/	.	4bX\	.	4dd\	.
.	.	.	16d/	.	.	.	.	.	.	.	.	.	.	.	.	.	.	.	.	.	.	.	.	.	.	.	.	.
!	!	!	!	!	!	!LO:DY:b	!	!	!	!	!	!	!	!	!	!	!	!	!	!	!	!	!	!	!	!	!	!
.	.	.	16B/	.	.	f	.	.	.	.	.	.	.	.	.	.	.	.	.	.	.	.	.	.	.	.	.	.
.	.	.	16d/	.	.	.	.	.	.	.	.	.	.	.	.	.	.	.	.	.	.	.	.	.	.	.	.	.
!	!	!	!	!	!	!	!LO:LB:g=original	!	!	!	!	!	!	!	!	!	!	!	!	!	!	!	!	!	!	!	!	!
4G 4GG\	8_ 5_ n_	.	16B/	.	16Bn/LL	.	4.gg 4.bn 4.d\	.	4G\	pa-	.	4d\	pa-	.	4b\	pa-	.	4gg\	pa-	.	4g/	.	4g/	.	4.b\	.	4.gg\	.
.	.	.	16d/	.	16d/	.	.	.	.	.	.	.	.	.	.	.	.	.	.	.	.	.	.	.	.	.	.	.
.	.	.	16B/	.	16B/	.	.	.	.	.	.	.	.	.	.	.	.	.	.	.	.	.	.	.	.	.	.	.
.	.	.	16d/JJ)	.	16d/	.	.	.	.	.	.	.	.	.	.	.	.	.	.	.	.	.	.	.	.	.	.	.
!	!	!	!	!	!	!	!	!	!	!	!	!	!	!	!	!	!	!	!	!	!	!	!LO:LB:g=original	!	!	!	!	!
4G 4GG\	.	.	16B/LL	.	16B/	.	.	.	4G\	-nis	.	4d\	-nis	.	4b\	-nis	.	4gg\	-nis	.	4g/	.	4g/	.	.	.	.	.
.	X X X	.	16d/	.	16d/	.	.	.	.	.	.	.	.	.	.	.	.	.	.	.	.	.	.	.	.	.	.	.
.	.	.	16B/	.	16B/	.	8bn\L	.	.	.	.	.	.	.	.	.	.	.	.	.	.	.	.	.	8b\L	.	8dd\L	.
.	.	.	16d/	.	16d/JJ	.	.	.	.	.	.	.	.	.	.	.	.	.	.	.	.	.	.	.	.	.	.	.
*	*	*	*	*	*Xtremolo	*	*	*	*	*	*	*	*	*	*	*	*	*	*	*	*	*	*	*	*	*	*	*
4G\	.	.	16B/	.	16d/LL	.	8b\	.	4r	.	.	4r	.	.	4r	.	.	4r	.	.	4r	.	4r	.	8dd\	.	8ff\	.
.	.	.	16d/	.	16f/	.	.	.	.	.	.	.	.	.	.	.	.	.	.	.	.	.	.	.	.	.	.	.
.	.	.	16B/	.	16d/	.	8b\J	.	.	.	.	.	.	.	.	.	.	.	.	.	.	.	.	.	8b\J	.	8dd\J	.
.	.	.	16d/JJ	.	16f/JJ	.	.	.	.	.	.	.	.	.	.	.	.	.	.	.	.	.	.	.	.	.	.	.
=33	=33	=33	=33	=33	=33	=33	=33	=33	=33	=33	=33	=33	=33	=33	=33	=33	=33	=33	=33	=33	=33	=33	=33	=33	=33	=33	=33	=33
*	*	*	*	*	*tremolo	*	*	*	*	*	*	*	*	*	*	*	*	*	*	*	*	*	*	*	*	*	*	*
8C\L	x 5 -	.	(16c\LL	.	16e-X/LL	.	16cc\LL	.	4C/	cor-	.	4G/	cor-	.	4e-X\	cor-	.	4cc\	čor-	.	4cc\	.	4cc\	.	4cc\	.	4ee-X\	.
.	.	.	16e-X\	.	16g/	.	16b-\	.	.	.	.	.	.	.	.	.	.	.	.	.	.	.	.	.	.	.	.	.
8E-X\	.	.	16c\	.	16e-/	.	16cc\	.	.	.	.	.	.	.	.	.	.	.	.	.	.	.	.	.	.	.	.	.
.	.	.	16e-X\	.	16g/	.	16dd\JJ	.	.	.	.	.	.	.	.	.	.	.	.	.	.	.	.	.	.	.	.	.
8C\	.	.	16c\	.	16e-/	.	16ee-\LL	.	4c\	-pus	.	4c\	-pus	.	4g\	-pus	.	4ee-\	-pus	.	4r	.	4r	.	4r	.	4r	.
.	.	.	16e-X\	.	16g/	.	16dd\	.	.	.	.	.	.	.	.	.	.	.	.	.	.	.	.	.	.	.	.	.
8E-X\J	.	.	16c\	.	16e-/	.	16ee-\	.	.	.	.	.	.	.	.	.	.	.	.	.	.	.	.	.	.	.	.	.
.	.	.	16e-X\JJ)	.	16g/JJ	.	16ff\JJ	.	.	.	.	.	.	.	.	.	.	.	.	.	.	.	.	.	.	.	.	.
8C\L	.	.	(16c\LL	.	16e-/LL	.	8gg\L	.	4C/	ve-	.	4E-/	ve-	.	4g\	ve-	.	8gg\L	ve-	.	4cc\	.	4cc\	.	4cc\	.	4ee-\	.
.	.	.	16e-\	.	16g/	.	.	.	.	.	.	.	.	.	.	.	.	.	.	.	.	.	.	.	.	.	.	.
8E-\	.	.	16c\	.	16e-/	.	8dd\	.	.	.	.	.	.	.	.	.	.	8dd\J	.	.	.	.	.	.	.	.	.	.
.	.	.	16e-\	.	16g/	.	.	.	.	.	.	.	.	.	.	.	.	.	.	.	.	.	.	.	.	.	.	.
8C\	.	.	16c\	.	16e-/	.	8ee-\	.	4C/	-rum	.	4E-/	-rum,	.	4g\	-rum	.	8ee-\L	-rum	.	4r	.	4r	.	4r	.	4r	.
.	.	.	16e-\	.	16g/	.	.	.	.	.	.	.	.	.	.	.	.	.	.	.	.	.	.	.	.	.	.	.
8E-\J	.	.	16c\	.	16e-/	.	8cc\J	.	.	.	.	.	.	.	.	.	.	8cc\J	.	.	.	.	.	.	.	.	.	.
.	.	.	16e-\JJ)	.	16g/JJ	.	.	.	.	.	.	.	.	.	.	.	.	.	.	.	.	.	.	.	.	.	.	.
!	!	!	!	!	!	!	!	!	!LO:LB:g=original	!	!	!	!	!	!LO:LB:g=original	!	!	!LO:LB:g=original	!	!	!	!	!	!	!LO:LB:g=original	!	!	!
=34	=34	=34	=34	=34	=34	=34	=34	=34	=34	=34	=34	=34	=34	=34	=34	=34	=34	=34	=34	=34	=34	=34	=34	=34	=34	=34	=34	=34
!LO:TX:a:t=P:problem:mixed beam	!	!	!	!	!	!	!	!	!	!	!	!	!	!	!	!	!	!	!	!	!	!LO:DY:a:rj	!	!	!	!	!	!
8AAn/L	6_ 3_	.	(16c\LL	.	16f/LL	.	4an/	.	4F\	nam	.	4c\	Nam	.	4f\	Nam	.	4a\	Nam	.	4r	f	4r	.	4r	.	4r	.
.	.	.	16f\	.	16a/	.	.	.	.	.	.	.	.	.	.	.	.	.	.	.	.	.	.	.	.	.	.	.
!	!	!	!	!	!	!	!	!LO:DY:b	!	!	!	!	!	!	!	!	!	!	!	!	!	!	!	!	!	!	!	!
8F\	.	.	16c\	.	16f/	.	.	f	.	.	.	.	.	.	.	.	.	.	.	.	.	.	.	f	.	f	.	.
.	.	.	16f\	.	16a/	.	.	.	.	.	.	.	.	.	.	.	.	.	.	.	.	.	.	.	.	.	.	.
8AA/	.	.	16c\	.	16f/	.	4.ff 4.a\	.	4F\	pa-	.	4An\	pa-	.	4f\	pa-	.	4cc\	pa-	.	4f/	.	4cc\	.	4.ff\	.	4.aa\	.
.	.	.	16f\	.	16a/	.	.	.	.	.	.	.	.	.	.	.	.	.	.	.	.	.	.	.	.	.	.	.
8F\J	X X	.	16c\	.	16f/	.	.	.	.	.	.	.	.	.	.	.	.	.	.	.	.	.	.	.	.	.	.	.
.	.	.	16f\JJ)	.	16a/JJ	.	.	.	.	.	.	.	.	.	.	.	.	.	.	.	.	.	.	.	.	.	.	.
!LO:TX:a:t=P:problem:mixed beam	!	!	!LO:LB:g=original	!	!	!	!	!	!	!	!	!	!	!	!	!	!	!	!	!	!	!	!	!	!	!	!	!
8AA/L	.	.	(16c\LL	.	16f/LL	.	.	.	4F\	-nis	.	4c\	-nis	.	4a\	-nis	.	4ff\	-nis	.	4f/	.	4cc\	.	.	.	.	.
.	.	.	16f\	.	16a/	.	.	.	.	.	.	.	.	.	.	.	.	.	.	.	.	.	.	.	.	.	.	.
8F\	.	.	16c\	.	16f/	.	8A/L	.	.	.	.	.	.	.	.	.	.	.	.	.	.	.	.	.	8ff\L	.	8aa\L	.
.	.	.	16f\	.	16a/	.	.	.	.	.	.	.	.	.	.	.	.	.	.	.	.	.	.	.	.	.	.	.
8AA/	.	.	16c\	.	16f/	.	8A/	.	4r	.	.	4r	.	.	4r	.	.	4r	.	.	4r	.	4r	.	8ff\	.	8aa\	.
.	.	.	16f\	.	16a/	.	.	.	.	.	.	.	.	.	.	.	.	.	.	.	.	.	.	.	.	.	.	.
8F\J	.	.	16c\	.	16f/	.	8A/J	.	.	.	.	.	.	.	.	.	.	.	.	.	.	.	.	.	8ff\J	.	8aa\J	.
.	.	.	16f\JJ)	.	16a/JJ	.	.	.	.	.	.	.	.	.	.	.	.	.	.	.	.	.	.	.	.	.	.	.
!LO:LB:g=original	!	!	!	!	!	!	!	!	!	!	!	!	!	!	!	!	!	!	!	!	!LO:LB:g=original	!	!	!	!	!	!LO:LB:g=original	!
=35	=35	=35	=35	=35	=35	=35	=35	=35	=35	=35	=35	=35	=35	=35	=35	=35	=35	=35	=35	=35	=35	=35	=35	=35	=35	=35	=35	=35
!LO:TX:a:t=P:problem:mixed beam	!	!	!	!	!	!	!	!	!	!	!	!	!	!	!	!	!	!	!	!	!LO:TX:a:t=P:problem:rkp zniszczony	!LO:DY:a	!	!	!	!	!	!
8BB-/L	5_	.	(16B-\LL	.	16f/LL	.	4B-/	.	4B-\	nam	.	4d\	Nam	.	4f\	Nam	.	4b-\	nam	.	4ryy	.	4r	.	4r	.	4r	.
.	.	.	16d\	.	16b-/	.	.	.	.	.	.	.	.	.	.	.	.	.	.	.	.	.	.	.	.	.	.	.
8F\	.	.	16B-\	.	16f/	.	.	.	.	.	.	.	.	.	.	.	.	.	.	.	.	.	.	.	.	.	.	.
.	.	.	16d\	.	16b-/	.	.	.	.	.	.	.	.	.	.	.	.	.	.	.	.	.	.	.	.	.	.	.
8BB-/	.	.	16B-\	.	16f/	.	4.ff 4.b- 4.d\	.	4B-\	pa-	.	4B-\	pa-	.	4f\	pa-	.	4dd\	pa-	.	4ryy	.	4b-\	.	4.dd\	.	4.bb-\	.
.	.	.	16d\	.	16b-/	.	.	.	.	.	.	.	.	.	.	.	.	.	.	.	.	.	.	.	.	.	.	.
8F\J	.	.	16B-\	.	16f/	.	.	.	.	.	.	.	.	.	.	.	.	.	.	.	.	.	.	.	.	.	.	.
.	.	.	16d\JJ)	.	16b-/JJ	.	.	.	.	.	.	.	.	.	.	.	.	.	.	.	.	.	.	.	.	.	.	.
!LO:TX:a:t=P:problem:mixed beam	!	!	!	!	!	!	!	!	!	!	!	!	!	!	!	!	!	!	!	!	!	!	!	!	!	!	!	!
8BB-/L	X	.	(16B-\LL	.	16f/LL	.	.	.	4B-\	-nis	.	4d\	-nis	.	4b-\	-nis	.	4ff\	-nis	.	4B-/	.	4b-\	.	.	.	.	.
.	.	.	16d\	.	16b-/	.	.	.	.	.	.	.	.	.	.	.	.	.	.	.	.	.	.	.	.	.	.	.
8F\	.	.	16B-\	.	16f/	.	8b-\L	.	.	.	.	.	.	.	.	.	.	.	.	.	.	.	.	.	8dd\L	.	8bb-\L	.
.	.	.	16d\	.	16b-/	.	.	.	.	.	.	.	.	.	.	.	.	.	.	.	.	.	.	.	.	.	.	.
8BB-/	.	.	16B-\	.	16f/	.	8b-\	.	4r	.	.	4r	.	.	4r	.	.	4r	.	.	4r	.	4r	.	8dd\	.	8bb-\	.
.	.	.	16d\	.	16b-/	.	.	.	.	.	.	.	.	.	.	.	.	.	.	.	.	.	.	.	.	.	.	.
8F\J	.	.	16B-\	.	16f/	.	8b-\J	.	.	.	.	.	.	.	.	.	.	.	.	.	.	.	.	.	8dd\J	.	8bb-\J	.
.	.	.	16d\JJ)	.	16b-/JJ	.	.	.	.	.	.	.	.	.	.	.	.	.	.	.	.	.	.	.	.	.	.	.
!	!	!	!	!	!	!	!LO:LB:g=original	!	!	!	!	!LO:LB:g=original	!	!	!	!	!	!	!	!	!	!	!	!	!	!	!	!
=36	=36	=36	=36	=36	=36	=36	=36	=36	=36	=36	=36	=36	=36	=36	=36	=36	=36	=36	=36	=36	=36	=36	=36	=36	=36	=36	=36	=36
4E-\	6_	.	(8e-\L	.	8g/L	.	8bn\L	.	4E-\	cor-	.	4G/	cor-	.	4e-\	cor-	.	4cc\	čor-	.	2r	.	2r	.	2r	.	2r	.
.	.	.	8g\)	.	8g/	.	8cc\J	.	.	.	.	.	.	.	.	.	.	.	.	.	.	.	.	.	.	.	.	.
4E-\	.	.	(8e-\	.	8g/	.	16ee-\LL	.	4E-\	-pus	.	4G/	-pus	.	8g\L	-pus	.	8ee-\L	-pus	.	.	.	.	.	.	.	.	.
!	!	!	!	!	!	!	!	!	!	!	!	!	!	!	!	!	!	!	!	!	!	!LO:DY:t=p	!	!LO:DY:a	!	!	!	!
.	.	.	.	.	.	.	16dd\	.	.	.	.	.	.	.	.	.	.	.	.	.	.	p	.	p	.	.	.	.
.	.	.	8g\J)	.	8e-/J	.	16ee-\	.	.	.	.	.	.	.	8e-\J	.	.	8cc\J	.	.	.	.	.	.	.	.	.	.
.	.	.	.	.	.	.	16cc\JJ	.	.	.	.	.	.	.	.	.	.	.	.	.	.	.	.	.	.	.	.	.
!	!	!	!	!	!	!	!LO:SIC:s=4b-:v	!	!	!	!	!	!	!	!	!	!	!	!	!	!	!	!	!	!	!	!	!
4F\	4	.	8B-\L	.	8d/L	.	4b\	.	2F\	ve-	.	(4d\	ve-	.	(4d\	ve-	.	(4b-\	ve-	.	4d/	.	4b-\	.	4b-\	.	4dd\	.
.	.	.	8d\	.	8f/	.	.	.	.	.	.	.	.	.	.	.	.	.	.	.	.	.	.	.	.	.	.	.
4F\	3	.	8c\	.	8e-/	.	4a\	.	.	.	.	4c\)	.	.	4c\)	.	.	4a\)	.	.	4f/	.	4cc\	.	4a\	.	4cc\	.
!	!	!	!	!	!	!	!	!	!	!	!	!	!	!	!	!	!	!	!	!	!	!	!	!	!	!	!LO:TX:a:t=Solo	!
.	.	.	8d\J	.	8f/J	.	.	.	.	.	.	.	.	.	.	.	.	.	.	p	.	.	.	.	.	.	.	.
=37	=37	=37	=37	=37	=37	=37	=37	=37	=37	=37	=37	=37	=37	=37	=37	=37	=37	=37	=37	=37	=37	=37	=37	=37	=37	=37	=37	=37
!LO:TX:a:t=Solo	!	!	!	!LO:DY:rj:t=p	!	!LO:DY:b:rj:t=p	!	!	!	!	!	!	!	!	!	!	!	!	!	!	!	!	!	!	!LO:TX:a:t=1.	!	!LO:TUP:b:problem:klamra łukowa, łuczek zamiast numeru	!
4B-\	.	.	4f\	p	4d/	p	4b-\	p	4B-\	-rum	.	4d\	-rum	.	4d\	-rum	.	4b-\	-rum	.	4d/	.	4b-\	.	1r	.	12D/L	.
.	.	.	.	.	.	.	.	.	.	.	.	.	.	.	.	.	.	.	.	.	.	.	.	.	.	.	12F/	.
.	.	.	.	.	.	.	.	.	.	.	.	.	.	.	.	.	.	.	.	.	.	.	.	.	.	.	12B-/J	.
!	!	!	!	!	!	!	!	!	!	!	!	!	!	!	!	!	!	!	!	!	!	!	!	!	!	!	!LO:TUP:b:problem:klamra łukowa, łuczek zamiast numeru	!
4r	.	.	4r	.	4r	.	4r	.	4r	.	.	4r	.	.	4r	.	.	4r	.	.	4r	.	4r	.	.	.	12d/L	.
.	.	.	.	.	.	.	.	.	.	.	.	.	.	.	.	.	.	.	.	.	.	.	.	.	.	.	12f/	.
.	.	.	.	.	.	.	.	.	.	.	.	.	.	.	.	.	.	.	.	.	.	.	.	.	.	.	12b-/J	.
!	!	!	!	!	!LO:LB:g=original	!	!	!	!	!	!	!	!	!	!	!	!	!	!	!	!	!	!	!	!	!	!	!
4BB-/	.	.	4f\	.	4d/	.	4b-\	.	2r	.	.	2r	.	.	2r	.	.	2r	.	.	4d/	.	4b-\	.	.	.	8dd\L	.
!	!	!	!	!	!	!	!	!	!	!	!	!	!	!	!	!	!	!	!	!	!	!	!	!	!	!	!LO:TX:a:t=P:problem:przekreślony obiegnik	!
.	.	.	.	.	.	.	.	.	.	.	.	.	.	.	.	.	.	.	.	.	.	.	.	.	.	.	8ffs$\	.
4B-\	.	.	4f\	.	4d/	.	4b-\	.	.	.	.	.	.	.	.	.	.	.	.	.	4d/	.	4b-\	.	.	.	8bb-\	.
!	!	!	!	!	!	!	!	!	!	!	!	!	!	!	!	!	!LO:DY:b	!	!	!	!	!	!	!	!	!	!	!
.	.	.	.	.	.	.	.	.	.	.	.	.	.	.	.	.	p	.	.	.	.	.	.	.	.	p	8dd\J	.
!	!	!	!	!	!	!	!	!	!	!	!	!	!	!	!	!	!	!	!	!	!	!	!LO:LB:g=original	!	!	!	!	!
=38	=38	=38	=38	=38	=38	=38	=38	=38	=38	=38	=38	=38	=38	=38	=38	=38	=38	=38	=38	=38	=38	=38	=38	=38	=38	=38	=38	=38
!	!	!	!	!	!	!	!LO:TX:a:t=P:problem:mixed beam	!LO:DY:a	!	!	!LO:DY:b:rj	!	!	!LO:DY:b:rj:t=p.	!	!	!	!	!	!	!	!	!	!	!	!	!	!
4F\	.	.	4f\	.	8a\L	.	8ee-\L	.	4F\	pro	p	4c\	Pro	p	4a\	Pro	.	4ee-\	pro	.	4f/	.	4cc\	.	4cc\	.	4ee-\	.
.	.	.	.	.	8cc\	.	8f/	.	.	.	.	.	.	.	.	.	.	.	.	.	.	.	.	.	.	.	.	.
!	!	!	!	!	!	!	!	!	!	!	!	!	!	!	!LO:LB:g=original	!	!	!	!	!	!	!	!	!	!	!	!	!
4r	.	.	4c\	.	8f\	.	8a/	.	4F\	cunc-	.	4c\	cunc-	.	4a\	cunc-	.	4ee-\	cunc-	.	4r	.	4r	.	4r	.	4r	.
.	.	.	.	.	8a\J	.	8cc/J	.	.	.	.	.	.	.	.	.	.	.	.	.	.	.	.	.	.	.	.	.
!	!	!	!	!	!	!	!	!	!LO:LB:g=original	!	!	!	!	!	!	!	!	!	!	!	!	!	!	!	!	!	!	!
4F\	.	.	(8c\L	.	8f/L	.	16ee-\LL	.	4F\	-tis	.	4c\	-tis	.	4a\	-tis	.	4ee-\	-tis	.	4f/	.	4cc\	.	4cc\	.	4ee-\	.
.	.	.	.	.	.	.	16dd\	.	.	.	.	.	.	.	.	.	.	.	.	.	.	.	.	.	.	.	.	.
.	.	.	8f\)	.	8a/	.	16cc\	.	.	.	.	.	.	.	.	.	.	.	.	.	.	.	.	.	.	.	.	.
.	.	.	.	.	.	.	16b-\JJ	.	.	.	.	.	.	.	.	.	.	.	.	.	.	.	.	.	.	.	.	.
4F\	.	.	(8c\	.	8f/	.	16a\LL	.	8.F\	hoſ-	.	8.c\	hoſ-	.	8.a\	hoſ-	.	8.ee-\	hos-	.	4f/	.	4cc\	.	4cc\	.	4ee-\	.
.	.	.	.	.	.	.	16b-\	.	.	.	.	.	.	.	.	.	.	.	.	.	.	.	.	.	.	.	.	.
.	.	.	8f\J)	.	8a/J	.	16cc\	.	.	.	.	.	.	.	.	.	.	.	.	.	.	.	.	.	.	.	.	.
.	.	.	.	.	.	.	16a\JJ	.	16F\	-ti-	.	16c\	-ti-	.	16a\	-ti-	.	16ee-\	-ti-	.	.	.	.	.	.	.	.	.
!	!	!	!	!	!	!	!	!	!	!	!	!	!	!	!	!	!	!LO:LB:g=original	!	!	!	!	!	!	!	!	!	!
=39	=39	=39	=39	=39	=39	=39	=39	=39	=39	=39	=39	=39	=39	=39	=39	=39	=39	=39	=39	=39	=39	=39	=39	=39	=39	=39	=39	=39
!	!	!	!	!	!	!	!	!	!	!	!	!	!	!	!	!	!	!	!	!	!	!	!	!	!LO:TX:a:t=1.	!	!LO:TUP:b:problem:klamra łukowa, łuczek zamiast numeru	!
4B-\	.	.	4f\	.	4d/	.	4b-\	.	4B-\	-a	.	4d\	-a	.	4f\	-a,	.	4dd\	-a	.	4d/	.	4b-\	.	1r	.	12D/L	.
.	.	.	.	.	.	.	.	.	.	.	.	.	.	.	.	.	.	.	.	.	.	.	.	.	.	.	12F/	.
.	.	.	.	.	.	.	.	.	.	.	.	.	.	.	.	.	.	.	.	.	.	.	.	.	.	.	12B-/J	.
!	!	!	!	!	!	!	!	!	!	!	!	!	!	!	!	!	!	!	!	!	!	!	!	!	!	!	!LO:TUP:b:problem:klamra łukowa, łuczek zamiast numeru	!
4r	.	.	4r	.	4r	.	4r	.	4r	.	.	4r	.	.	4r	.	.	4r	.	.	4r	.	4r	.	.	.	12d/L	.
.	.	.	.	.	.	.	.	.	.	.	.	.	.	.	.	.	.	.	.	.	.	.	.	.	.	.	12f/	.
.	.	.	.	.	.	.	.	.	.	.	.	.	.	.	.	.	.	.	.	.	.	.	.	.	.	.	12b-/J	.
!	!	!	!	!	!	!	!	!	!	!	!	!	!	!	!	!	!	!	!	!	!	!	!	!	!	!	!LO:LB:g=original	!
4B-\	.	.	4f\	.	4d/	.	4b-\	.	2r	.	.	2r	.	.	2r	.	.	2r	.	.	4d/	.	4b-\	.	.	.	8dd\L	.
!	!	!	!	!	!	!	!	!	!	!	!	!	!	!	!	!	!	!	!	!	!	!	!	!	!	!	!LO:TX:a:t=P:problem:przekreślony obiegnik	!
.	.	.	.	.	.	.	.	.	.	.	.	.	.	.	.	.	.	.	.	.	.	.	.	.	.	.	8ffs$\	.
4BB-/	.	.	4f\	.	4d/	.	4b-\	.	.	.	.	.	.	.	.	.	.	.	.	.	4d/	.	4b-\	.	.	.	8bb-\	.
.	.	.	.	.	.	.	.	.	.	.	.	.	.	.	.	.	.	.	.	.	.	.	.	.	.	.	8dd\J	.
!LO:LB:g=original	!	!	!	!	!	!	!LO:LB:g=original	!	!	!	!	!LO:LB:g=original	!	!	!	!	!	!	!	!	!	!	!	!	!	!	!	!
=40	=40	=40	=40	=40	=40	=40	=40	=40	=40	=40	=40	=40	=40	=40	=40	=40	=40	=40	=40	=40	=40	=40	=40	=40	=40	=40	=40	=40
!	!	!	!	!	!	!	!LO:TX:a:t=P:problem:mixed beam	!	!	!	!	!	!	!	!	!	!	!	!	!	!	!	!	!	!	!	!	!
4F\	.	.	4f\	.	8a\L	.	8ee-\L	.	4F\	Pro	.	4c\	Pro	.	4a\	pro	.	4ee-\	Pro	.	4f/	.	4cc\	.	4cc\	.	4ee-\	.
.	.	.	.	.	8cc\	.	8f/	.	.	.	.	.	.	.	.	.	.	.	.	.	.	.	.	.	.	.	.	.
4r	.	.	4c\	.	8f\	.	8a/	.	4F\	cunc-	.	4c\	cunc-	.	4a\	cunc-	.	4ee-\	cunc-	.	4r	.	4r	.	4r	.	4r	.
.	.	.	.	.	8a\J	.	8cc/J	.	.	.	.	.	.	.	.	.	.	.	.	.	.	.	.	.	.	.	.	.
4F\	.	.	(8c\L	.	8f/L	.	16ee-\LL	.	4F\	-tis	.	4c\	-tis	.	4a\	-tis	.	4ee-\	-tis	.	4f/	.	4cc\	.	4cc\	.	4ee-\	.
.	.	.	.	.	.	.	16dd\	.	.	.	.	.	.	.	.	.	.	.	.	.	.	.	.	.	.	.	.	.
.	.	.	8f\)	.	8a/	.	16cc\	.	.	.	.	.	.	.	.	.	.	.	.	.	.	.	.	.	.	.	.	.
.	.	.	.	.	.	.	16b-\JJ	.	.	.	.	.	.	.	.	.	.	.	.	.	.	.	.	.	.	.	.	.
4F\	.	.	(8c\	.	8f/	.	16a\LL	.	8.F\	hoſ-	.	8.c\	hoſ-	.	8.a\	hoſ-	.	8.ee-\	hoſ-	.	4f/	.	4cc\	.	4cc\	.	4ee-\	.
.	.	.	.	.	.	.	16b-\	.	.	.	.	.	.	.	.	.	.	.	.	.	.	.	.	.	.	.	.	.
.	.	.	8f\J)	.	8a/J	.	16cc\	.	.	.	.	.	.	.	.	.	.	.	.	.	.	.	.	.	.	.	.	.
.	.	.	.	.	.	.	16a\JJ	.	16F\	-ti-	.	16c\	-ti-	.	16a\	-ti-	.	16ee-\	-ti-	.	.	.	.	.	.	.	.	.
!	!	!	!LO:LB:g=original	!	!	!	!	!	!	!	!	!	!	!	!	!	!	!	!	!	!	!	!	!	!	!	!	!
=41	=41	=41	=41	=41	=41	=41	=41	=41	=41	=41	=41	=41	=41	=41	=41	=41	=41	=41	=41	=41	=41	=41	=41	=41	=41	=41	=41	=41
!	!	!	!	!	!	!	!	!LO:DY:b:rj	!	!	!	!	!	!	!	!	!	!	!	!	!	!	!	!	!	!	!	!
4BB-/	.	.	4f\	.	4b- 4d\	.	8b-\L	f	4B-\	-a	.	4B-\	-a	.	4f\	-a	.	4dd\	-a	.	4d/	.	4b-\	.	4f/	.	8b-\L	.
.	.	.	.	.	.	.	8cc\	.	.	.	.	.	.	.	.	.	.	.	.	.	.	.	.	.	.	.	8cc\	.
4B-\	.	.	4f\	.	4b- 4d\	.	8dd\	.	4r	.	.	4r	.	.	4r	.	.	4r	.	.	4d/	.	4b-\	.	4d/	.	8dd\	.
.	.	.	.	.	.	.	8ee-\J	.	.	.	.	.	.	.	.	.	.	.	.	.	.	.	.	.	.	.	8ee-\J	.
4B-\	.	.	4f\	.	4b- 4d\	.	8ff\L	.	2r	.	.	2r	.	.	2r	.	.	2r	.	.	4d/	.	4b-\	.	4b-\	.	4dd\	.
.	.	.	.	.	.	.	8gg\	.	.	.	.	.	.	.	.	.	.	.	.	.	.	.	.	.	.	.	.	.
4r	.	.	4r	.	4r	.	8aa\	.	.	.	.	.	.	.	.	.	.	.	.	.	4r	.	4r	.	4r	.	4r	.
.	.	.	.	.	.	.	8bb-\J	.	.	.	.	.	.	.	.	.	.	.	.	.	.	.	.	.	.	.	.	.
!	!	!	!	!	!	!	!	!	!LO:LB:g=original	!	!	!	!	!	!LO:LB:g=original	!	!	!	!	!	!LO:LB:g=original	!	!	!	!LO:LB:g=original	!	!	!
=42	=42	=42	=42	=42	=42	=42	=42	=42	=42	=42	=42	=42	=42	=42	=42	=42	=42	=42	=42	=42	=42	=42	=42	=42	=42	=42	=42	=42
!	!	!	!	!	!	!LO:DY:rj	!	!	!	!	!	!	!	!	!	!	!	!	!	!	!LO:TX:a:t=P:problem:rkp zniszczony	!	!	!	!	!	!	!
4E-\	.	.	(8e-\L	.	8g/L	f	4gg\	.	4E-\	Et	.	4B-\	Et	.	4g\	Et	.	4ee-\	Et	.	4ryy	.	4b-\	.	4b-\	.	4gg\	.
.	.	.	8g\	.	8b-/	.	.	.	.	.	.	.	.	.	.	.	.	.	.	.	.	.	.	.	.	.	.	.
4E-\	.	.	8e-\	.	8g/	.	4ee-\	.	4E-\	san-	.	4B-\	san-	.	4g\	san-	.	4ee-\	san-	.	4ryy	.	4b-\	.	4b-\	.	4ee-\	.
.	.	.	8g\J)	.	8b-/J	.	.	.	.	.	.	.	.	.	.	.	.	.	.	.	.	.	.	.	.	.	.	.
4E-\	.	.	(8e-\L	.	8g\L	.	8gg\L	.	4E-\	-guis	.	4B-\	-guis	.	4g\	-guis	.	4ee-\	-guis	.	4f/	.	2r	.	2r	.	2r	.
.	.	.	8g\	.	8b-\	.	16bb-\L	.	.	.	.	.	.	.	.	.	.	.	.	.	.	.	.	.	.	.	.	.
.	.	.	.	.	.	.	16aa\JJ	.	.	.	.	.	.	.	.	.	.	.	.	.	.	.	.	.	.	.	.	.
4E-\	.	.	8e-\	.	8g\	.	8bb-\L	.	4r	.	.	4r	.	.	4r	.	.	4r	.	.	4r	.	.	.	.	.	.	.
.	.	.	8g\J)	.	8b-\J	.	8gg\J	.	.	.	.	.	.	.	.	.	.	.	.	.	.	.	.	.	.	.	.	.
!	!	!	!	!	!	!	!	!	!	!	!	!	!	!	!	!	!	!	!	!	!	!	!LO:LB:g=original	!	!	!	!	!
=43	=43	=43	=43	=43	=43	=43	=43	=43	=43	=43	=43	=43	=43	=43	=43	=43	=43	=43	=43	=43	=43	=43	=43	=43	=43	=43	=43	=43
4BB-/	.	.	(8d\L	.	8f\L	.	4ff\	.	2B-\	Chri-	.	2B-\	Chri-	.	2f\	Chri-	.	2dd\	Chri-	.	4B-/	.	4b-\	.	4b-\	.	4ff\	.
.	.	.	8f\	.	8b-\	.	.	.	.	.	.	.	.	.	.	.	.	.	.	.	.	.	.	.	.	.	.	.
4B-\	.	.	8d\	.	8f\	.	4dd\	.	.	.	.	.	.	.	.	.	.	.	.	.	4B-/	.	4b-\	.	4b-\	.	4dd\	.
.	.	.	8f\J)	.	8b-\J	.	.	.	.	.	.	.	.	.	.	.	.	.	.	.	.	.	.	.	.	.	.	.
4BB-/	.	.	(8d\L	.	8f\L	.	16b-\LL	.	4B-\	-ſti	.	4B-\	-ſti	.	4f\	-ſti	.	4dd\	-sti	.	2r	.	2r	.	2r	.	2r	.
.	.	.	.	.	.	.	16cc\	.	.	.	.	.	.	.	.	.	.	.	.	.	.	.	.	.	.	.	.	.
.	.	.	8f\	.	8b-\	.	16dd\	.	.	.	.	.	.	.	.	.	.	.	.	.	.	.	.	.	.	.	.	.
.	.	.	.	.	.	.	16ee-\JJ	.	.	.	.	.	.	.	.	.	.	.	.	.	.	.	.	.	.	.	.	.
4BB-/	.	.	8d\	.	8f\	.	16ff\LL	.	4r	.	.	4r	.	.	4r	.	.	4r	.	.	.	.	.	.	.	.	.	.
.	.	.	.	.	.	.	16dd\	.	.	.	.	.	.	.	.	.	.	.	.	.	.	.	.	.	.	.	.	.
.	.	.	8f\J)	.	8b-\J	.	16cc\	.	.	.	.	.	.	.	.	.	.	.	.	.	.	.	.	.	.	.	.	.
.	.	.	.	.	.	.	16b-\JJ	.	.	.	.	.	.	.	.	.	.	.	.	.	.	.	.	.	.	.	.	.
!	!	!	!	!	!LO:LB:g=original	!	!LO:LB:g=original	!	!	!	!	!LO:LB:g=original	!	!	!	!	!	!LO:LB:g=original	!	!	!	!	!	!	!	!	!	!
=44	=44	=44	=44	=44	=44	=44	=44	=44	=44	=44	=44	=44	=44	=44	=44	=44	=44	=44	=44	=44	=44	=44	=44	=44	=44	=44	=44	=44
!	!	!	!	!	!	!	!	!LO:DY:rj	!LO:TX:a:t=1.	!	!	!LO:TX:a:t=1.	!	!	!LO:TX:a:t=1.	!	!	!LO:TX:a:t=1.	!	!	!	!	!	!	!	!	!	!
4F\	.	.	(8c\L	.	8a\L	p	8a\L	p	1r	.	.	1r	.	.	1r	.	.	1r	.	.	2r	.	2r	.	2r	.	2r	.
.	.	.	8f\	.	8cc\	.	8gg\	.	.	.	.	.	.	.	.	.	.	.	.	.	.	.	.	.	.	.	.	.
4r	.	.	8c\	.	8a\	.	8ff\	.	.	.	.	.	.	.	.	.	.	.	.	.	.	.	.	.	.	.	.	.
.	.	.	8f\J)	.	8cc\J	.	8ee-\J	.	.	.	.	.	.	.	.	.	.	.	.	.	.	.	.	.	.	.	.	.
4F\	7_	.	(8c\L	.	8f\L	.	8dd\L	.	.	.	.	.	.	.	.	.	.	.	.	.	4f/	.	4cc\	.	4cc\	.	4ee-\	.
.	.	.	8f\	.	8a\	.	8cc\	.	.	.	.	.	.	.	.	.	.	.	.	.	.	.	.	.	.	.	.	.
4F\	.	.	8c\	.	8f\	.	8b-\	.	.	.	.	.	.	.	.	.	.	.	.	.	4f/	.	4cc\	.	4cc\	.	4ee-\	.
!	!	!	!	!	!	!	!	!	!LO:TX:b:t=Tutti:problem:na pięciolinii	!	!	!LO:TX:b:t=Tutti:problem:na pięciolinii	!	!	!LO:TX:a:t=Tutti:problem:na pięciolinii	!	!	!LO:TX:a:t=Tutti:problem:na pięciolinii	!	!	!	!	!	!	!	!	!	!
.	X	.	8f\J)	.	8a\J	.	8a\J	.	.	.	.	.	.	.	.	.	.	.	.	.	.	.	.	.	.	.	.	.
=45	=45	=45	=45	=45	=45	=45	=45	=45	=45	=45	=45	=45	=45	=45	=45	=45	=45	=45	=45	=45	=45	=45	=45	=45	=45	=45	=45	=45
!LO:TX:a:t=Tutti	!	!LO:DY:b:rj	!	!LO:DY:rj	!	!	!LO:TX:a:t=P:problem:mixed beam	!LO:DY:b:rj	!	!	!	!	!	!	!	!	!	!	!	!	!	!LO:DY:rj	!	!LO:DY:rj	!	!LO:DY:rj	!	!LO:DY:rj:t=f
8BB-/L	x 5_ 3_	f	(16d\LL	f	16f\LL	f	8b-\L	f	2B-\	Et	.	2d\	Et	.	2f\	Et	.	2ff\	Et	.	4B-/	f	4b-\	f	4b-\	f	4dd\	f
.	.	.	16f\	.	16b-\	.	.	.	.	.	.	.	.	.	.	.	.	.	.	.	.	.	.	.	.	.	.	.
8D/	.	.	16d\	.	16f\	.	8bb-\	.	.	.	.	.	.	.	.	.	.	.	.	.	.	.	.	.	.	.	.	.
.	.	.	16f\	.	16b-\	.	.	.	.	.	.	.	.	.	.	.	.	.	.	.	.	.	.	.	.	.	.	.
8BB-/	.	.	16d\	.	16f\	.	8b-/	.	.	.	.	.	.	.	.	.	.	.	.	.	4B-/	.	4b-\	.	4dd\	.	4bb-\	.
.	.	.	16f\	.	16b-\	.	.	.	.	.	.	.	.	.	.	.	.	.	.	.	.	.	.	.	.	.	.	.
8D/J	.	.	16d\	.	16f\	.	8b-/J	.	.	.	.	.	.	.	.	.	.	.	.	.	.	.	.	.	.	.	.	.
.	.	.	16f\JJ)	.	16b-\JJ	.	.	.	.	.	.	.	.	.	.	.	.	.	.	.	.	.	.	.	.	.	.	.
!LO:LB:g=original	!	!	!	!	!	!	!	!	!	!	!	!	!	!	!	!	!	!	!	!	!	!	!	!	!	!	!LO:LB:g=original	!
8BB-/L	8_ 5_ 3_	.	(16d\LL	.	16f\LL	.	16bb-\LL	.	4B-\	san-	.	4B-\	san-	.	4f\	san-	.	4dd\	san-	.	4B-/	.	4b-\	.	4dd\	.	4bb-\	.
.	.	.	16f\	.	16b-\	.	16aa\	.	.	.	.	.	.	.	.	.	.	.	.	.	.	.	.	.	.	.	.	.
8D/	.	.	16d\	.	16f\	.	16gg\	.	.	.	.	.	.	.	.	.	.	.	.	.	.	.	.	.	.	.	.	.
.	.	.	16f\	.	16b-\	.	16ff\JJ	.	.	.	.	.	.	.	.	.	.	.	.	.	.	.	.	.	.	.	.	.
8BB-/	.	.	16d\	.	16f\	.	16ee-\LL	.	4B-\	-guis	.	4B-\	-guis	.	4f\	-guis	.	4dd\	-guis	.	4r	.	4r	.	4r	.	4r	.
.	.	.	16f\	.	16b-\	.	16dd\	.	.	.	.	.	.	.	.	.	.	.	.	.	.	.	.	.	.	.	.	.
8D/J	.	.	16d\	.	16f\	.	16cc\	.	.	.	.	.	.	.	.	.	.	.	.	.	.	.	.	.	.	.	.	.
.	.	.	16f\JJ)	.	16b-\JJ	.	16b-\JJ	.	.	.	.	.	.	.	.	.	.	.	.	.	.	.	.	.	.	.	.	.
=46	=46	=46	=46	=46	=46	=46	=46	=46	=46	=46	=46	=46	=46	=46	=46	=46	=46	=46	=46	=46	=46	=46	=46	=46	=46	=46	=46	=46
!	!	!	!	!	!	!	!LO:TX:a:t=P:problem:mixed beam	!	!	!	!	!	!	!	!	!	!	!	!	!	!	!	!	!	!	!	!	!
8C\L	6_ 4_ 3_	.	(16c\LL	.	16f/LL	.	8ee-\L	.	2A\	Chri-	.	2c\	Chri-	.	2f\	Chri-	.	2ee-\	Chri-	.	4f/	.	4cc\	.	4ff\	.	4aa\	.
.	.	.	16f\	.	16a/	.	.	.	.	.	.	.	.	.	.	.	.	.	.	.	.	.	.	.	.	.	.	.
8F\	.	.	16c\	.	16f/	.	8f/	.	.	.	.	.	.	.	.	.	.	.	.	.	.	.	.	.	.	.	.	.
.	.	.	16f\	.	16a/	.	.	.	.	.	.	.	.	.	.	.	.	.	.	.	.	.	.	.	.	.	.	.
8C\	.	.	16c\	.	16f/	.	8a/	.	.	.	.	.	.	.	.	.	.	.	.	.	4F/	.	4f/	.	4ff\	.	4aa\	.
.	.	.	16f\	.	16a/	.	.	.	.	.	.	.	.	.	.	.	.	.	.	.	.	.	.	.	.	.	.	.
8F\J	.	.	16c\	.	16f/	.	8cc/J	.	.	.	.	.	.	.	.	.	.	.	.	.	.	.	.	.	.	.	.	.
.	.	.	16f\JJ)	.	16a/JJ	.	.	.	.	.	.	.	.	.	.	.	.	.	.	.	.	.	.	.	.	.	.	.
!LO:TX:a:t=P:problem:mixed beam	!	!	!	!	!	!	!	!	!	!	!	!	!	!	!	!	!	!	!	!	!	!	!	!	!	!	!	!
8AA/L	.	.	(16c\LL	.	16f/LL	.	16ee-\LL	.	2F\	-ſti	.	2A\	-ſti	.	2f\	-sti	.	2cc\	-sti	.	4F/	.	4f/	.	4ff\	.	4aa\	.
.	.	.	16f\	.	16a/	.	16gg\	.	.	.	.	.	.	.	.	.	.	.	.	.	.	.	.	.	.	.	.	.
8F\	.	.	16c\	.	16f/	.	16ff\	.	.	.	.	.	.	.	.	.	.	.	.	.	.	.	.	.	.	.	.	.
.	.	.	16f\	.	16a/	.	16ee-\JJ	.	.	.	.	.	.	.	.	.	.	.	.	.	.	.	.	.	.	.	.	.
8AA/	.	.	16c\	.	16f/	.	8dd\L	.	.	.	.	.	.	.	.	.	.	.	.	.	4r	.	4r	.	4r	.	4r	.
.	.	.	16f\	.	16a/	.	.	.	.	.	.	.	.	.	.	.	.	.	.	.	.	.	.	.	.	.	.	.
8F\J	.	.	16c\	.	16f/	.	8cc\J	.	.	.	.	.	.	.	.	.	.	.	.	.	.	.	.	.	.	.	.	.
.	X X X	.	16f\JJ)	.	16a/JJ	.	.	.	.	.	.	.	.	.	.	.	.	.	.	.	.	.	.	.	.	.	.	.
!	!	!	!	!	!	!	!	!	!	!	!	!	!	!	!LO:LB:g=original	!	!	!	!	!	!	!	!	!	!	!	!	!
=47	=47	=47	=47	=47	=47	=47	=47	=47	=47	=47	=47	=47	=47	=47	=47	=47	=47	=47	=47	=47	=47	=47	=47	=47	=47	=47	=47	=47
8BB-/L	5_ 3_	.	(16B-\LL	.	16f/LL	.	8b-\L	.	2B-\	Et	.	2d\	et	.	2f\	Et	.	2ff\	et	.	4B-/	.	4b-\	.	4b-\	.	4bb-\	.
.	.	.	16f\	.	16b-/	.	.	.	.	.	.	.	.	.	.	.	.	.	.	.	.	.	.	.	.	.	.	.
8D/	.	.	16B-\	.	16f/	.	8bb-\	.	.	.	.	.	.	.	.	.	.	.	.	.	.	.	.	.	.	.	.	.
.	.	.	16f\	.	16b-/	.	.	.	.	.	.	.	.	.	.	.	.	.	.	.	.	.	.	.	.	.	.	.
8BB-/	.	.	16B-\	.	16f/	.	8b-\	.	.	.	.	.	.	.	.	.	.	.	.	.	4B-/	.	4b-\	.	4dd\	.	4bb-\	.
.	.	.	16f\	.	16b-/	.	.	.	.	.	.	.	.	.	.	.	.	.	.	.	.	.	.	.	.	.	.	.
8D/J	.	.	16B-\	.	16f/	.	8b-\J	.	.	.	.	.	.	.	.	.	.	.	.	.	.	.	.	.	.	.	.	.
.	.	.	16f\JJ)	.	16b-/JJ	.	.	.	.	.	.	.	.	.	.	.	.	.	.	.	.	.	.	.	.	.	.	.
!	!	!	!	!	!	!	!LO:LB:g=original	!	!	!	!	!	!	!	!	!	!	!	!	!	!	!	!	!	!	!	!	!
8BB-/L	.	.	(16d\LL	.	16f/LL	.	16bb-\LL	.	4B-\	san-	.	4B-\	san-	.	4f\	san-	.	4dd\	san-	.	4B-/	.	4b-\	.	4dd\	.	4bb-\	.
.	.	.	16f\	.	16b-/	.	16aa\	.	.	.	.	.	.	.	.	.	.	.	.	.	.	.	.	.	.	.	.	.
8D/	.	.	16d\	.	16f/	.	16gg\	.	.	.	.	.	.	.	.	.	.	.	.	.	.	.	.	.	.	.	.	.
.	.	.	16f\	.	16b-/	.	16ff\JJ	.	.	.	.	.	.	.	.	.	.	.	.	.	.	.	.	.	.	.	.	.
8BB-/	.	.	16d\	.	16f/	.	16ee-\LL	.	4B-\	-guis	.	4B-\	-guis	.	4f\	-guis	.	4dd\	-guis	.	4r	.	4r	.	4r	.	4r	.
.	.	.	16f\	.	16b-/	.	16dd\	.	.	.	.	.	.	.	.	.	.	.	.	.	.	.	.	.	.	.	.	.
8D/J	.	.	16d\	.	16f/	.	16cc\	.	.	.	.	.	.	.	.	.	.	.	.	.	.	.	.	.	.	.	.	.
.	.	.	16f\JJ)	.	16b-/JJ	.	16b-\JJ	.	.	.	.	.	.	.	.	.	.	.	.	.	.	.	.	.	.	.	.	.
!	!	!	!LO:LB:g=original	!	!	!	!	!	!LO:LB:g=original	!	!	!	!	!	!	!	!	!	!	!	!LO:LB:g=original	!	!LO:LB:g=original	!	!	!	!	!
=48	=48	=48	=48	=48	=48	=48	=48	=48	=48	=48	=48	=48	=48	=48	=48	=48	=48	=48	=48	=48	=48	=48	=48	=48	=48	=48	=48	=48
!	!	!	!	!	!	!	!LO:TX:a:t=P:problem:mixed beam	!	!	!	!	!	!	!	!	!	!	!	!	!	!LO:TX:a:t=P:problem:rkp zniszczony	!	!	!	!	!	!	!
8C\L	4_ 3_	.	(16A\LL	.	16f/LL	.	8ee-\L	.	2A\	Chri-	.	2c\	Chri-	.	2f\	Chri-	.	2ee-\	Chri-	.	4ryy	.	4cc\	f	4ff\	.	4aa\	.
.	.	.	16f\	.	16a/	.	.	.	.	.	.	.	.	.	.	.	.	.	.	.	.	.	.	.	.	.	.	.
8F\	.	.	16A\	.	16f/	.	8f/	.	.	.	.	.	.	.	.	.	.	.	.	.	.	.	.	.	.	.	.	.
.	.	.	16f\	.	16a/	.	.	.	.	.	.	.	.	.	.	.	.	.	.	.	.	.	.	.	.	.	.	.
8C\	.	.	16A\	.	16f/	.	8a/	.	.	.	.	.	.	.	.	.	.	.	.	.	4ryy	.	4f/	.	4ff\	.	4aa\	.
.	.	.	16f\	.	16a/	.	.	.	.	.	.	.	.	.	.	.	.	.	.	.	.	.	.	.	.	.	.	.
8F\J	.	.	16A\	.	16f/	.	8cc/J	.	.	.	.	.	.	.	.	.	.	.	.	.	.	.	.	.	.	.	.	.
.	.	.	16f\JJ)	.	16a/JJ	.	.	.	.	.	.	.	.	.	.	.	.	.	.	.	.	.	.	.	.	.	.	.
!LO:TX:a:t=P:problem:mixed beam	!	!	!	!	!	!	!	!	!	!	!	!	!	!	!	!	!	!	!	!	!	!	!	!	!	!	!	!
8AA/L	.	.	(16c\LL	.	16f/LL	.	16ee-\LL	.	2F\	-sti	.	2A\	-ſti	.	2f\	-ſti	.	2cc\	-sti	.	4F/	.	4f/	.	4ff\	.	4aa\	.
.	.	.	16f\	.	16a/	.	16gg\	.	.	.	.	.	.	.	.	.	.	.	.	.	.	.	.	.	.	.	.	.
8F\	.	.	16c\	.	16f/	.	16ff\	.	.	.	.	.	.	.	.	.	.	.	.	.	.	.	.	.	.	.	.	.
.	.	.	16f\	.	16a/	.	16ee-\JJ	.	.	.	.	.	.	.	.	.	.	.	.	.	.	.	.	.	.	.	.	.
8AA/	.	.	16c\	.	16f/	.	8dd\L	.	.	.	.	.	.	.	.	.	.	.	.	.	4r	.	4r	.	4r	.	4r	.
.	.	.	16f\	.	16a/	.	.	.	.	.	.	.	.	.	.	.	.	.	.	.	.	.	.	.	.	.	.	.
8F\J	.	.	16c\	.	16f/	.	8cc\J	.	.	.	.	.	.	.	.	.	.	.	.	.	.	.	.	.	.	.	.	.
.	X X	.	16f\JJ)	.	16a/JJ	.	.	.	.	.	.	.	.	.	.	.	.	.	.	.	.	.	.	.	.	.	.	.
*	*	*	*Xtremolo	*	*	*	*	*	*	*	*	*	*	*	*	*	*	*	*	*	*	*	*	*	*	*	*	*
!	!	!	!	!	!	!	!	!	!	!	!	!	!	!	!	!	!	!	!	!	!	!	!	!	!LO:LB:g=original	!	!	!
=49	=49	=49	=49	=49	=49	=49	=49	=49	=49	=49	=49	=49	=49	=49	=49	=49	=49	=49	=49	=49	=49	=49	=49	=49	=49	=49	=49	=49
!LO:TX:a:t=P:problem:mixed beam	!	!	!LO:TX:a:t=1.	!	!	!	!	!	!LO:TX:a:t=8.	!	!	!LO:TX:a:t=8.	!	!	!LO:TX:a:t=8.	!	!	!LO:TX:a:t=8.	!	!	!LO:TX:a:t=4.	!	!LO:TX:a:t=4.	!	!LO:TX:a:t=4.	!	!LO:TX:a:t=4.	!
!LO:TX:b:t=Violon	!	!	!	!	!	!	!	!	!	!	!	!	!	!	!	!	!	!	!	!	!	!	!	!	!	!	!	!
8BB-/L	.	pp	1r	.	2r	.	2r	.	00r	.	.	00r	.	.	00r	.	.	00r	.	.	00r	.	00r	.	00r	.	00r	.
8B-\	.	.	.	.	.	.	.	.	.	.	.	.	.	.	.	.	.	.	.	.	.	.	.	.	.	.	.	.
8B-\	.	.	.	.	.	.	.	.	.	.	.	.	.	.	.	.	.	.	.	.	.	.	.	.	.	.	.	.
8B-\J	.	.	.	.	.	.	.	.	.	.	.	.	.	.	.	.	.	.	.	.	.	.	.	.	.	.	.	.
!LO:TX:a:t=P:problem:cztery kropki nad nutą	!	!	!	!	!	!	!	!	!	!	!	!	!	!	!	!	!	!	!	!	!	!	!	!	!	!	!	!
8B-'\L	.	.	.	.	4r	.	4r	.	.	.	.	.	.	.	.	.	.	.	.	.	.	.	.	.	.	.	.	.
8B-'\	.	.	.	.	.	pp	.	pp	.	.	.	.	.	.	.	.	.	.	.	.	.	.	.	.	.	.	.	.
8B-'\	.	.	.	.	4dd\	.	4ff\	.	.	.	.	.	.	.	.	.	.	.	.	.	.	.	.	.	.	.	.	.
!	!	!	!	!	!	!	!LO:TX:b:t=Verta b	!	!	!	!	!	!	!	!	!	!	!	!	!	!	!	!	!	!	!	!	!
8B-'\J	.	.	.	.	.	.	.	.	.	.	.	.	.	.	.	.	.	.	.	.	.	.	.	.	.	.	.	.
!	!	!	!	!	!LO:LB:g=original	!	!LO:PB:g=original	!	!	!	!	!	!	!	!	!	!	!	!	!	!	!	!	!	!	!	!	!
=50	=50	=50	=50	=50	=50	=50	=50	=50	=50	=50	=50	=50	=50	=50	=50	=50	=50	=50	=50	=50	=50	=50	=50	=50	=50	=50	=50	=50
!LO:TX:a:t=P:problem:cztery kropki nad nutą	!	!	!	!LO:DY:rj:t=p	!	!	!	!LO:DY:b:rj:t=pp	!	!	!	!	!	!	!	!	!	!	!	!	!	!	!	!	!	!	!	!
8B-'\L	.	.	4B-/	p	(4dd\	.	(4ff#X\	pp	.	.	.	.	.	.	.	.	.	.	.	.	.	.	.	.	.	.	.	.
8B-'\	.	.	.	.	.	.	.	.	.	.	.	.	.	.	.	.	.	.	.	.	.	.	.	.	.	.	.	.
8B-'\	.	.	4r	.	4ee-\)	.	4gg\)	.	.	.	.	.	.	.	.	.	.	.	.	.	.	.	.	.	.	.	.	.
8B-'\J	.	.	.	.	.	.	.	.	.	.	.	.	.	.	.	.	.	.	.	.	.	.	.	.	.	.	.	.
!LO:TX:a:t=P:problem:cztery kropki nad nutą	!	!	!	!	!	!	!	!	!	!	!	!	!	!	!	!	!	!	!	!	!	!	!	!	!	!	!	!
8B-'\L	.	.	4B-/	.	4dd\	.	4ffn\	.	.	.	.	.	.	.	.	.	.	.	.	.	.	.	.	.	.	.	.	.
8B-'\	.	.	.	.	.	.	.	.	.	.	.	.	.	.	.	.	.	.	.	.	.	.	.	.	.	.	.	.
8B-'\	.	.	4r	.	4cc\	.	4ee-\	.	.	.	.	.	.	.	.	.	.	.	.	.	.	.	.	.	.	.	.	.
8B-'\J	.	.	.	.	.	.	.	.	.	.	.	.	.	.	.	.	.	.	.	.	.	.	.	.	.	.	.	.
=51	=51	=51	=51	=51	=51	=51	=51	=51	=51	=51	=51	=51	=51	=51	=51	=51	=51	=51	=51	=51	=51	=51	=51	=51	=51	=51	=51	=51
!LO:TX:a:t=P:problem:cztery kropki nad nutą	!	!	!	!	!	!	!	!	!	!	!	!	!	!	!	!	!	!	!	!	!	!	!	!	!	!	!	!
8B-'\L	.	.	4B-/	.	4b-\	.	4dd\	.	.	.	.	.	.	.	.	.	.	.	.	.	.	.	.	.	.	.	.	.
8B-'\	.	.	.	.	.	.	.	.	.	.	.	.	.	.	.	.	.	.	.	.	.	.	.	.	.	.	.	.
8B-'\	.	.	4r	.	4r	.	4r	.	.	.	.	.	.	.	.	.	.	.	.	.	.	.	.	.	.	.	.	.
8B-'\J	.	.	.	.	.	.	.	.	.	.	.	.	.	.	.	.	.	.	.	.	.	.	.	.	.	.	.	.
!LO:TX:a:t=P:problem:cztery kropki nad nutą	!	!	!	!	!	!	!	!	!	!	!	!	!	!	!	!	!	!	!	!	!	!	!	!	!	!	!	!
8B-'\L	.	.	2r	.	4r	.	4r	.	.	.	.	.	.	.	.	.	.	.	.	.	.	.	.	.	.	.	.	.
8B-'\	.	.	.	.	.	.	.	.	.	.	.	.	.	.	.	.	.	.	.	.	.	.	.	.	.	.	.	.
8B-'\	.	.	.	.	4dd\	.	4ff\	.	.	.	.	.	.	.	.	.	.	.	.	.	.	.	.	.	.	.	.	.
8B-'\J	.	.	.	.	.	.	.	.	.	.	.	.	.	.	.	.	.	.	.	.	.	.	.	.	.	.	.	.
!LO:LB:g=original	!	!	!	!	!	!	!	!	!	!	!	!	!	!	!	!	!	!	!	!	!	!	!	!	!	!	!	!
=52	=52	=52	=52	=52	=52	=52	=52	=52	=52	=52	=52	=52	=52	=52	=52	=52	=52	=52	=52	=52	=52	=52	=52	=52	=52	=52	=52	=52
!LO:TX:a:t=P:problem:cztery kropki nad nutą	!	!	!	!	!	!	!	!	!	!	!	!	!	!	!	!	!	!	!	!	!	!	!	!	!	!	!	!
8B-'\L	.	.	4B-/	.	4ee-\	.	4gg\	.	.	.	.	.	.	.	.	.	.	.	.	.	.	.	.	.	.	.	.	.
8B-'\	.	.	.	.	.	.	.	.	.	.	.	.	.	.	.	.	.	.	.	.	.	.	.	.	.	.	.	.
8B-'\	.	.	4r	.	4ee-\	.	4gg\	.	.	.	.	.	.	.	.	.	.	.	.	.	.	.	.	.	.	.	.	.
8B-'\J	.	.	.	.	.	.	.	.	.	.	.	.	.	.	.	.	.	.	.	.	.	.	.	.	.	.	.	.
!LO:TX:a:t=P:problem:cztery kropki nad nutą	!	!	!	!	!	!	!	!	!	!	!	!	!	!	!	!	!	!	!	!	!	!	!	!	!	!	!	!
8B-'\L	.	.	4c\	.	4ee-\	.	4aa\	.	.	.	.	.	.	.	.	.	.	.	.	.	.	.	.	.	.	.	.	.
8B-'\	.	.	.	.	.	.	.	.	.	.	.	.	.	.	.	.	.	.	.	.	.	.	.	.	.	.	.	.
8B-'\	.	.	4c\	.	4ee-\	.	4aa\	.	.	.	.	.	.	.	.	.	.	.	.	.	.	.	.	.	.	.	.	.
8B-'\J	.	.	.	.	.	.	.	.	.	.	.	.	.	.	.	.	.	.	.	.	.	.	.	.	.	.	.	.
=53	=53	=53	=53	=53	=53	=53	=53	=53	=53	=53	=53	=53	=53	=53	=53	=53	=53	=53	=53	=53	=53	=53	=53	=53	=53	=53	=53	=53
*	*	*	*	*	*	*	*	*	*	*	*	*	*	*	*	*	*	*	*	*	*tremolo	*	*	*	*	*	*	*
!LO:TX:a:t=P:problem:cztery kropki nad nutą	!	!	!	!LO:DY:rj:t=p	!	!	!	!	!	!	!	!	!	!	!	!	!	!	!	!	!LO:TX:b:t=P:problem:cztery kropki pod nutą	!LO:DY:a:t=ppp&colon;	!	!LO:DY:a:t=ppp.	!	!	!LO:TX:a:t=dolce	!
8B-'\L	.	.	8B-'/L	pp	4dd\	.	4bb-\	.	00r	.	.	00r	.	.	00r	.	.	00r	.	.	8B-'/L	ppp	8b-\L	ppp	2r	.	2r	.
8B-'\	.	.	8B-'/	.	.	.	.	.	.	.	.	.	.	.	.	.	.	.	.	.	8B-'/	.	8b-\	.	.	.	.	.
8B-'\	.	.	8B-'/	.	4r	.	4r	.	.	.	.	.	.	.	.	.	.	.	.	.	8B-'/	.	8b-\	.	.	.	.	.
8B-'\J	.	.	8B-'/J	.	.	.	.	.	.	.	.	.	.	.	.	.	.	.	.	.	8B-'/J	.	8b-\J	.	.	.	.	.
*	*	*	*tremolo	*	*	*	*	*	*	*	*	*	*	*	*	*	*	*	*	*	*	*	*tremolo	*	*	*	*	*
!LO:TX:a:t=P:problem:cztery kropki nad nutą	!	!	!LO:TX:b:t=P:problem:cztery kropki pod nutą	!	!	!	!	!	!	!	!	!	!	!	!	!	!	!	!	!	!LO:TX:b:t=P:problem:cztery kropki pod nutą	!	!LO:TX:a:t=P:problem:cztery kropki nad nutą	!	!LO:TX:a:t=dolce	!	!	!
8B-'\L	.	.	8B-'/L	.	4r	.	4r	.	.	.	.	.	.	.	.	.	.	.	.	.	8B-'/L	.	8b-'\L	.	4r	p	4r	.
!	!	!	!	!	!	!	!	!	!	!	!	!	!	!	!	!	!	!	!	!	!	!	!	!	!	!	!	!LO:DY:t=p
8B-'\	.	.	8B-'/	.	.	.	.	.	.	.	.	.	.	.	.	.	.	.	.	.	8B-'/	.	8b-'\	.	.	.	.	p
8B-'\	.	.	8B-'/	.	4d/	.	4f/	.	.	.	.	.	.	.	.	.	.	.	.	.	8B-'/	.	8b-'\	.	4dd\	.	4ff\	.
8B-'\J	.	.	8B-'/J	.	.	.	.	.	.	.	.	.	.	.	.	.	.	.	.	.	8B-'/J	.	8b-'\J	.	.	.	.	.
=54	=54	=54	=54	=54	=54	=54	=54	=54	=54	=54	=54	=54	=54	=54	=54	=54	=54	=54	=54	=54	=54	=54	=54	=54	=54	=54	=54	=54
!LO:TX:b:t=P:problem:cztery kropki pod nutą	!	!	!LO:TX:b:t=P:problem:cztery kropki pod nutą	!	!	!	!	!	!	!	!	!	!	!	!	!	!	!	!	!	!LO:TX:b:t=P:problem:cztery kropki pod nutą	!LO:DY:a	!LO:TX:a:t=P:problem:cztery kropki nad nutą	!	!	!	!	!
8BB-'/L	.	.	8B-'/L	.	(4d/	.	(4f#X/	.	.	.	.	.	.	.	.	.	.	.	.	.	8B-'/L	.	8b-'\L	.	(4dd\	.	(4ff#X\	.
8BB-'/	.	.	8B-'/	.	.	.	.	.	.	.	.	.	.	.	.	.	.	.	.	.	8B-'/	.	8b-'\	.	.	.	.	.
8BB-'/	.	.	8B-'/	.	4e-/)	.	4g/)	.	.	.	.	.	.	.	.	.	.	.	.	.	8B-'/	.	8b-'\	.	4ee-\)	.	4gg\)	.
8BB-'/J	.	.	8B-'/J	.	.	.	.	.	.	.	.	.	.	.	.	.	.	.	.	.	8B-'/J	.	8b-'\J	.	.	.	.	.
!	!	!	!LO:TX:b:t=P:problem:cztery kropki pod nutą	!	!	!	!LO:TX:a:t=P:problem:kasownik dopisany ołówkiem	!	!	!	!	!	!	!	!	!	!	!	!	!	!	!	!	!	!	!	!	!
!LO:TX:b:t=P:problem:cztery kropki pod nutą	!	!	!	!	!	!	!LO:SIC:s=4fn:v	!	!	!	!	!	!	!	!	!	!	!	!	!	!LO:TX:b:t=P:problem:cztery kropki pod nutą	!	!LO:TX:a:t=P:problem:cztery kropki nad nutą	!	!	!	!	!
8BB-'/L	.	.	8B-'/L	.	4d/	.	4f#/	.	.	.	.	.	.	.	.	.	.	.	.	.	8B-'/L	.	8b-'\L	.	4dd\	.	4ff\	.
8BB-'/	.	.	8B-'/	.	.	.	.	.	.	.	.	.	.	.	.	.	.	.	.	.	8B-'/	.	8b-'\	.	.	.	.	.
8BB-'/	.	.	8B-'/	.	4c/	.	4e-/	.	.	.	.	.	.	.	.	.	.	.	.	.	8B-'/	.	8b-'\	.	4cc\	.	4ee-\	.
8BB-'/J	.	.	8B-'/J	.	.	.	.	.	.	.	.	.	.	.	.	.	.	.	.	.	8B-'/J	.	8b-'\J	.	.	.	.	.
!	!	!	!	!	!	!	!	!	!	!	!	!	!	!	!	!	!	!	!	!	!	!	!	!	!	!	!LO:LB:g=original	!
=55	=55	=55	=55	=55	=55	=55	=55	=55	=55	=55	=55	=55	=55	=55	=55	=55	=55	=55	=55	=55	=55	=55	=55	=55	=55	=55	=55	=55
!	!	!	!LO:TX:b:t=P:problem:cztery kropki pod nutą	!	!	!	!	!	!	!	!	!	!	!	!	!	!	!	!	!	!LO:TX:b:t=P:problem:cztery kropki pod nutą	!	!LO:TX:a:t=P:problem:cztery kropki nad nutą	!	!	!	!	!
8BB-/L	.	.	8B-'/L	.	4B-/	.	4d/	.	.	.	.	.	.	.	.	.	.	.	.	.	8B-'/L	.	8b-'\L	.	4b-\	.	4dd\	.
8BB-/	.	.	8B-'/	.	.	.	.	.	.	.	.	.	.	.	.	.	.	.	.	.	8B-'/	.	8b-'\	.	.	.	.	.
8BB-/	.	.	8B-'/	.	4r	.	4r	.	.	.	.	.	.	.	.	.	.	.	.	.	8B-'/	.	8b-'\	.	4r	.	4r	.
8BB-/J	.	.	8B-'/J	.	.	.	.	.	.	.	.	.	.	.	.	.	.	.	.	.	8B-'/J	.	8b-'\J	.	.	.	.	.
!LO:TX:b:t=P:problem:cztery kropki pod nutą	!	!	!LO:TX:b:t=P:problem:cztery kropki pod nutą	!	!	!	!LO:LB:g=original	!	!	!	!	!	!	!	!	!	!	!	!	!	!LO:TX:b:t=P:problem:cztery kropki pod nutą	!	!LO:TX:a:t=P:problem:cztery kropki nad nutą	!	!	!	!	!
8BB-'/L	.	.	8B-'/L	.	4r	.	4r	.	.	.	.	.	.	.	.	.	.	.	.	.	8B-'/L	.	8b-'\L	.	4r	.	4r	.
8BB-'/	.	.	8B-'/	.	.	.	.	.	.	.	.	.	.	.	.	.	.	.	.	.	8B-'/	.	8b-'\	.	.	.	.	.
8BB-'/	.	.	8B-'/	.	4d/	.	4f/	.	.	.	.	.	.	.	.	.	.	.	.	.	8B-'/	.	8b-'\	.	4dd\	.	4ff\	.
8BB-'/J	.	.	8B-'/J	.	.	.	.	.	.	.	.	.	.	.	.	.	.	.	.	.	8B-'/J	.	8b-'\J	.	.	.	.	.
=56	=56	=56	=56	=56	=56	=56	=56	=56	=56	=56	=56	=56	=56	=56	=56	=56	=56	=56	=56	=56	=56	=56	=56	=56	=56	=56	=56	=56
!LO:TX:b:t=P:problem:cztery kropki pod nutą	!	!	!LO:TX:b:t=P:problem:cztery kropki pod nutą	!	!	!	!	!	!	!	!	!	!	!	!	!	!	!	!	!	!LO:TX:b:t=P:problem:cztery kropki pod nutą	!	!LO:TX:a:t=P:problem:cztery kropki nad nutą	!	!	!	!	!
8BB-'/L	.	.	8B-'/L	.	4e-/	.	4g/	.	.	.	.	.	.	.	.	.	.	.	.	.	8B-'/L	.	8b-'\L	.	4ee-\	.	4gg\	.
8BB-'/	.	.	8B-'/	.	.	.	.	.	.	.	.	.	.	.	.	.	.	.	.	.	8B-'/	.	8b-'\	.	.	.	.	.
8BB-'/	.	.	8B-'/	.	4e-/	.	4g/	.	.	.	.	.	.	.	.	.	.	.	.	.	8B-'/	.	8b-'\	.	4ee-\	.	4gg\	.
8BB-'/J	.	.	8B-'/J	.	.	.	.	.	.	.	.	.	.	.	.	.	.	.	.	.	8B-'/J	.	8b-'\J	.	.	.	.	.
!LO:TX:b:t=P:problem:cztery kropki pod nutą	!	!	!LO:TX:b:t=P:problem:cztery kropki pod nutą	!	!	!	!	!	!	!	!	!	!	!	!	!	!	!	!	!	!LO:TX:b:t=P:problem:cztery kropki pod nutą	!	!LO:TX:a:t=P:problem:cztery kropki nad nutą	!	!	!	!	!
8BB-'/L	.	.	8B-'/L	.	4e-/	.	4a/	.	.	.	.	.	.	.	.	.	.	.	.	.	8B-'/L	.	8b-'\L	.	4cc\	.	4aa\	.
8BB-'/	.	.	8B-'/	.	.	.	.	.	.	.	.	.	.	.	.	.	.	.	.	.	8B-'/	.	8b-'\	.	.	.	.	.
8BB-'/	.	.	8B-'/	.	4e-/	.	4a/	.	.	.	.	.	.	.	.	.	.	.	.	.	8B-'/	.	8b-'\	.	4cc\	.	4aa\	.
8BB-'/J	.	.	8B-'/J	.	.	.	.	.	.	.	.	.	.	.	.	.	.	.	.	.	8B-'/J	.	8b-'\J	.	.	f	.	.
!	!	!	!LO:LB:g=original	!	!LO:LB:g=original	!	!	!	!	!	!	!	!	!	!	!	!	!	!	!	!	!	!LO:LB:g=original	!	!	!	!	!
=57	=57	=57	=57	=57	=57	=57	=57	=57	=57	=57	=57	=57	=57	=57	=57	=57	=57	=57	=57	=57	=57	=57	=57	=57	=57	=57	=57	=57
!LO:TX:a:t=Tutti	!	!LO:DY:b:rj	!	!LO:DY:rj	!	!	!	!LO:DY:rj	!	!	!	!	!	!	!	!	!	!	!	!	!	!LO:DY:a:rj	!	!LO:DY:a:rj	!	!	!	!LO:DY:rj
8BB-/L	5_	f	(16B-\LL	f	(16d/LL	f	8b-\L	f	4B-\	Nam	.	4d\	Nam	.	4b-\	Nam	.	4ff\	Nam	.	4B-/	f	4b-\	f	4dd\	.	4bb-\	f
.	.	.	16d\	.	16f/	.	.	.	.	.	.	.	.	.	.	.	.	.	.	.	.	.	.	.	.	.	.	.
8D/	.	.	16B-\	.	16d/	.	16cc\L	.	.	.	.	.	.	.	.	.	.	.	.	.	.	.	.	.	.	.	.	.
.	.	.	16d\	.	16f/	.	16dd\JJ	.	.	.	.	.	.	.	.	.	.	.	.	.	.	.	.	.	.	.	.	.
!	!	!	!	!	!	!	!	!	!	!	!	!LO:LB:g=original	!	!	!	!	!	!	!	!	!	!	!	!	!	!	!	!
8BB-/	.	.	16B-\	.	16d/	.	16ee-\LL	.	8B-\	pa-	.	8d\	pa-	.	8b-\	pa-	.	8ff\	pa-	.	4B-/	.	4b-\	.	4dd\	.	4bb-\	.
.	.	.	16d\	.	16f/	.	16ff\	.	.	.	.	.	.	.	.	.	.	.	.	.	.	.	.	.	.	.	.	.
8D/J	.	.	16B-\	.	16d/	.	16gg\	.	8B-\	-nis	.	8d\	-nis	.	8b-\	-nis	.	8ff\	-nis	.	.	.	.	.	.	.	.	.
.	.	.	16d\JJ)	.	16f/JJ)	.	16aa\JJ	.	.	.	.	.	.	.	.	.	.	.	.	.	.	.	.	.	.	.	.	.
8BB-/L	.	.	(16B-\LL	.	16d/LL	.	8bb-\L	.	4F\	cor-	.	4d\	cor-	.	4b-\	cor-	.	4ff\	cor-	.	4B-/	.	4b-\	.	4dd\	.	4bb-\	.
.	.	.	16d\	.	16f/	.	.	.	.	.	.	.	.	.	.	.	.	.	.	.	.	.	.	.	.	.	.	.
8D/	.	.	16B-\	.	16d/	.	8ff\	.	.	.	.	.	.	.	.	.	.	.	.	.	.	.	.	.	.	.	.	.
.	.	.	16d\	.	16f/	.	.	.	.	.	.	.	.	.	.	.	.	.	.	.	.	.	.	.	.	.	.	.
8BB-/	.	.	16B-\	.	16d/	.	8dd\	.	4B-\	-pus	.	4d\	-pus	.	4b-\	-pus	.	4ff\	-pus	.	4r	.	4r	.	4r	.	4r	.
.	.	.	16d\	.	16f/	.	.	.	.	.	.	.	.	.	.	.	.	.	.	.	.	.	.	.	.	.	.	.
8D/J	.	.	16B-\	.	16d/	.	8ff\J	.	.	.	.	.	.	.	.	.	.	.	.	.	.	.	.	.	.	.	.	.
.	.	.	16d\JJ)	.	16f/JJ	.	.	.	.	.	.	.	.	.	.	.	.	.	.	.	.	.	.	.	.	.	.	.
!	!	!	!	!	!	!	!	!	!	!	!	!	!	!	!	!	!	!LO:LB:g=original	!	!	!	!	!	!	!	!	!	!
=58	=58	=58	=58	=58	=58	=58	=58	=58	=58	=58	=58	=58	=58	=58	=58	=58	=58	=58	=58	=58	=58	=58	=58	=58	=58	=58	=58	=58
8C\L	4_ 3_	.	(16A\LL	.	16e-/LL	.	8ee-\L	.	2F\	ve-	.	2c\	ve-	.	2a\	ve-	.	2ee-\	ve-	.	4f/	.	4cc\	.	4cc\	.	4aa\	.
.	.	.	16f\	.	16a/	.	.	.	.	.	.	.	.	.	.	.	.	.	.	.	.	.	.	.	.	.	.	.
8F\	.	.	16A\	.	16e-/	.	16ccc\L	.	.	.	.	.	.	.	.	.	.	.	.	.	.	.	.	.	.	.	.	.
.	.	.	16f\	.	16a/	.	16bb-\JJ	.	.	.	.	.	.	.	.	.	.	.	.	.	.	.	.	.	.	.	.	.
8C\	.	.	16A\	.	16e-/	.	16aa\LL	.	.	.	.	.	.	.	.	.	.	.	.	.	4r	.	4r	.	4cc\	.	4aa\	.
.	.	.	16f\	.	16a/	.	16bb-\	.	.	.	.	.	.	.	.	.	.	.	.	.	.	.	.	.	.	.	.	.
8F\J	.	.	16A\	.	16e-/	.	16aa\	.	.	.	.	.	.	.	.	.	.	.	.	.	.	.	.	.	.	.	.	.
.	.	.	16f\JJ)	.	16a/JJ	.	16gg\JJ	.	.	.	.	.	.	.	.	.	.	.	.	.	.	.	.	.	.	.	.	.
!LO:TX:a:t=P:problem:mixed beam	!	!	!	!	!	!	!	!	!	!	!	!	!	!	!	!	!	!	!	!	!	!	!	!	!	!	!	!
8AA/L	.	.	(16c\LL	.	16e-/LL	.	16ff\LL	.	4A\	-rum,	.	4c\	-rum	.	4a\	-rum	.	4ee-\	-rum,	.	4f/	.	4cc\	.	4ff\	.	4aa\	.
.	.	.	16e-X\	.	16a/	.	16gg\	.	.	.	.	.	.	.	.	.	.	.	.	.	.	.	.	.	.	.	.	.
8F\	.	.	16c\	.	16e-/	.	16ff\	.	.	.	.	.	.	.	.	.	.	.	.	.	.	.	.	.	.	.	.	.
.	.	.	16e-X\	.	16a/	.	16ee-\JJ	.	.	.	.	.	.	.	.	.	.	.	.	.	.	.	.	.	.	.	.	.
8AA/	.	.	16c\	.	16e-/	.	16dd\LL	.	4F\	pro	.	4c\	pro	.	4a\	pro	.	4ee-\	pro	.	4r	.	4r	.	4aa\	.	4ccc\	.
.	.	.	16e-X\	.	16a/	.	16ee-\	.	.	.	.	.	.	.	.	.	.	.	.	.	.	.	.	.	.	.	.	.
8F\J	.	.	16c\	.	16e-/	.	16dd\	.	.	.	.	.	.	.	.	.	.	.	.	.	.	.	.	.	.	.	.	.
.	.	.	16e-X\JJ)	.	16a/JJ	.	16cc\JJ	.	.	.	.	.	.	.	.	.	.	.	.	.	.	.	.	.	.	.	.	.
!	!	!	!	!	!	!	!LO:LB:g=original	!	!	!	!	!	!	!	!LO:LB:g=original	!	!	!	!	!	!LO:LB:g=original	!	!	!	!LO:LB:g=original	!	!	!
=59	=59	=59	=59	=59	=59	=59	=59	=59	=59	=59	=59	=59	=59	=59	=59	=59	=59	=59	=59	=59	=59	=59	=59	=59	=59	=59	=59	=59
!	!	!	!	!	!	!	!	!	!	!	!	!	!	!	!	!	!	!	!	!	!LO:TX:a:t=P:problem:rkp zniszczony	!	!	!	!	!	!	!
4BB-/	3_	.	4d 4B-\	.	8b-L 8d\	.	16b-/LL	.	4F\	cunč-	.	4B-\	cunc-	.	4b-\	cunc-	.	4dd\	cunc-	.	4ryy	.	4b-\	.	4dd\	.	4bb-\	.
.	.	.	.	.	.	.	16f/J	.	.	.	.	.	.	.	.	.	.	.	.	.	.	.	.	.	.	.	.	.
.	.	.	.	.	16dd\L	.	8dd/J	.	.	.	.	.	.	.	.	.	.	.	.	.	.	.	.	.	.	.	.	.
.	.	.	.	.	16b-\JJ	.	.	.	.	.	.	.	.	.	.	.	.	.	.	.	.	.	.	.	.	.	.	.
4B-\	.	.	4d 4B-\	.	8b-L 8d\	.	16b-\LL	.	4F\	-tis	.	4B-\	-tis	.	4b-\	-tis	.	4dd\	-tis	.	4ryy	.	4r	.	4r	.	4r	.
.	.	.	.	.	.	.	16ff\J	.	.	.	.	.	.	.	.	.	.	.	.	.	.	.	.	.	.	.	.	.
.	.	.	.	.	16dd\L	.	8dd\J	.	.	.	.	.	.	.	.	.	.	.	.	.	.	.	.	.	.	.	.	.
.	.	.	.	.	16b-\JJ	.	.	.	.	.	.	.	.	.	.	.	.	.	.	.	.	.	.	.	.	.	.	.
4BB-/	.	.	4d 4B-\	.	8b-L 8d\	.	16b-\LL	.	4F\	hoſ-	.	4d\	hoſ-	.	4b-\	hos-	.	4ff\	hoſ-	.	4B-/	.	4b-\	.	4dd\	.	4bb-\	.
.	.	.	.	.	.	.	16bb-\J	.	.	.	.	.	.	.	.	.	.	.	.	.	.	.	.	.	.	.	.	.
.	.	.	.	.	16dd\L	.	8ff\J	.	.	.	.	.	.	.	.	.	.	.	.	.	.	.	.	.	.	.	.	.
.	.	.	.	.	16b-\JJ	.	.	.	.	.	.	.	.	.	.	.	.	.	.	.	.	.	.	.	.	.	.	.
4BB-/	.	.	4d 4B-\	.	8d/L	.	16dd\LL	.	4D\	-ti-	.	4d\	-ti-	.	4b-\	-ti-	.	4ff\	-ti-	.	4r	.	4r	.	4r	.	4r	.
.	.	.	.	.	.	.	16ff\J	.	.	.	.	.	.	.	.	.	.	.	.	.	.	.	.	.	.	.	.	.
.	.	.	.	.	16f/L	.	8b-\J	.	.	.	.	.	.	.	.	.	.	.	.	.	.	.	.	.	.	.	.	.
.	.	.	.	.	16b-/JJ	.	.	.	.	.	.	.	.	.	.	.	.	.	.	.	.	.	.	.	.	.	.	.
!LO:LB:g=original	!	!	!	!	!	!	!	!	!LO:LB:g=original	!	!	!	!	!	!	!	!	!	!	!	!	!	!	!	!	!	!	!
=60	=60	=60	=60	=60	=60	=60	=60	=60	=60	=60	=60	=60	=60	=60	=60	=60	=60	=60	=60	=60	=60	=60	=60	=60	=60	=60	=60	=60
8F\L	5_	.	(16c\LL	.	16f/LL	.	16a/LL	.	4F\	-a	.	4c\	-a	.	4a\	-a	.	4ff\	-a	.	4f/	.	4cc\	.	4ff\	.	4aa\	.
.	.	.	16f\	.	16a/	.	16f/	.	.	.	.	.	.	.	.	.	.	.	.	.	.	.	.	.	.	.	.	.
8A\	.	.	16c\	.	16f/	.	16g/	.	.	.	.	.	.	.	.	.	.	.	.	.	.	.	.	.	.	.	.	.
.	.	.	16f\	.	16a/	.	16a/JJ	.	.	.	.	.	.	.	.	.	.	.	.	.	.	.	.	.	.	.	.	.
8F\	.	.	16c\	.	16f/	.	16b-\LL	.	4r	.	.	4r	.	.	4r	.	.	4r	.	.	4r	.	4r	.	4aa\	.	4ccc\	.
.	.	.	16f\	.	16a/	.	16cc\	.	.	.	.	.	.	.	.	.	.	.	.	.	.	.	.	.	.	.	.	.
8A\J	.	.	16c\	.	16f/	.	16dd\	.	.	.	.	.	.	.	.	.	.	.	.	.	.	.	.	.	.	.	.	.
.	.	.	16f\JJ)	.	16a/JJ	.	16een\JJ	.	.	.	.	.	.	.	.	.	.	.	.	.	.	.	.	.	.	.	.	.
8F\L	7_	.	(16c\LL	.	16f/LL	.	16ff\LL	.	2r	.	.	2r	.	.	2r	.	.	2r	.	.	4f/	.	4cc\	.	4ff\	.	4aa\	.
.	.	.	16f\	.	16a/	.	16gg\	.	.	.	.	.	.	.	.	.	.	.	.	.	.	.	.	.	.	.	.	.
8A\J	.	.	16c\	.	16f/	.	16ff\	.	.	.	.	.	.	.	.	.	.	.	.	.	.	.	.	.	.	.	.	.
.	.	.	16f\	.	16a/	.	16ee-X\JJ	.	.	.	.	.	.	.	.	.	.	.	.	.	.	.	.	.	.	.	.	.
4F\	X	.	16c\	.	16f/	.	8dd\L	.	.	.	.	.	.	.	.	.	.	.	.	.	4f/	.	4cc\	.	4aa\	.	4ccc\	.
.	.	.	16f\	.	16a/	.	.	.	.	.	.	.	.	.	.	.	.	.	.	.	.	.	.	.	.	.	.	.
.	.	.	16c\	.	16f/	.	8cc\J	.	.	.	.	.	.	.	.	.	.	.	.	.	.	.	.	.	.	.	.	.
.	.	.	16f\JJ)	.	16a/JJ	.	.	.	.	.	.	.	.	.	.	.	.	.	.	.	.	.	.	.	.	.	.	.
!	!	!	!	!	!	!	!	!	!	!	!	!LO:LB:g=original	!	!	!	!	!	!	!	!	!	!	!	!	!	!	!LO:LB:g=original	!
=61	=61	=61	=61	=61	=61	=61	=61	=61	=61	=61	=61	=61	=61	=61	=61	=61	=61	=61	=61	=61	=61	=61	=61	=61	=61	=61	=61	=61
!	!	!	!	!	!LO:TX:a:t=P:problem:takty 61-64 zapisane repetycją	!	!	!	!	!	!	!	!	!	!	!	!	!	!	!	!	!	!	!	!	!	!	!
8BB-\L	5_ 3_	.	(16f\LL	.	(16d/LLyy	f	8b-\L	.	4B-\	Nam	.	4d\	Nam	.	4b-\	Nam	.	4ff\	Nam	.	4B-/	.	4b-\	.	4dd\	.	4bb-\	.
.	.	.	16d\	.	16f/yy	.	.	.	.	.	.	.	.	.	.	.	.	.	.	.	.	.	.	.	.	.	.	.
8D\	.	.	16f\	.	16d/yy	.	16cc\L	.	.	.	.	.	.	.	.	.	.	.	.	.	.	.	.	.	.	.	.	.
.	.	.	16d\	.	16f/yy	.	16dd\JJ	.	.	.	.	.	.	.	.	.	.	.	.	.	.	.	.	.	.	.	.	.
8BB-\	.	.	16f\	.	16d/yy	.	16ee-\LL	.	8B-\	pa-	.	8d\	pa-	.	8b-\	pa-	.	8ff\	pa-	.	4B-/	.	4b-\	.	4dd\	.	4bb-\	.
.	.	.	16d\	.	16f/yy	.	16ff\	.	.	.	.	.	.	.	.	.	.	.	.	.	.	.	.	.	.	.	.	.
8D\J	.	.	16f\	.	16d/yy	.	16gg\	.	8B-\	-nis	.	8d\	-nis	.	8b-\	-nis	.	8ff\	-nis	.	.	.	.	.	.	.	.	.
.	.	.	16d\JJ)	.	16f/JJ)yy	.	16aa\JJ	.	.	.	.	.	.	.	.	.	.	.	.	.	.	.	.	.	.	.	.	.
8BB-\L	.	.	(16f\LL	.	16d/LLyy	.	8bb-\L	.	4F\	cor-	.	4d\	cor-	.	4b-\	cor-	.	4ff\	cor-	.	4B-/	.	4b-\	.	4dd\	.	4bb-\	.
.	.	.	16d\	.	16f/yy	.	.	.	.	.	.	.	.	.	.	.	.	.	.	.	.	.	.	.	.	.	.	.
8D\	.	.	16f\	.	16d/yy	.	8ff\	.	.	.	.	.	.	.	.	.	.	.	.	.	.	.	.	.	.	.	.	.
.	.	.	16d\	.	16f/yy	.	.	.	.	.	.	.	.	.	.	.	.	.	.	.	.	.	.	.	.	.	.	.
8BB-\	.	.	16f\	.	16d/yy	.	8dd\	.	4B-\	-pus	.	4d\	-pus	.	4b-\	-pus	.	4ff\	-pus	.	4r	.	4r	.	4r	.	4r	.
.	.	.	16d\	.	16f/yy	.	.	.	.	.	.	.	.	.	.	.	.	.	.	.	.	.	.	.	.	.	.	.
8D\J	.	.	16f\	.	16d/yy	.	8ff\J	.	.	.	.	.	.	.	.	.	.	.	.	.	.	.	.	.	.	.	.	.
.	.	.	16d\JJ)	.	16f/JJyy	.	.	.	.	.	.	.	.	.	.	.	.	.	.	.	.	.	.	.	.	.	.	.
!	!	!	!	!	!	!	!LO:LB:g=original	!	!	!	!	!	!	!	!	!	!	!	!	!	!	!	!LO:LB:g=original	!	!	!	!	!
=62	=62	=62	=62	=62	=62	=62	=62	=62	=62	=62	=62	=62	=62	=62	=62	=62	=62	=62	=62	=62	=62	=62	=62	=62	=62	=62	=62	=62
8C\L	4_ 3_	.	(16A\LL	.	16e-/LLyy	.	8ee-\L	.	2F\	ve-	.	2c\	ve-	.	2a\	ve-	.	2ee-\	ve-	.	4f/	.	4cc\	.	4cc\	.	4aa\	.
.	.	.	16f\	.	16a/yy	.	.	.	.	.	.	.	.	.	.	.	.	.	.	.	.	.	.	.	.	.	.	.
8F\	.	.	16A\	.	16e-/yy	.	16ccc\L	.	.	.	.	.	.	.	.	.	.	.	.	.	.	.	.	.	.	.	.	.
.	.	.	16f\	.	16a/yy	.	16bb-\JJ	.	.	.	.	.	.	.	.	.	.	.	.	.	.	.	.	.	.	.	.	.
8C\	.	.	16A\	.	16e-/yy	.	16aa\LL	.	.	.	.	.	.	.	.	.	.	.	.	.	4r	.	4r	.	4cc\	.	4aa\	.
.	.	.	16f\	.	16a/yy	.	16bb-\	.	.	.	.	.	.	.	.	.	.	.	.	.	.	.	.	.	.	.	.	.
8F\J	.	.	16A\	.	16e-/yy	.	16aa\	.	.	.	.	.	.	.	.	.	.	.	.	.	.	.	.	.	.	.	.	.
.	.	.	16f\JJ)	.	16a/JJyy	.	16gg\JJ	.	.	.	.	.	.	.	.	.	.	.	.	.	.	.	.	.	.	.	.	.
!LO:TX:a:t=P:problem:mixed beam	!	!	!	!	!	!	!	!	!	!	!	!	!	!	!	!	!	!	!	!	!	!	!	!	!	!	!	!
8AA/L	.	.	(16c\LL	.	16e-/LLyy	.	16ff\LL	.	4A\	-rum	.	4c\	-rum	.	4a\	-rum	.	4ee-\	-rum	.	4f/	.	4cc\	.	4ff\	.	4aa\	.
.	.	.	16e-X\	.	16a/yy	.	16gg\	.	.	.	.	.	.	.	.	.	.	.	.	.	.	.	.	.	.	.	.	.
8F\	.	.	16c\	.	16e-/yy	.	16ff\	.	.	.	.	.	.	.	.	.	.	.	.	.	.	.	.	.	.	.	.	.
.	.	.	16e-X\	.	16a/yy	.	16ee-\JJ	.	.	.	.	.	.	.	.	.	.	.	.	.	.	.	.	.	.	.	.	.
!	!	!	!	!	!	!	!	!	!	!	!	!	!	!	!	!	!	!LO:LB:g=original	!	!	!	!	!	!	!	!	!	!
8AA/	.	.	16c\	.	16e-/yy	.	16dd\LL	.	4F\	pro	.	4c\	pro	.	4a\	pro	.	4ee-\	pro	.	4r	.	4r	.	4aa\	.	4ccc\	.
.	.	.	16e-X\	.	16a/yy	.	16ee-\	.	.	.	.	.	.	.	.	.	.	.	.	.	.	.	.	.	.	.	.	.
8F\J	.	.	16c\	.	16e-/yy	.	16dd\	.	.	.	.	.	.	.	.	.	.	.	.	.	.	.	.	.	.	.	.	.
.	.	.	16e-X\JJ)	.	16a/JJyy	.	16cc\JJ	.	.	.	.	.	.	.	.	.	.	.	.	.	.	.	.	.	.	.	.	.
!	!	!	!LO:LB:g=original	!	!	!	!	!	!	!	!	!	!	!	!LO:LB:g=original	!	!	!	!	!	!	!	!	!	!	!	!	!
=63	=63	=63	=63	=63	=63	=63	=63	=63	=63	=63	=63	=63	=63	=63	=63	=63	=63	=63	=63	=63	=63	=63	=63	=63	=63	=63	=63	=63
!	!	!	!	!	!	!	!LO:TX:a:t=P:problem:mixed beam	!	!	!	!	!	!	!	!	!	!	!	!	!	!	!	!	!	!	!	!	!
4BB-/	5_	.	4d 4B-\	.	8b-Lyy 8d\yy	.	8b-\L	.	4F\	cunc-	.	4B-\	cunc-	.	4b-\	cunc-	.	4dd\	cunc-	.	4d/	.	4b-\	.	4dd\	.	4bb-\	.
.	.	.	.	.	16dd\Lyy	.	16f/L	.	.	.	.	.	.	.	.	.	.	.	.	.	.	.	.	.	.	.	.	.
.	.	.	.	.	16b-\JJyy	.	16dd/JJ	.	.	.	.	.	.	.	.	.	.	.	.	.	.	.	.	.	.	.	.	.
4B-\	.	.	4d 4B-\	.	8b-Lyy 8d\yy	.	8ff\L	.	4F\	-tis	.	4B-\	-tis	.	4b-\	-tis	.	4dd\	-tis	.	4r	.	4r	.	4r	.	4r	.
.	.	.	.	.	16dd\Lyy	.	8dd\J	.	.	.	.	.	.	.	.	.	.	.	.	.	.	.	.	.	.	.	.	.
.	.	.	.	.	16b-\JJyy	.	.	.	.	.	.	.	.	.	.	.	.	.	.	.	.	.	.	.	.	.	.	.
4BB-/	.	.	4d 4B-\	.	8b-Lyy 8d\yy	.	16b-\LL	.	4F\	hos-	.	4d\	hoſ-	.	4b-\	hoſ-	.	4ff\	hoſ-	.	4B-/	.	4b-\	.	4dd\	.	4bb-\	.
.	.	.	.	.	.	.	16bb-\J	.	.	.	.	.	.	.	.	.	.	.	.	.	.	.	.	.	.	.	.	.
.	.	.	.	.	16dd\Lyy	.	8ff\J	.	.	.	.	.	.	.	.	.	.	.	.	.	.	.	.	.	.	.	.	.
.	.	.	.	.	16b-\JJyy	.	.	.	.	.	.	.	.	.	.	.	.	.	.	.	.	.	.	.	.	.	.	.
4BB-/	.	.	4d 4B-\	.	8d/Lyy	.	16dd\LL	.	4D\	-ti-	.	4d\	-ti-	.	4b-\	-ti-	.	4ff\	-ti-	.	4r	.	4r	.	4r	.	4r	.
.	.	.	.	.	.	.	16ff\J	.	.	.	.	.	.	.	.	.	.	.	.	.	.	.	.	.	.	.	.	.
.	.	.	.	.	16f/Lyy	.	8b-\J	.	.	.	.	.	.	.	.	.	.	.	.	.	.	.	.	.	.	.	.	.
.	.	.	.	.	16b-/JJyy	.	.	.	.	.	.	.	.	.	.	.	.	.	.	.	.	.	.	.	.	.	.	.
!	!	!	!	!	!	!	!	!	!LO:LB:g=original	!	!	!	!	!	!	!	!	!	!	!	!	!	!	!	!	!	!	!
=64	=64	=64	=64	=64	=64	=64	=64	=64	=64	=64	=64	=64	=64	=64	=64	=64	=64	=64	=64	=64	=64	=64	=64	=64	=64	=64	=64	=64
8F\L	3_	.	(16c\LL	.	16f/LLyy	.	16a/LL	.	4F\	-a.	.	4c\	-a	.	4a\	-a	.	4ff\	-a,	.	4f/	.	4cc\	.	4ff\	.	4aa\	.
.	.	.	16f\	.	16a/yy	.	16f/	.	.	.	.	.	.	.	.	.	.	.	.	.	.	.	.	.	.	.	.	.
8A\	.	.	16c\	.	16f/yy	.	16g/	.	.	.	.	.	.	.	.	.	.	.	.	.	.	.	.	.	.	.	.	.
.	.	.	16f\	.	16a/yy	.	16a/JJ	.	.	.	.	.	.	.	.	.	.	.	.	.	.	.	.	.	.	.	.	.
8F\	.	.	16c\	.	16f/yy	.	16b-\LL	.	4r	.	.	4r	.	.	4r	.	.	4r	.	.	4r	.	4r	.	4aa\	.	4ccc\	.
.	.	.	16f\	.	16a/yy	.	16cc\	.	.	.	.	.	.	.	.	.	.	.	.	.	.	.	.	.	.	.	.	.
8A\J	.	.	16c\	.	16f/yy	.	16dd\	.	.	.	.	.	.	.	.	.	.	.	.	.	.	.	.	.	.	.	.	.
.	.	.	16f\JJ)	.	16a/JJyy	.	16een\JJ	.	.	.	.	.	.	.	.	.	.	.	.	.	.	.	.	.	.	.	.	.
8F\L	.	.	(16c\LL	.	16f/LLyy	.	16ff\LL	.	2r	.	.	2r	.	.	2r	.	.	2r	.	.	4f/	.	4cc\	.	4ff\	.	4aa\	.
.	.	.	16f\	.	16a/yy	.	16gg\	.	.	.	.	.	.	.	.	.	.	.	.	.	.	.	.	.	.	.	.	.
8A\J	.	.	16c\	.	16f/yy	.	16ff\	.	.	.	.	.	.	.	.	.	.	.	.	.	.	.	.	.	.	.	.	.
.	.	.	16f\	.	16a/yy	.	16ee-X\JJ	.	.	.	.	.	.	.	.	.	.	.	.	.	.	.	.	.	.	.	.	.
4F\	.	.	(16c\	.	16f/yy	.	8dd\L	.	.	.	.	.	.	.	.	.	.	.	.	.	4f/	.	4cc\	.	4aa\	.	4ccc\	.
.	.	.	16f\	.	16a/yy	.	.	.	.	.	.	.	.	.	.	.	.	.	.	.	.	.	.	.	.	.	.	.
.	.	.	16c\	.	16f/yy	.	8cc\J	.	.	.	.	.	.	.	.	.	.	.	.	.	.	.	.	.	.	.	.	.
!	!	!	!	!	!	!	!	!	!	!	!	!	!	!	!	!	!	!	!	!LO:DY:b	!	!	!	!	!	!	!	!
.	.	.	16f\JJ)	.	16a/JJyy	.	.	.	.	.	.	.	.	.	.	.	.	.	.	f	.	.	.	.	.	.	.	.
!LO:LB:g=original	!	!	!	!	!	!	!LO:LB:g=original	!	!	!	!	!LO:LB:g=original	!	!	!	!	!	!	!	!	!	!	!	!	!LO:LB:g=original	!	!	!
=65	=65	=65	=65	=65	=65	=65	=65	=65	=65	=65	=65	=65	=65	=65	=65	=65	=65	=65	=65	=65	=65	=65	=65	=65	=65	=65	=65	=65
!	!	!	!	!	!	!	!	!	!	!	!LO:DY:b:rj	!	!	!LO:DY:b:rj:t=f	!	!	!LO:DY:b:rj	!	!	!	!	!	!	!	!	!	!	!
8BB-/L	3_	.	(16d\LL	.	(16f/LL	.	4b-\	.	4B-\	Et	f	4B-\	Et	f	4f\	Et	f	4dd\	Et	.	4d/	.	4b-\	.	4dd\	.	4bb-\	.
.	.	.	16f\	.	16b-/	.	.	.	.	.	.	.	.	.	.	.	.	.	.	.	.	.	.	.	.	.	.	.
8D/	.	.	16d\	.	16f/	.	.	.	.	.	.	.	.	.	.	.	.	.	.	.	.	.	.	.	.	.	.	.
.	.	.	16f\	.	16b-/	.	.	.	.	.	.	.	.	.	.	.	.	.	.	.	.	.	.	.	.	.	.	.
8BB-/	.	.	16d\	.	16f/	.	4bb-\	.	4r	.	.	4r	.	.	4r	.	.	4r	.	.	4r	.	4r	.	4r	.	4r	.
.	.	.	16f\	.	16b-/	.	.	.	.	.	.	.	.	.	.	.	.	.	.	.	.	.	.	.	.	.	.	.
8D/J	.	.	16d\	.	16f/	.	.	.	.	.	.	.	.	.	.	.	.	.	.	.	.	.	.	.	.	.	.	.
.	.	.	16f\JJ)	.	16b-/JJ)	.	.	.	.	.	.	.	.	.	.	.	.	.	.	.	.	.	.	.	.	.	.	.
8BB-\L	.	.	(16d\LL	.	(16f/LL	.	16b-\LL	.	4B-\	san-	.	4d\	san-	.	4b-\	san-	.	4ff\	san-	.	2r	.	2r	.	2r	.	2r	.
.	.	.	16f\	.	16b-/	.	16cc\	.	.	.	.	.	.	.	.	.	.	.	.	.	.	.	.	.	.	.	.	.
8D\	.	.	16d\	.	16f/	.	16dd\	.	.	.	.	.	.	.	.	.	.	.	.	.	.	.	.	.	.	.	.	.
.	.	.	16f\	.	16b-/	.	16ee-\JJ	.	.	.	.	.	.	.	.	.	.	.	.	.	.	.	.	.	.	.	.	.
8BB-\	.	.	16d\	.	16f/	.	16ff\LL	.	4B-\	-guis	.	4d\	-guis	.	4b-\	-guis	.	4ff\	-guis	.	.	.	.	.	.	.	.	.
.	.	.	16f\	.	16b-/	.	16gg\	.	.	.	.	.	.	.	.	.	.	.	.	.	.	.	.	.	.	.	.	.
8D\J	.	.	16d\	.	16f/	.	16aa\	.	.	.	.	.	.	.	.	.	.	.	.	.	.	.	.	.	.	.	.	.
.	.	.	16f\JJ)	.	16b-/JJ)	.	16bb-\JJ	.	.	.	.	.	.	.	.	.	.	.	.	.	.	.	.	.	.	.	.	.
!	!	!	!	!	!	!	!	!LO:DY:b	!	!	!	!	!	!	!	!	!	!	!	!	!	!	!	!	!	!	!	!
.	X	.	.	.	.	.	.	f	.	.	.	.	.	.	.	.	.	.	.	.	.	.	.	.	.	.	.	.
!	!	!	!	!	!	!	!	!	!	!	!	!	!	!	!	!	!	!	!	!	!LO:LB:g=original	!	!	!	!	!	!	!
=66	=66	=66	=66	=66	=66	=66	=66	=66	=66	=66	=66	=66	=66	=66	=66	=66	=66	=66	=66	=66	=66	=66	=66	=66	=66	=66	=66	=66
!	!	!LO:DY:b:rj:t=ffo	!LO:TX:a:t=P:problem:mixed beam	!LO:DY:rj	!LO:TX:a:t=P:problem:mixed beam	!	!	!	!	!	!	!	!	!	!	!	!	!	!	!	!LO:TX:a:t=P:problem:rkp zniszczony	!	!	!LO:DY:rj	!	!	!	!LO:DY:rj
8BBn\L	6\_ 5_ 3_	ff	(16G/LL	f	(16d/LL	.	4aa-X 4bn 4d\	.	2G#X\	et	.	2d\	et	.	2bn\	Et	.	2ff\	Et	.	4ryy	.	4f/	f	4ff\	.	4aa-X\	f
.	.	.	16g\	.	16bn\	.	.	.	.	.	.	.	.	.	.	.	.	.	.	.	.	.	.	.	.	.	.	.
8D\	.	.	16G/	.	16d/	.	.	.	.	.	.	.	.	.	.	.	.	.	.	.	.	.	.	.	.	.	.	.
.	.	.	16g\	.	16bn\	.	.	.	.	.	.	.	.	.	.	.	.	.	.	.	.	.	.	.	.	.	.	.
8BB\	.	.	16G/	.	16d/	.	8aa-\L	.	.	.	.	.	.	.	.	.	.	.	.	.	4ryy	.	4f/	.	4ff\	.	4aa-\	.
.	.	.	16g\	.	16bn\	.	.	.	.	.	.	.	.	.	.	.	.	.	.	.	.	.	.	.	.	.	.	.
8D\J	.	.	16G/	.	16d/	.	8ff\J	.	.	.	.	.	.	.	.	.	.	.	.	.	.	.	.	.	.	.	.	.
.	.	.	16g\JJ)	.	16bn\JJ)	.	.	.	.	.	.	.	.	.	.	.	.	.	.	.	.	.	.	.	.	.	.	.
!	!	!	!LO:TX:a:t=P:problem:mixed beam	!	!LO:TX:a:t=P:problem:mixed beam	!	!	!	!	!	!	!	!	!	!	!	!	!	!	!	!	!	!	!	!	!	!	!
8BB\L	.	.	(16G/LL	.	(16d/LL	.	8ff\L	.	4G#\	san-	.	4d\	san-	.	4b\	san-	.	4ff\	san-	.	4d/	.	4f/	.	4ff\	.	4aa-\	.
.	.	.	16g\	.	16b\	.	.	.	.	.	.	.	.	.	.	.	.	.	.	.	.	.	.	.	.	.	.	.
8D\	.	.	16G/	.	16d/	.	8dd\	.	.	.	.	.	.	.	.	.	.	.	.	.	.	.	.	.	.	.	.	.
.	.	.	16g\	.	16b\	.	.	.	.	.	.	.	.	.	.	.	.	.	.	.	.	.	.	.	.	.	.	.
8BB\	.	.	16G/	.	16d/	.	8dd\	.	4G#\	-guis	.	4d\	-guis	.	4b\	-guis	.	4ff\	-guis	.	4r	.	4r	.	4r	.	4r	.
.	.	.	16g\	.	16b\	.	.	.	.	.	.	.	.	.	.	.	.	.	.	.	.	.	.	.	.	.	.	.
8D\J	.	.	16G/	.	16d/	.	8bn\J	.	.	.	.	.	.	.	.	.	.	.	.	.	.	.	.	.	.	.	.	.
.	.	.	16g\JJ)	.	16b\JJ)	.	.	.	.	.	.	.	.	.	.	.	.	.	.	.	.	.	.	.	.	.	.	.
!	!	!	!	!	!LO:LB:g=original	!	!	!	!	!	!	!	!	!	!LO:LB:g=original	!	!	!LO:LB:g=original	!	!	!	!	!LO:LB:g=original	!	!	!	!LO:LB:g=original	!
=67	=67	=67	=67	=67	=67	=67	=67	=67	=67	=67	=67	=67	=67	=67	=67	=67	=67	=67	=67	=67	=67	=67	=67	=67	=67	=67	=67	=67
!LO:SIC:s=8BBn:v:w całym takcie	!	!	!LO:TX:a:t=P:problem:mixed beam	!	!LO:TX:a:t=P:problem:mixed beam	!	!LO:SIC:s=8bn:v	!	!	!	!	!	!	!	!	!	!	!	!	!	!	!	!	!	!	!	!	!
8BB-\L	6\_ 5_ 3_	.	(16G/LL	.	(16d/LL	.	8b-\L	.	2G\	Chri-	.	2d\	Chri-	.	2bn\	Chri-	.	2ff\	Chri-	.	4f/	.	4dd\	.	4dd\	.	4ff\	.
.	.	.	16g\	.	16bn\	.	.	.	.	.	.	.	.	.	.	.	.	.	.	.	.	.	.	.	.	.	.	.
8D\	.	.	16G/	.	16d/	.	8dd\	.	.	.	.	.	.	.	.	.	.	.	.	.	.	.	.	.	.	.	.	.
.	.	.	16g\	.	16bn\	.	.	.	.	.	.	.	.	.	.	.	.	.	.	.	.	.	.	.	.	.	.	.
8BB-\	.	.	16G/	.	16d/	.	8dd\	.	.	.	.	.	.	.	.	.	.	.	.	.	4f/	.	4dd\	.	4dd\	.	4ff\	.
.	.	.	16g\	.	16bn\	.	.	.	.	.	.	.	.	.	.	.	.	.	.	.	.	.	.	.	.	.	.	.
8D\J	.	.	16G/	.	16d/	.	8ff\J	.	.	.	.	.	.	.	.	.	.	.	.	.	.	.	.	.	.	.	.	.
.	.	.	16g\JJ)	.	16bn\JJ)	.	.	.	.	.	.	.	.	.	.	.	.	.	.	.	.	.	.	.	.	.	.	.
!	!	!	!LO:TX:a:t=P:problem:mixed beam	!	!LO:TX:a:t=P:problem:mixed beam	!	!	!	!	!	!	!	!	!	!	!	!	!	!	!	!	!	!	!	!	!	!	!
8BB-\L	.	.	(16G/LL	.	(16d/LL	.	8ff\L	.	2G\	-ſti	.	2d\	-ſti	.	2b\	-sti	.	2ff\	-ſti	.	4f/	.	4dd\	.	4dd\	.	4ff\	.
.	.	.	16g\	.	16b/	.	.	.	.	.	.	.	.	.	.	.	.	.	.	.	.	.	.	.	.	.	.	.
!	!	!	!	!	!	!	!LO:SIC:s=8gg:v	!	!	!	!	!	!	!	!	!	!	!	!	!	!	!	!	!	!	!	!	!
8D\	.	.	16G/	.	16d/	.	8gg#X\	.	.	.	.	.	.	.	.	.	.	.	.	.	.	.	.	.	.	.	.	.
.	.	.	16g\	.	16b/	.	.	.	.	.	.	.	.	.	.	.	.	.	.	.	.	.	.	.	.	.	.	.
!	!	!	!	!	!	!	!LO:SIC:s=8gg:n	!	!	!	!	!	!	!	!	!	!	!	!	!	!	!	!	!	!	!	!	!
8BB-\	.	.	16G/	.	16d/	.	8gg#\	.	.	.	.	.	.	.	.	.	.	.	.	.	4r	.	4r	.	4r	.	4r	.
.	.	.	16g\	.	16b/	.	.	.	.	.	.	.	.	.	.	.	.	.	.	.	.	.	.	.	.	.	.	.
!	!	!	!	!	!	!	!LO:SIC:s=8bbn:v	!	!	!	!	!	!	!	!	!	!	!	!	!	!	!	!	!	!	!	!	!
8D\J	.	.	16G/	.	16d/	.	8bb-\J	.	.	.	.	.	.	.	.	.	.	.	.	.	.	.	.	.	.	.	.	.
.	.	.	16g\JJ)	.	16b/JJ)	.	.	.	.	.	.	.	.	.	.	.	.	.	.	.	.	.	.	.	.	.	.	.
=68	=68	=68	=68	=68	=68	=68	=68	=68	=68	=68	=68	=68	=68	=68	=68	=68	=68	=68	=68	=68	=68	=68	=68	=68	=68	=68	=68	=68
!	!	!	!LO:TX:a:t=P:problem:mixed beam	!	!LO:TX:a:t=P:problem:mixed beam	!	!	!	!	!	!	!	!	!	!	!	!	!	!	!	!	!	!	!	!	!	!	!
!	!	!	!	!	!LO:SIC:s=16bn:v:zamiast 16b- w tt. 68-69	!	!	!	!	!	!	!	!	!	!	!	!	!	!	!	!	!	!	!	!	!	!	!
8BBn\L	6_ 5_ 3_	.	(16G/LL	.	16d/LL	.	8bbn\L	.	2Fn\	me-	.	2Bn\	me-	.	2g#X\	me-	.	2dd\	me-	.	4d/	.	4f/	.	4ff\	.	4aa-X\	.
.	.	.	16g\	.	16b-\	.	.	.	.	.	.	.	.	.	.	.	.	.	.	.	.	.	.	.	.	.	.	.
8D\	.	.	16G/	.	16d/	.	8ddd\	.	.	.	.	.	.	.	.	.	.	.	.	.	.	.	.	.	.	.	.	.
.	.	.	16g\	.	16b-\	.	.	.	.	.	.	.	.	.	.	.	.	.	.	.	.	.	.	.	.	.	.	.
8BB\	.	.	16G/	.	16d/	.	8ddd\	.	.	.	.	.	.	.	.	.	.	.	.	.	4d/	.	4f/	.	4ff\	.	4aa-\	.
.	.	.	16g\	.	16b-\	.	.	.	.	.	.	.	.	.	.	.	.	.	.	.	.	.	.	.	.	.	.	.
8D\J	.	.	16G/	.	16d/	.	8bb\J	.	.	.	.	.	.	.	.	.	.	.	.	.	.	.	.	.	.	.	.	.
.	.	.	16g\JJ)	.	16b-\JJ	.	.	.	.	.	.	.	.	.	.	.	.	.	.	.	.	.	.	.	.	.	.	.
!	!	!	!LO:LB:g=original	!	!	!	!	!	!	!	!	!	!	!	!	!	!	!	!	!	!	!	!	!	!	!	!	!
!	!	!	!LO:TX:a:t=P:problem:mixed beam	!	!LO:TX:a:t=P:problem:mixed beam	!	!	!	!	!	!	!	!	!	!	!	!	!	!	!	!	!	!	!	!	!	!	!
8BB\L	.	.	(16G/LL	.	16d/LL	.	8bb\L	.	2F\	-rum	.	2B\	-rum	.	2g#\	-rum	.	2dd\	-rum	.	4d/	.	4f/	.	4ff\	.	4aa-\	.
.	.	.	16g\	.	16b-\	.	.	.	.	.	.	.	.	.	.	.	.	.	.	.	.	.	.	.	.	.	.	.
!	!	!	!	!	!	!	!LO:SIC:s=8gg:v	!	!	!	!	!	!	!	!	!	!	!	!	!	!	!	!	!	!	!	!	!
8D\	.	.	16G/	.	16d/	.	8gg#X\	.	.	.	.	.	.	.	.	.	.	.	.	.	.	.	.	.	.	.	.	.
.	.	.	16g\	.	16b-\	.	.	.	.	.	.	.	.	.	.	.	.	.	.	.	.	.	.	.	.	.	.	.
!	!	!	!	!	!	!	!LO:SIC:s=8gg:v	!	!	!	!	!	!	!	!	!	!	!	!	!	!	!	!	!	!	!	!	!
8BB\	.	.	16G/	.	16d/	.	8gg#\	.	.	.	.	.	.	.	.	.	.	.	.	.	4r	.	4r	.	4r	.	4r	.
.	.	.	16g\	.	16b-\	.	.	.	.	.	.	.	.	.	.	.	.	.	.	.	.	.	.	.	.	.	.	.
8D\J	.	.	16G/	.	16d/	.	8ffn\J	.	.	.	.	.	.	.	.	.	.	.	.	.	.	.	.	.	.	.	.	.
.	.	.	16g\JJ)	.	16b-\JJ	.	.	.	.	.	.	.	.	.	.	.	.	.	.	.	.	.	.	.	.	.	.	.
!	!	!	!	!	!	!	!LO:LB:g=original	!	!LO:LB:g=original	!	!	!	!	!	!	!	!	!	!	!	!	!	!	!	!	!	!	!
=69	=69	=69	=69	=69	=69	=69	=69	=69	=69	=69	=69	=69	=69	=69	=69	=69	=69	=69	=69	=69	=69	=69	=69	=69	=69	=69	=69	=69
!LO:SIC:s=8BBn:v:w całym takcie	!	!	!LO:TX:a:t=P:problem:mixed beam	!	!LO:TX:a:t=P:problem:mixed beam	!	!	!	!	!	!	!	!	!	!	!	!	!	!	!	!	!	!	!	!	!	!LO:SIC:s=4aa#:v	!
8BB-\L	6\_ 5_ 3_	.	(16G/LL	.	16d/LL	.	8ff\L	.	2G#X\	Fi-	.	2d\	Fi-	.	2bn\	Fi-	.	2ff\	Fi-	.	4f/	.	4dd\	.	4dd\	.	4aa\	.
.	.	.	16g\	.	16b-\	.	.	.	.	.	.	.	.	.	.	.	.	.	.	.	.	.	.	.	.	.	.	.
8D\	.	.	16G/	.	16d/	.	8dd\	.	.	.	.	.	.	.	.	.	.	.	.	.	.	.	.	.	.	.	.	.
.	.	.	16g\	.	16b-\	.	.	.	.	.	.	.	.	.	.	.	.	.	.	.	.	.	.	.	.	.	.	.
!	!	!	!	!	!	!	!	!	!	!	!	!	!	!	!	!	!	!	!	!	!	!	!	!	!	!	!LO:SIC:s=4aa#:v	!
8BB-\	.	.	16G/	.	16d/	.	8dd\	.	.	.	.	.	.	.	.	.	.	.	.	.	4f/	.	4dd\	.	4dd\	.	4aa\	.
.	.	.	16g\	.	16b-\	.	.	.	.	.	.	.	.	.	.	.	.	.	.	.	.	.	.	.	.	.	.	.
8D\J	.	.	16G/	.	16d/	.	8bn\J	.	.	.	.	.	.	.	.	.	.	.	.	.	.	.	.	.	.	.	.	.
.	.	.	16g\JJ)	.	16b-\JJ	.	.	.	.	.	.	.	.	.	.	.	.	.	.	.	.	.	.	.	.	.	.	.
!	!	!	!LO:TX:a:t=P:problem:mixed beam	!	!LO:TX:a:t=P:problem:mixed beam	!	!	!	!	!	!	!	!	!	!	!	!	!	!	!	!	!	!	!	!	!	!LO:SIC:s=4aa#:v	!
8BB-\L	.	.	(16G/LL	.	16d/LL	.	8b\L	.	4G#\	-et	.	4d\	-et	.	4b\	-et	.	4ff\	-et	.	4f/	.	4dd\	.	4dd\	.	4aa\	.
.	.	.	16g\	.	16b-\	.	.	.	.	.	.	.	.	.	.	.	.	.	.	.	.	.	.	.	.	.	.	.
8D\	.	.	16G/	.	16d/	.	8dd\	.	.	.	.	.	.	.	.	.	.	.	.	.	.	.	.	.	.	.	.	.
.	.	.	16g\	.	16b-\	.	.	.	.	.	.	.	.	.	.	.	.	.	.	.	.	.	.	.	.	.	.	.
8BB-\	.	.	16G/	.	16d/	.	8dd\	.	4G#\	pro-	.	4d\	pro-	.	4b\	pro-	.	4ff\	pro-	.	4r	.	4r	.	4r	.	4r	.
.	.	.	16g\	.	16b-\	.	.	.	.	.	.	.	.	.	.	.	.	.	.	.	.	.	.	.	.	.	.	.
8D\J	.	.	16G/	.	16d/	.	8b\J	.	.	.	.	.	.	.	.	.	.	.	.	.	.	.	.	.	.	.	.	.
.	X X X	.	16g\JJ)	.	16b-\JJ	.	.	.	.	.	.	.	.	.	.	.	.	.	.	.	.	.	.	.	.	.	.	.
!LO:LB:g=original	!	!	!	!	!	!	!	!	!	!	!	!LO:LB:g=original	!	!	!	!	!	!	!	!	!	!	!	!	!	!	!	!
=70	=70	=70	=70	=70	=70	=70	=70	=70	=70	=70	=70	=70	=70	=70	=70	=70	=70	=70	=70	=70	=70	=70	=70	=70	=70	=70	=70	=70
8C\L	5_ -_	.	(16G/LL	.	(16e-XLL 16G/	.	16cc\LL	.	4.C/	-fi-	.	4.c\	-fi-	.	4.gn\	-fi-	.	4.ee-X\	-fi-	.	4cc\	.	4ee-\	.	4ee-\	.	4ccc\	.
.	.	.	16c/	.	16g/	.	16g\	.	.	.	.	.	.	.	.	.	.	.	.	.	.	.	.	.	.	.	.	.
8E-X\	.	.	16G/	.	16e- 16G/	.	16a-X\	.	.	.	.	.	.	.	.	.	.	.	.	.	.	.	.	.	.	.	.	.
.	.	.	16c/	.	16g/	.	16bn\JJ	.	.	.	.	.	.	.	.	.	.	.	.	.	.	.	.	.	.	.	.	.
8C\	.	.	16G/	.	16e- 16G/	.	16cc\LL	.	.	.	.	.	.	.	.	.	.	.	.	.	4cc\	.	4ee-\	.	4ee-\	.	4ccc\	.
.	.	.	16c/	.	16g/	.	16dd\	.	.	.	.	.	.	.	.	.	.	.	.	.	.	.	.	.	.	.	.	.
8E-X\J	.	.	16G/	.	16e- 16G/	.	16ee-\	.	8C/	-cu-	.	8c\	-cu-	.	8g\	-ču-	.	8ee-\	-ču-	.	.	.	.	.	.	.	.	.
.	.	.	16c/JJ)	.	16g/JJ)	.	16ff\JJ	.	.	.	.	.	.	.	.	.	.	.	.	.	.	.	.	.	.	.	.	.
8C\L	.	.	(16G/LL	.	(16e-LL 16G/	.	8ggn\L	.	4C/	-a.	.	4c\	-a.	.	4g\	-a	.	4ee-\	-a.	.	4cc\	.	4ee-\	.	4ee-\	.	4ccc\	.
.	.	.	16c/	.	16g/	.	.	.	.	.	.	.	.	.	.	.	.	.	.	.	.	.	.	.	.	.	.	.
8E-\	.	.	16G/	.	16e- 16G/	.	8dd\	.	.	.	.	.	.	.	.	.	.	.	.	.	.	.	.	.	.	.	.	.
.	.	.	16c/	.	16g/	.	.	.	.	.	.	.	.	.	.	.	.	.	.	.	.	.	.	.	.	.	.	.
8C\	.	.	16G/	.	16e- 16G/	.	8ee-\	.	4r	.	.	4r	.	.	4r	.	.	4r	.	.	4r	.	4r	.	4r	.	4r	.
.	.	.	16c/	.	16g/	.	.	.	.	.	.	.	.	.	.	.	.	.	.	.	.	.	.	.	.	.	.	.
8E-\J	.	.	16G/	.	16e- 16G/	.	8cc\J	.	.	.	.	.	.	.	.	.	.	.	.	.	.	.	.	.	.	.	.	.
.	.	.	16c/JJ)	.	16g/JJ)	.	.	.	.	.	.	.	.	.	.	.	.	.	.	.	.	.	.	.	.	.	.	.
!	!	!	!	!	!	!	!	!	!	!	!	!	!	!	!	!	!	!	!	!	!	!	!	!	!LO:LB:g=original	!	!	!
=71	=71	=71	=71	=71	=71	=71	=71	=71	=71	=71	=71	=71	=71	=71	=71	=71	=71	=71	=71	=71	=71	=71	=71	=71	=71	=71	=71	=71
8C\L	5_ -_	.	(16G/LL	.	(16e-LL 16G/	.	8g/L	.	4C/	Et	.	4c\	Et	.	4g\	Et	.	4ee-\	Et	.	4cc\	.	4ee-\	.	4ee-\	.	4ccc\	.
.	.	.	16c/	.	16g/	.	.	.	.	.	.	.	.	.	.	.	.	.	.	.	.	.	.	.	.	.	.	.
8E-\	.	.	16G/	.	16e- 16G/	.	16cc/L	.	.	.	.	.	.	.	.	.	.	.	.	.	.	.	.	.	.	.	.	.
.	.	.	16c/	.	16g/	.	16bn/JJ	.	.	.	.	.	.	.	.	.	.	.	.	.	.	.	.	.	.	.	.	.
8C\	.	.	16G/	.	(16e- 16G/	.	8cc\L	.	4c\	san-	.	4c\	san-	.	4g\	san-	.	4ee-\	san-	.	4cc\	.	4ee-\	.	4ee-\	.	4ccc\	.
.	.	.	16c/	.	16g/	.	.	.	.	.	.	.	.	.	.	.	.	.	.	.	.	.	.	.	.	.	.	.
8E-\J	.	.	16G/	.	16e- 16G/	.	8ee-\J	.	.	.	.	.	.	.	.	.	.	.	.	.	.	.	.	.	.	.	.	.
.	.	.	16c/JJ)	.	16g/JJ)	.	.	.	.	.	.	.	.	.	.	.	.	.	.	.	.	.	.	.	.	.	.	.
8C\L	.	.	(16G/LL	.	16e-LL 16G/	.	8cc\L	.	4C/	-guis	.	4c\	-guis	.	4g\	-guis	.	4ee-\	-guis	.	2r	.	2r	.	2r	.	2r	.
.	.	.	16c/	.	16g/	.	.	.	.	.	.	.	.	.	.	.	.	.	.	.	.	.	.	.	.	.	.	.
8E-\	.	.	16G/	.	16e- 16G/	.	8gg\J	.	.	.	.	.	.	.	.	.	.	.	.	.	.	.	.	.	.	.	.	.
.	.	.	16c/	.	16g/	.	.	.	.	.	.	.	.	.	.	.	.	.	.	.	.	.	.	.	.	.	.	.
8C\	.	.	16G/	.	16e- 16G/	.	16ff\LL	.	4r	.	.	4r	.	.	4r	.	.	4r	.	.	.	.	.	.	.	.	.	.
.	.	.	16c/	.	16g/	.	16ee-\	.	.	.	.	.	.	.	.	.	.	.	.	.	.	.	.	.	.	.	.	.
8E-\J	.	.	16G/	.	16e- 16G/	.	16dd\	.	.	.	.	.	.	.	.	.	.	.	.	.	.	.	.	.	.	.	.	.
.	.	.	16c/JJ)	.	16g/JJ	.	16cc\JJ	.	.	.	.	.	.	.	.	.	.	.	.	.	.	.	.	.	.	.	.	.
!	!	!	!	!	!	!	!	!	!	!	!	!	!	!	!LO:LB:g=original	!	!	!LO:LB:g=original	!	!	!	!	!	!	!	!	!	!
=72	=72	=72	=72	=72	=72	=72	=72	=72	=72	=72	=72	=72	=72	=72	=72	=72	=72	=72	=72	=72	=72	=72	=72	=72	=72	=72	=72	=72
8F\L	n_	.	(16c\LL	.	(16f/LL	.	8an\L	.	2F\	Chri-	.	2c\	Chri-	.	2a\	Chri-	.	2ff\	Chri-	.	4f/	.	4cc\	.	4ff\	.	4aan\	.
.	.	.	16f\	.	16a/	.	.	.	.	.	.	.	.	.	.	.	.	.	.	.	.	.	.	.	.	.	.	.
8An\	.	.	16c\	.	16f/	.	8cc\	.	.	.	.	.	.	.	.	.	.	.	.	.	.	.	.	.	.	.	.	.
.	.	.	16f\	.	16a/	.	.	.	.	.	.	.	.	.	.	.	.	.	.	.	.	.	.	.	.	.	.	.
8F\	.	.	16c\	.	16f/	.	8ee-\	.	.	.	.	.	.	.	.	.	.	.	.	.	4r	.	4r	.	4r	.	4r	.
.	.	.	16f\	.	16a/	.	.	.	.	.	.	.	.	.	.	.	.	.	.	.	.	.	.	.	.	.	.	.
8An\J	.	.	16c\	.	16f/	.	8gg\J	.	.	.	.	.	.	.	.	.	.	.	.	.	.	.	.	.	.	.	.	.
.	.	.	16f\JJ)	.	16a/JJ)	.	.	.	.	.	.	.	.	.	.	.	.	.	.	.	.	.	.	.	.	.	.	.
!	!	!	!	!	!	!	!	!	!	!	!	!	!	!	!	!	!	!	!	!	!	!	!LO:LB:g=original	!	!	!	!	!
!	!	!	!	!	!	!	!	!	!	!	!	!	!	!	!	!	!	!	!	!	!	!	!LO:TX:a:t=P:problem:rkp zniszczony	!	!	!	!	!
8F\L	.	.	(16c\LL	.	16f/LL	.	16ff\LL	.	4E-\	-ſti	.	4c\	-ſti	.	4a\	-ſti	.	4ff\	-ſti	.	4f/	.	2ryy	.	4ff\	.	4aa\	.
.	.	.	16f\	.	16a/	.	16aa\	.	.	.	.	.	.	.	.	.	.	.	.	.	.	.	.	.	.	.	.	.
8A\	.	.	16c\	.	16f/	.	16ccc\	.	.	.	.	.	.	.	.	.	.	.	.	.	.	.	.	.	.	.	.	.
.	.	.	16f\	.	16a/	.	16bb-\JJ	.	.	.	.	.	.	.	.	.	.	.	.	.	.	.	.	.	.	.	.	.
!	!	!	!	!	!	!	!LO:LB:g=original	!	!	!	!	!	!	!	!	!	!	!	!	!	!	!	!	!	!	!	!	!
8F\	.	.	16c\	.	16f/	.	16aa\LL	.	4r	.	.	4r	.	.	4r	.	.	4r	.	.	4f/	.	.	.	4ff\	.	4aa\	.
.	.	.	16f\	.	16a/	.	16gg\	.	.	.	.	.	.	.	.	.	.	.	.	.	.	.	.	.	.	.	.	.
8A\J	.	.	16c\	.	16f/	.	16ff\	.	.	.	.	.	.	.	.	.	.	.	.	.	.	.	.	.	.	.	.	.
.	.	.	16f\JJ)	.	16a/JJ	.	16ee-\JJ	.	.	.	.	.	.	.	.	.	.	.	.	.	.	.	.	.	.	.	.	.
*	*	*	*	*	*Xtremolo	*	*	*	*	*	*	*	*	*	*	*	*	*	*	*	*	*	*	*	*	*	*	*
!	!	!	!	!	!	!	!	!	!	!	!	!	!	!	!	!	!	!	!	!	!LO:LB:g=original	!	!	!	!	!	!LO:LB:g=original	!
=73	=73	=73	=73	=73	=73	=73	=73	=73	=73	=73	=73	=73	=73	=73	=73	=73	=73	=73	=73	=73	=73	=73	=73	=73	=73	=73	=73	=73
!	!	!	!	!	!	!	!	!	!	!	!	!	!	!	!	!	!	!	!	!	!LO:TX:a:t=P:problem:rkp zniszczony	!	!	!	!	!	!	!
4B-\	5	.	4f\	.	4b-\	.	4dd\	.	2r	.	.	4r	.	.	2r	.	.	2r	.	.	4ryy	.	4b-\	.	4b-\	.	4dd\	.
4r	.	.	4r	.	4r	.	4r	.	.	.	.	4r	.	.	.	.	.	.	.	.	4ryy	.	4r	.	8dd\L	.	8ff\L	.
.	.	.	.	.	.	.	.	.	.	.	.	.	.	.	.	.	.	.	.	.	.	.	.	.	8dd\J	.	8bb-\J	.
8F\L	5_	.	(8c\L	.	16A/LL	.	16a\LL	.	2F\	me-	.	2c\	me-	.	2a\	me-	.	2ee-\	me-	.	4ryy	.	4cc\	.	4cc\	.	4aa\	.
.	.	.	.	.	16B-/	.	16b-\	.	.	.	.	.	.	.	.	.	.	.	.	.	.	.	.	.	.	.	.	.
8A\	.	.	8f\	.	16c/	.	16cc\	.	.	.	.	.	.	.	.	.	.	.	.	.	.	.	.	.	.	.	.	.
.	.	.	.	.	16d/JJ	.	16dd\JJ	.	.	.	.	.	.	.	.	.	.	.	.	.	.	.	.	.	.	.	.	.
8F\	.	.	8c\	.	16e-/LL	.	16ee-\LL	.	.	.	.	.	.	.	.	.	.	.	.	.	4r	.	4r	.	4r	.	4r	.
.	.	.	.	.	16f/	.	16ff\	.	.	.	.	.	.	.	.	.	.	.	.	.	.	.	.	.	.	.	.	.
8A\J	.	.	8f\J)	.	16g/	.	16gg\	.	.	.	.	.	.	.	.	.	.	.	.	.	.	.	.	.	.	.	.	.
.	.	.	.	.	16a/JJ	.	16aa\JJ	.	.	.	.	.	.	.	.	.	.	.	.	.	.	.	.	.	.	.	.	.
!	!	!	!	!	!LO:LB:g=original	!	!	!	!	!	!	!	!	!	!	!	!	!	!	!	!	!	!	!	!	!	!	!
=74	=74	=74	=74	=74	=74	=74	=74	=74	=74	=74	=74	=74	=74	=74	=74	=74	=74	=74	=74	=74	=74	=74	=74	=74	=74	=74	=74	=74
4B-\	5	.	4f\	.	4b-\	.	4bb-\	.	4F\	-rum	.	4B-\	-rum	.	4f\	-rum	.	4dd\	-rum	.	4d/	.	4b-\	.	4b-\	.	4dd\	.
!LO:TX:b:t=Verte.	!	!	!	!	!	!	!	!	!	!	!	!	!	!	!	!	!	!	!	!	!	!	!	!	!	!	!	!
4r	.	.	4r	.	4r	.	4r	.	4r	.	.	4r	.	.	4r	.	.	4r	.	.	4r	.	4r	.	8dd\L	.	8ff\L	.
.	.	.	.	.	.	.	.	.	.	.	.	.	.	.	.	.	.	.	.	.	.	.	.	.	8dd\J	.	8bb-\J	.
!LO:PB:g=original	!	!	!	!	!	!	!	!	!LO:LB:g=original	!	!	!	!	!	!	!	!	!	!	!	!	!	!	!	!	!	!	!
8F\L	.	.	(8c\L	.	16A/LL	.	16a\LL	.	2F\	Fi-	.	2c\	fi-	.	2a\	Fi-	.	2ee-\	fi-	.	4f/	.	4cc\	.	4cc\	.	4aa\	.
.	.	.	.	.	16B-/	.	16b-\	.	.	.	.	.	.	.	.	.	.	.	.	.	.	.	.	.	.	.	.	.
8A\	.	.	8f\	.	16c/	.	16cc\	.	.	.	.	.	.	.	.	.	.	.	.	.	.	.	.	.	.	.	.	.
.	.	.	.	.	16d/JJ	.	16dd\JJ	.	.	.	.	.	.	.	.	.	.	.	.	.	.	.	.	.	.	.	.	.
8F\	.	.	8c\	.	16e-/LL	.	16ee-\LL	.	.	.	.	.	.	.	.	.	.	.	.	.	4r	.	4r	.	4r	.	4r	.
.	.	.	.	.	(16f/	.	16ff\	.	.	.	.	.	.	.	.	.	.	.	.	.	.	.	.	.	.	.	.	.
8A\J	.	.	8f\J)	.	16g/	.	16gg\	.	.	.	.	.	.	.	.	.	.	.	.	.	.	.	.	.	.	.	.	.
!LO:TX:a:t=Tutti	!	!LO:DY:b:t=ffo	!	!	!	!	!	!	!	!	!	!	!	!	!	!	!	!	!	!	!	!	!	!	!	!	!	!
.	.	ff	.	.	16a/JJ)	.	16aa\JJ	.	.	.	.	.	.	.	.	.	.	.	.	.	.	.	.	.	.	.	.	.
*	*	*	*Xtremolo	*	*	*	*	*	*	*	*	*	*	*	*	*	*	*	*	*	*	*	*	*	*	*	*	*
!	!	!	!LO:LB:g=original	!	!	!	!	!	!	!	!	!LO:LB:g=original	!	!	!	!	!	!	!	!	!	!	!	!	!	!	!	!
=75	=75	=75	=75	=75	=75	=75	=75	=75	=75	=75	=75	=75	=75	=75	=75	=75	=75	=75	=75	=75	=75	=75	=75	=75	=75	=75	=75	=75
16BB-'\LL	.	.	16B-'\LL	.	4b- 4d\	.	4bb- 4dd\	.	4B-\	-et	.	4B-\	-et	.	4f\	-et	.	4dd\	-et	.	4d/	.	4b-\	.	4dd\	.	4bb-\	.
16D'\	.	.	16d'\	.	.	.	.	.	.	.	.	.	.	.	.	.	.	.	.	.	.	.	.	.	.	.	.	.
16F'\	.	.	16f'\	.	.	.	.	.	.	.	.	.	.	.	.	.	.	.	.	.	.	.	.	.	.	.	.	.
16B-'\JJ	.	.	16b-'\JJ	.	.	.	.	.	.	.	.	.	.	.	.	.	.	.	.	.	.	.	.	.	.	.	.	.
16A'\LL	.	.	16a'\LL	.	4a 4e-\	.	4aa 4cc\	.	4A\	pro-	.	4c\	pro-	.	4f\	pro-	.	4ee-\	pro-	.	4f/	.	4cc\	.	4cc\	.	4aa\	.
16G'\	.	.	16g'\	.	.	.	.	.	.	.	.	.	.	.	.	.	.	.	.	.	.	.	.	.	.	.	.	.
16A'\	.	.	16a'\	.	.	.	.	.	.	.	.	.	.	.	.	.	.	.	.	.	.	.	.	.	.	.	.	.
16F'\JJ	.	.	16f'\JJ	.	.	.	.	.	.	.	.	.	.	.	.	.	.	.	.	.	.	.	.	.	.	.	.	.
16B-'\LL	.	.	16b-'\LL	.	4b- 4d\	.	4bb- 4dd\	.	4B-\	-fi-	.	4B-\	-fi-	.	4f\	-fi-	.	4dd\	-fi-	.	4d/	.	4b-\	.	4dd\	.	4bb-\	.
16F'\	.	.	16f'\	.	.	.	.	.	.	.	.	.	.	.	.	.	.	.	.	.	.	.	.	.	.	.	.	.
16D'\	.	.	16d'\	.	.	.	.	.	.	.	.	.	.	.	.	.	.	.	.	.	.	.	.	.	.	.	.	.
16BB-'\JJ	.	.	16B-'\JJ	.	.	.	.	.	.	.	.	.	.	.	.	.	.	.	.	.	.	.	.	.	.	.	.	.
4F\	7	.	4f\	.	4a 4e-\	.	4aa 4cc\	.	4A\	-ču-	.	4c\	-ču-	.	4f\	-ču-	.	4ee-\	-ču-	.	4f/	.	4cc\	.	4cc\	.	4aa\	.
!	!	!	!	!	!	!	!	!	!	!	!	!	!	!	!	!	!	!	!	!	!	!	!	!	!LO:LB:g=original	!	!	!
=76	=76	=76	=76	=76	=76	=76	=76	=76	=76	=76	=76	=76	=76	=76	=76	=76	=76	=76	=76	=76	=76	=76	=76	=76	=76	=76	=76	=76
4BB-/	3_	ff	4f\	.	4b- 4d\	.	4bb- 4dd\	.	4B-\	-a.	.	4B-\	-a.	.	4f\	-a	.	4dd\	-a.	.	4d/	.	4b-\	.	4dd\	.	4bb-\	.
4BB-/	.	.	4f\	.	4b- 4d\	.	4bb- 4dd\	.	4r	.	.	4r	.	.	4r	.	.	4r	.	.	4d/	.	4b-\	.	4dd\	.	4bb-\	.
4BB-/	.	.	4f\	.	4b- 4d\	.	4bb- 4dd\	.	2r	.	.	2r	.	.	2r	.	.	2r	.	.	4d/	.	4b-\	.	4dd\	.	4bb-\	.
4r	X	.	4r	.	4r	.	4r	.	.	.	.	.	.	.	.	.	.	.	.	.	4r	.	4r	.	4r	.	4r	.
!LO:TX:b:t=76.	!	!	!LO:TX:b:t=76.	!	!LO:TX:b:t=76.	!	!LO:TX:b:t=76.	!	!LO:TX:b:t=76.	!	!	!LO:TX:b:t=76.	!	!	!LO:TX:b:t=76.	!	!	!LO:TX:b:t=76.	!	!	!LO:TX:b:t=76.	!	!LO:TX:b:t=76.	!	!LO:TX:b:t=76.	!	!LO:TX:b:t=76.	!
!	!	!	!LO:TX:b:t=P. Cyrillus\nGaetz.	!	!	!	!	!	!	!	!	!	!	!	!	!	!	!	!	!	!	!	!	!	!	!	!	!
==	==	==	==	==	==	==	==	==	==	==	==	==	==	==	==	==	==	==	==	==	==	==	==	==	==	==	==	==
*-	*-	*-	*-	*-	*-	*-	*-	*-	*-	*-	*-	*-	*-	*-	*-	*-	*-	*-	*-	*-	*-	*-	*-	*-	*-	*-	*-	*-
!!!system-decoration: [g1][g2][g3][g4]s12
!!!RDF**kern: > = above
!!!RDF**kern: < = below
!!!RDF**dynam: p = "p:"
!!!RDF**dynam: pp = "pp:"
!!!RDF**dynam: f = "fo"
!!!ENC: Marta Lawrence
!!!END: 2020-07-10
!!!ENC: Krzysztof Stępień
!!!END: 2020-03-06
